(Generated by PartKam Version 0.05)

G20 G90 G40

(follow path 1)
G0 Z0.3
T0 M6
G17
M3
G0 X16.9588 Y26.4367
G1 Z-0.25 F30
G1 X18.1962 Y27.6741 F25

(follow path 2)
G0 Z0.3
G0 X15.1338 Y23.9789
G1 Z-0.25 F30
G1 X16.8838 Y23.9789 F25

(follow path 3)
G0 Z0.3
G0 X8.9148 Y23.9789
G1 Z-0.25 F30
G1 X10.6648 Y23.9789 F25

(follow path 4)
G0 Z0.3
G0 X3.955 Y24.7881
G1 Z-0.25 F30
G1 X5.1924 Y26.0256 F25

(follow path 5)
G0 Z0.3
G0 X5.7482 Y23.9789
G1 Z-0.25 F30
G1 X7.4982 Y23.9789 F25

(follow path 6)
G0 Z0.3
G0 X3.6999 Y15.9043
G1 Z-0.25 F30
G1 X5.4499 Y15.9043 F25

(follow path 7)
G0 Z0.3
G0 X6.1299 Y15.9043
G1 Z-0.25 F30
G1 X7.8799 Y15.9043 F25
G0 Z0.3
G0 X10.4948 Y15.9043
G1 Z-0.25 F30
G1 X12.2448 Y15.9043 F25

(follow path 8)
G0 Z0.3
G0 X15.1256 Y14.118
G1 Z-0.25 F30
G1 X16.3631 Y15.3554 F25
G0 Z0.3
G0 X8.7169 Y13.9156
G1 Z-0.25 F30
G1 X10.7169 Y13.9156 F25

(follow path 9)
G0 Z0.3
G0 X7.2079 Y11.9269
G1 Z-0.25 F30
G1 X8.9579 Y11.9269 F25
G0 Z0.3
G0 X11.4374 Y11.9269
G1 Z-0.25 F30
G1 X13.1874 Y11.9269 F25
G0 Z0.3
G0 X13.8717 Y11.9269
G1 Z-0.25 F30
G1 X15.6217 Y11.9269 F25

(follow path 10)
G0 Z0.3
G0 X3.1361 Y12.4726
G1 Z-0.25 F30
G1 X4.3736 Y13.7101 F25

(follow path 11)
G0 Z0.3
G0 X2.7277 Y3.8524
G1 Z-0.25 F30
G1 X4.319 Y3.8524 F25
G0 Z0.3
G0 X1.2566 Y0.1573
G1 Z-0.25 F30
G1 X2.4941 Y1.3947 F25

(follow path 12)
G0 Z0.3
G0 X8.6421 Y3.8524
G1 Z-0.25 F30
G1 X10.3921 Y3.8524 F25
G0 Z0.3
G0 X11.9547 Y3.8524
G1 Z-0.25 F30
G1 X13.7047 Y3.8524 F25
G0 Z0.3
G0 X14.3068 Y1.8025
G1 Z-0.25 F30
G1 X15.5442 Y3.0399 F25

(profile 13)
G0 Z0.3
G0 X12.3265 Y21.4729
G1 Z-0.25 F30
G1 X12.9955 Y22.4903 F25
G1 Z0 F30
G1 X13.2703 Y22.908 F25
G1 Z-0.25 F30
G1 X13.9745 Y23.9789 F25
G1 X12.9738 Y23.9789
G1 Z0 F30
G1 X12.4738 Y23.9789 F25
G1 Z-0.25 F30
G1 X11.9026 Y23.9789 F25
G1 X12.2529 Y23.5973
G1 X12.4533 Y23.379
G2 X12.4863 Y23.2945 I-0.0921 J-0.0845
G2 X12.4858 Y23.2835 I-0.125 J0
G1 X12.3265 Y21.4729
G0 Z0.3
G0 X7.1077 Y23.9789
G1 Z-0.25 F30
G1 X7.32 Y23.5382 F25
G1 Z0 F30
G1 X7.5369 Y23.0877 F25
G1 Z-0.25 F30
G1 X8.3238 Y21.4537 F25
G1 X8.4126 Y22.4623
G1 Z0 F30
G1 X8.4564 Y22.9603 F25
G1 Z-0.25 F30
G1 X8.4868 Y23.3054 F25
G2 X8.527 Y23.3867 I0.1245 J-0.011
G1 X9.1748 Y23.9789
G1 X7.1077 Y23.9789

(profile 14)
G0 Z0.3
G0 X14.7881 Y18.2082
G1 Z-0.25 F30
G1 X14.0838 Y17.1372 F25
G1 Z0 F30
G1 X13.8091 Y16.7195 F25
G1 Z-0.25 F30
G1 X13.273 Y15.9043 F25
G1 X14.5853 Y15.9043
G1 X14.6207 Y16.3061
G1 Z0 F30
G1 X14.6645 Y16.8042 F25
G1 Z-0.25 F30
G1 X14.7881 Y18.2082 F25
G0 Z0.3
G0 X6.4096 Y15.9043
G1 Z-0.25 F30
G1 X6.1286 Y16.4878 F25
G1 Z0 F30
G1 X5.9116 Y16.9383 F25
G1 Z-0.25 F30
G1 X5.2908 Y18.2273 F25
G1 X5.1662 Y16.8111
G1 Z0 F30
G1 X5.1224 Y16.3131 F25
G1 Z-0.25 F30
G1 X5.0864 Y15.9043 F25
G1 X6.4096 Y15.9043

(profile 15)
G0 Z0.3
G0 X4.5334 Y9.623
G1 Z-0.25 F30
G1 X5.4482 Y11.014 F25
G1 Z0 F30
G1 X5.7229 Y11.4317 F25
G1 Z-0.25 F30
G1 X6.0486 Y11.9269 F25
G1 X4.7363 Y11.9269
G1 X4.697 Y11.4806
G1 Z0 F30
G1 X4.6531 Y10.9825 F25
G1 Z-0.25 F30
G1 X4.5334 Y9.623 F25
G0 Z0.3
G0 X12.912 Y11.9269
G1 Z-0.25 F30
G1 X13.2146 Y11.2985 F25
G1 Z0 F30
G1 X13.4316 Y10.848 F25
G1 Z-0.25 F30
G1 X14.0307 Y9.6039 F25
G1 X14.1554 Y11.02
G1 Z0 F30
G1 X14.1993 Y11.518 F25
G1 Z-0.25 F30
G1 X14.2353 Y11.9269 F25
G1 X12.912 Y11.9269

(profile 16)
G0 Z0.3
G0 X7.0587 Y6.91
G1 Z-0.25 F30
G1 X6.2493 Y5.6793 F25
G1 Z0 F30
G1 X5.9746 Y5.2615 F25
G1 Z-0.25 F30
G1 X5.0109 Y3.7961 F25
G3 X4.9903 Y3.7274 I0.1044 J-0.0687
G3 X5.1153 Y3.6024 I0.125 J0
G1 X6.175 Y3.6024
G1 Z0 F30
G1 X6.675 Y3.6024 F25
G1 Z-0.25 F30
G1 X7.7034 Y3.6024 F25
G3 X7.8284 Y3.7274 I0 J0.125
G3 X7.7954 Y3.8119 I-0.125 J0
G1 X7.0896 Y4.5807
G1 X7.2876 Y6.8304
G3 X7.2881 Y6.8413 I-0.1245 J0.011
G3 X7.0587 Y6.91 I-0.125 J0
G0 Z0.3
G0 X12.5254 Y3.7817
G1 Z-0.25 F30
G1 X11.9161 Y5.0467 F25
G1 Z0 F30
G1 X11.6992 Y5.4972 F25
G1 Z-0.25 F30
G1 X11.0257 Y6.8956 F25
G3 X10.7886 Y6.8523 I-0.1126 J-0.0542
G1 X10.6128 Y4.8566
G1 X10.59 Y4.5963
G1 X9.7404 Y3.8197
G3 X9.6997 Y3.7275 I0.0843 J-0.0923
G3 X9.8247 Y3.6025 I0.125 J0
G1 X10.8645 Y3.6025
G1 Z0 F30
G1 X11.3645 Y3.6025 F25
G1 Z-0.25 F30
G1 X12.4128 Y3.6025 F25
G3 X12.5378 Y3.7275 I0 J0.125
G3 X12.5254 Y3.7817 I-0.125 J0

(profile 17)
G0 Z0.3
G0 X17.3516 Y27.9563
G1 Z-0.25 F30
G1 X11.3384 Y27.9563 F25
G1 Z0 F30
G1 X10.8384 Y27.9563 F25
G1 Z-0.25 F30
G1 X4.4196 Y27.9563 F25
G3 X4.3353 Y27.9235 I0 J-0.125
G1 X4.0964 Y27.7051
G1 X3.4497 Y27.1141
G1 X2.873 Y26.5869
G1 X1.9874 Y25.7776
G3 X1.9472 Y25.6962 I0.0843 J-0.0923
G1 X1.9202 Y25.3874
G1 X1.4724 Y20.3
G1 Z0 F30
G1 X1.4286 Y19.8019 F25
G1 Z-0.25 F30
G1 X1.0291 Y15.2631 F25
G3 X1.0286 Y15.2521 I0.1245 J-0.011
G3 X1.0615 Y15.1676 I0.125 J0
G1 X2.2038 Y13.9234
G1 X0.834 Y12.6713
G3 X0.7938 Y12.59 I0.0843 J-0.0923
G1 X0.3354 Y7.3819
G1 Z0 F30
G1 X0.2915 Y6.8838 F25
G1 Z-0.25 F30
G1 X-0.1245 Y2.1569 F25
G3 X-0.125 Y2.146 I0.1245 J-0.011
G3 X-0.0921 Y2.0614 I0.125 J0
G1 X0.1084 Y1.8431
G1 X1.1349 Y0.7249
G1 X1.878 Y-0.0845
G3 X1.9701 Y-0.125 I0.0921 J0.0845
G1 X2.2807 Y-0.125
G1 X8.5126 Y-0.125
G1 Z0 F30
G1 X9.0126 Y-0.125 F25
G1 Z-0.25 F30
G1 X14.9021 Y-0.125 F25
G3 X14.9864 Y-0.0923 I0 J0.125
G1 X15.872 Y0.7171
G1 X17.3343 Y2.0537
G3 X17.3745 Y2.1351 I-0.0843 J0.0923
G1 X17.4015 Y2.4437
G1 X17.8106 Y7.0919
G1 Z0 F30
G1 X17.8545 Y7.59 F25
G1 Z-0.25 F30
G1 X18.2926 Y12.5681 F25
G3 X18.2931 Y12.579 I-0.1245 J0.011
G3 X18.2602 Y12.6636 I-0.125 J0
G1 X17.1179 Y13.9079
G1 X18.4877 Y15.1599
G3 X18.5279 Y15.2412 I-0.0843 J0.0923
G1 X18.9554 Y20.0978
G1 Z0 F30
G1 X18.9992 Y20.5958 F25
G1 Z-0.25 F30
G1 X19.4462 Y25.6743 F25
G3 X19.4467 Y25.6853 I-0.1245 J0.011
G3 X19.4138 Y25.7698 I-0.125 J0
G1 X19.2134 Y25.9881
G1 X18.6707 Y26.5792
G1 X18.1868 Y27.1063
G1 X17.4437 Y27.9158
G3 X17.3516 Y27.9563 I-0.0921 J-0.0845
G0 Z0.3
M5
M30
