(Generated by PartKam Version 0.05)

G20 G90 G40

(pockets)
G0 Z0.3
T0 M6
G17
M3
G0 X10.6432 Y13.9591
G1 Z-0.1 F30
G1 X8.8682 Y13.9591 F25
G1 X8.8682 Y13.9091
G1 X10.6432 Y13.9091
G1 X10.6432 Y13.9591
G1 X10.7432 Y14.0591 F25
G1 X8.7682 Y14.0591 F25
G1 X8.7682 Y13.8091
G1 X10.7432 Y13.8091
G1 X10.7432 Y14.0591
G0 Z0.3
G0 X4.913 Y25.8204
G1 Z-0.1 F30
G1 X4.1705 Y25.0779 F25
G1 X4.2059 Y25.0426
G1 X4.9484 Y25.785
G1 X4.913 Y25.8204
G1 X4.913 Y25.9618 F25
G1 X4.0291 Y25.0779 F25
G1 X4.2059 Y24.9011
G1 X5.0898 Y25.785
G1 X4.913 Y25.9618
G0 Z0.3
G0 X15.1444 Y2.8371
G1 Z-0.1 F30
G1 X14.4019 Y2.0946 F25
G1 X14.4373 Y2.0593
G1 X15.1798 Y2.8018
G1 X15.1444 Y2.8371
G1 X15.1444 Y2.9785 F25
G1 X14.2605 Y2.0946 F25
G1 X14.4373 Y1.9179
G1 X15.3212 Y2.8018
G1 X15.1444 Y2.9785
G0 Z0.3
G0 X5.0693 Y16.0535
G1 Z-0.1 F30
G1 X4.0193 Y16.0535 F25
G1 X4.0193 Y16.0035
G1 X5.0693 Y16.0035
G1 X5.0693 Y16.0535
G1 X5.1693 Y16.1535 F25
G1 X3.9193 Y16.1535 F25
G1 X3.9193 Y15.9035
G1 X5.1693 Y15.9035
G1 X5.1693 Y16.1535
G0 Z0.3
G0 X4.0107 Y4.0024
G1 Z-0.1 F30
G1 X2.9607 Y4.0024 F25
G1 X2.9607 Y3.9524
G1 X4.0107 Y3.9524
G1 X4.0107 Y4.0024
G1 X4.1107 Y4.1024 F25
G1 X2.8607 Y4.1024 F25
G1 X2.8607 Y3.8524
G1 X4.1107 Y3.8524
G1 X4.1107 Y4.1024
G0 Z0.3
G0 X15.3235 Y14.3968
G1 Z-0.1 F30
G1 X16.066 Y15.1393 F25
G1 X16.0306 Y15.1746
G1 X15.2881 Y14.4322
G1 X15.3235 Y14.3968
G1 X15.3235 Y14.2554 F25
G1 X16.2074 Y15.1393 F25
G1 X16.0306 Y15.3161
G1 X15.1467 Y14.4322
G1 X15.3235 Y14.2554
G0 Z0.3
G0 X7.4777 Y16.0543
G1 Z-0.1 F30
G1 X6.4277 Y16.0543 F25
G1 X6.4277 Y16.0043
G1 X7.4777 Y16.0043
G1 X7.4777 Y16.0543
G1 X7.5777 Y16.1543 F25
G1 X6.3277 Y16.1543 F25
G1 X6.3277 Y15.9043
G1 X7.5777 Y15.9043
G1 X7.5777 Y16.1543
G0 Z0.3
G0 X7.1898 Y23.8789
G1 Z-0.1 F30
G1 X6.1398 Y23.8789 F25
G1 X6.1398 Y23.8289
G1 X7.1898 Y23.8289
G1 X7.1898 Y23.8789
G1 X7.2898 Y23.9789 F25
G1 X6.0398 Y23.9789 F25
G1 X6.0398 Y23.7289
G1 X7.2898 Y23.7289
G1 X7.2898 Y23.9789
G0 Z0.3
G0 X8.6288 Y11.8269
G1 Z-0.1 F30
G1 X7.5788 Y11.8269 F25
G1 X7.5788 Y11.7769
G1 X8.6288 Y11.7769
G1 X8.6288 Y11.8269
G1 X8.7288 Y11.9269 F25
G1 X7.4788 Y11.9269 F25
G1 X7.4788 Y11.6769
G1 X8.7288 Y11.6769
G1 X8.7288 Y11.9269
G0 Z0.3
G0 X10.3981 Y23.8789
G1 Z-0.1 F30
G1 X9.3481 Y23.8789 F25
G1 X9.3481 Y23.8289
G1 X10.3981 Y23.8289
G1 X10.3981 Y23.8789
G1 X10.4981 Y23.9789 F25
G1 X9.2481 Y23.9789 F25
G1 X9.2481 Y23.7289
G1 X10.4981 Y23.7289
G1 X10.4981 Y23.9789
G0 Z0.3
G0 X11.9157 Y16.0543
G1 Z-0.1 F30
G1 X10.8657 Y16.0543 F25
G1 X10.8657 Y16.0043
G1 X11.9157 Y16.0043
G1 X11.9157 Y16.0543
G1 X12.0157 Y16.1543 F25
G1 X10.7657 Y16.1543 F25
G1 X10.7657 Y15.9043
G1 X12.0157 Y15.9043
G1 X12.0157 Y16.1543
G0 Z0.3
G0 X10.1046 Y4.0024
G1 Z-0.1 F30
G1 X9.0546 Y4.0024 F25
G1 X9.0546 Y3.9524
G1 X10.1046 Y3.9524
G1 X10.1046 Y4.0024
G1 X10.2046 Y4.1024 F25
G1 X8.9546 Y4.1024 F25
G1 X8.9546 Y3.8524
G1 X10.2046 Y3.8524
G1 X10.2046 Y4.1024
G0 Z0.3
G0 X13.046 Y11.8269
G1 Z-0.1 F30
G1 X11.996 Y11.8269 F25
G1 X11.996 Y11.7769
G1 X13.046 Y11.7769
G1 X13.046 Y11.8269
G1 X13.146 Y11.9269 F25
G1 X11.896 Y11.9269 F25
G1 X11.896 Y11.6769
G1 X13.146 Y11.6769
G1 X13.146 Y11.9269
G0 Z0.3
G0 X3.4003 Y12.682
G1 Z-0.1 F30
G1 X4.1427 Y13.4245 F25
G1 X4.1074 Y13.4598
G1 X3.3649 Y12.7174
G1 X3.4003 Y12.682
G1 X3.4003 Y12.5406 F25
G1 X4.2842 Y13.4245 F25
G1 X4.1074 Y13.6012
G1 X3.2235 Y12.7174
G1 X3.4003 Y12.5406
G0 Z0.3
G0 X16.4504 Y23.8789
G1 Z-0.1 F30
G1 X15.4004 Y23.8789 F25
G1 X15.4004 Y23.8289
G1 X16.4504 Y23.8289
G1 X16.4504 Y23.8789
G1 X16.5504 Y23.9789 F25
G1 X15.3004 Y23.9789 F25
G1 X15.3004 Y23.7289
G1 X16.5504 Y23.7289
G1 X16.5504 Y23.9789
G0 Z0.3
G0 X13.2922 Y4.0024
G1 Z-0.1 F30
G1 X12.2422 Y4.0024 F25
G1 X12.2422 Y3.9524
G1 X13.2922 Y3.9524
G1 X13.2922 Y4.0024
G1 X13.3922 Y4.1024 F25
G1 X12.1422 Y4.1024 F25
G1 X12.1422 Y3.8524
G1 X13.3922 Y3.8524
G1 X13.3922 Y4.1024
G0 Z0.3
G0 X14.2287 Y11.7884
G1 Z-0.1 F30
G1 X15.2787 Y11.7884 F25
G1 X15.2787 Y11.8384
G1 X14.2287 Y11.8384
G1 X14.2287 Y11.7884
G1 X14.1287 Y11.6884 F25
G1 X15.3787 Y11.6884 F25
G1 X15.3787 Y11.9384
G1 X14.1287 Y11.9384
G1 X14.1287 Y11.6884
G0 Z0.3
G0 X1.5013 Y0.333
G1 Z-0.1 F30
G1 X2.2438 Y1.0754 F25
G1 X2.2084 Y1.1108
G1 X1.4659 Y0.3683
G1 X1.5013 Y0.333
G1 X1.5013 Y0.1915 F25
G1 X2.3852 Y1.0754 F25
G1 X2.2084 Y1.2522
G1 X1.3245 Y0.3683
G1 X1.5013 Y0.1915
G0 Z0.3
G0 X17.6385 Y27.1933
G1 Z-0.1 F30
G1 X17.133 Y26.7088 F25
G1 X17.1683 Y26.6735
G1 X17.6738 Y27.158
G1 X17.6385 Y27.1933
G1 X17.64 Y27.3332 F25
G1 X16.99 Y26.7103 F25
G1 X17.1668 Y26.5336
G1 X17.8167 Y27.1565
G1 X17.64 Y27.3332

(profile 2)
G0 Z0.3
G0 X17.3516 Y27.9563
G1 Z-0.225 F30
G1 X11.6913 Y27.9563 F25
G1 Z0.025 F30
G1 X11.1913 Y27.9563 F25
G1 Z-0.225 F30
G1 X4.4196 Y27.9563 F25
G3 X4.3353 Y27.9235 I0 J-0.125
G1 X4.0964 Y27.7051
G1 X3.4497 Y27.1141
G1 X2.873 Y26.5869
G1 X1.9874 Y25.7776
G3 X1.9472 Y25.6962 I0.0843 J-0.0923
G1 X1.9202 Y25.3874
G1 X1.3874 Y19.3334
G1 Z0.025 F30
G1 X1.3435 Y18.8353 F25
G1 Z-0.225 F30
G1 X1.0291 Y15.2631 F25
G3 X1.0286 Y15.2521 I0.1245 J-0.011
G3 X1.0615 Y15.1676 I0.125 J0
G1 X2.2038 Y13.9234
G1 X0.834 Y12.6713
G3 X0.7938 Y12.59 I0.0843 J-0.0923
G1 X0.3122 Y7.1183
G1 Z0.025 F30
G1 X0.2683 Y6.6202 F25
G1 Z-0.225 F30
G1 X-0.1245 Y2.1569 F25
G3 X-0.125 Y2.146 I0.1245 J-0.011
G3 X-0.0921 Y2.0614 I0.125 J0
G1 X0.1084 Y1.8431
G1 X1.1349 Y0.7249
G1 X1.878 Y-0.0845
G3 X1.9701 Y-0.125 I0.0921 J0.0845
G1 X2.2807 Y-0.125
G1 X7.8631 Y-0.125
G1 Z0.025 F30
G1 X8.3631 Y-0.125 F25
G1 Z-0.225 F30
G1 X14.9021 Y-0.125 F25
G3 X14.9864 Y-0.0923 I0 J0.125
G1 X15.872 Y0.7171
G1 X17.3343 Y2.0537
G3 X17.3745 Y2.1351 I-0.0843 J0.0923
G1 X17.4015 Y2.4437
G1 X17.7952 Y6.9162
G1 Z0.025 F30
G1 X17.839 Y7.4142 F25
G1 Z-0.225 F30
G1 X18.2926 Y12.5681 F25
G3 X18.2931 Y12.579 I-0.1245 J0.011
G3 X18.2602 Y12.6636 I-0.125 J0
G1 X17.1179 Y13.9079
G1 X18.4877 Y15.1599
G3 X18.5279 Y15.2412 I-0.0843 J0.0923
G1 X18.8626 Y19.0433
G1 Z0.025 F30
G1 X18.9064 Y19.5414 F25
G1 Z-0.225 F30
G1 X19.4462 Y25.6743 F25
G3 X19.4467 Y25.6853 I-0.1245 J0.011
G3 X19.4138 Y25.7698 I-0.125 J0
G1 X19.2134 Y25.9881
G1 X18.6707 Y26.5792
G1 X18.1868 Y27.1063
G1 X17.4437 Y27.9158
G3 X17.3516 Y27.9563 I-0.0921 J-0.0845

(profile 3)
G0 Z0.3
G0 X12.3265 Y21.4729
G1 Z-0.225 F30
G1 X13.0942 Y22.6403 F25
G1 Z0.025 F30
G1 X13.3689 Y23.0581 F25
G1 Z-0.225 F30
G1 X13.9745 Y23.9789 F25
G1 X12.9144 Y23.9789
G1 Z0.025 F30
G1 X12.4144 Y23.9789 F25
G1 Z-0.225 F30
G1 X11.9026 Y23.9789 F25
G1 X12.2529 Y23.5973
G1 X12.4533 Y23.379
G2 X12.4863 Y23.2945 I-0.0921 J-0.0845
G2 X12.4858 Y23.2835 I-0.125 J0
G1 X12.3265 Y21.4729
G0 Z0.3
G0 X6.9951 Y6.3584
G1 Z-0.225 F30
G1 X5.7126 Y4.4082 F25
G1 Z0.025 F30
G1 X5.4379 Y3.9904 F25
G1 Z-0.225 F30
G1 X5.3471 Y3.8524 F25
G1 X6.3478 Y3.8524
G1 Z0.025 F30
G1 X6.8478 Y3.8524 F25
G1 Z-0.225 F30
G1 X7.4189 Y3.8524 F25
G1 X6.8682 Y4.4522
G2 X6.8352 Y4.5368 I0.0921 J0.0845
G2 X6.8357 Y4.5477 I0.125 J0
G1 X6.9951 Y6.3584
G0 Z0.3
G0 X7.1077 Y23.9789
G1 Z-0.225 F30
G1 X7.467 Y23.233 F25
G1 Z0.025 F30
G1 X7.6839 Y22.7825 F25
G1 Z-0.225 F30
G1 X8.3238 Y21.4537 F25
G1 X8.3964 Y22.2782
G1 Z0.025 F30
G1 X8.4402 Y22.7763 F25
G1 Z-0.225 F30
G1 X8.4868 Y23.3054 F25
G2 X8.527 Y23.3867 I0.1245 J-0.011
G1 X9.1748 Y23.9789
G1 X7.1077 Y23.9789
G0 Z0.3
G0 X12.2138 Y3.8525
G1 Z-0.225 F30
G1 X11.888 Y4.529 F25
G1 Z0.025 F30
G1 X11.6711 Y4.9794 F25
G1 Z-0.225 F30
G1 X10.9977 Y6.3775 F25
G1 X10.8927 Y5.1848
G1 Z0.025 F30
G1 X10.8618 Y4.8348 F25
G1 X10.8489 Y4.6867
G1 Z-0.225 F30
G1 X10.8348 Y4.5259 F25
G2 X10.7946 Y4.4446 I-0.1245 J0.0109
G1 X10.1468 Y3.8525
G1 X12.2138 Y3.8525
G0 Z0.3
G0 X4.5334 Y9.623
G1 Z-0.225 F30
G1 Z0.025 F30
G1 X4.8082 Y10.0407 F25
G1 Z-0.225 F30
G1 X4.8082 Y10.0407 F25
G1 Z-0.225 F30
G1 X5.6324 Y11.294 F25
G1 Z0.025 F30
G1 X5.9071 Y11.7118 F25
G1 Z-0.225 F30
G1 X6.0486 Y11.9269 F25
G1 X4.8061 Y11.9269
G1 Z0.025 F30
G1 X4.7363 Y11.9269 F25
G1 X4.6986 Y11.4985
G1 Z-0.225 F30
G1 X4.5334 Y9.623 F25
G0 Z0.3
G0 X14.7881 Y18.2082
G1 Z-0.225 F30
G1 X13.9646 Y16.9559 F25
G1 Z0.025 F30
G1 X13.6898 Y16.5382 F25
G1 Z-0.225 F30
G1 X13.273 Y15.9043 F25
G1 X14.5853 Y15.9043
G1 X14.6621 Y16.7766
G1 Z0.025 F30
G1 X14.7059 Y17.2747 F25
G1 Z-0.225 F30
G1 X14.7881 Y18.2082 F25
G0 Z0.3
G0 X12.912 Y11.9269
G1 Z-0.225 F30
G1 Z0.025 F30
G1 X13.1289 Y11.4764 F25
G1 Z-0.225 F30
G1 X13.1289 Y11.4764 F25
G1 Z-0.225 F30
G1 X13.7798 Y10.125 F25
G1 Z0.025 F30
G1 X13.9967 Y9.6745 F25
G1 Z-0.225 F30
G1 X14.0307 Y9.6039 F25
G1 X14.1554 Y11.02
G1 Z0.025 F30
G1 X14.1993 Y11.518 F25
G1 Z-0.225 F30
G1 X14.2353 Y11.9269 F25
G1 X12.912 Y11.9269
G0 Z0.3
G0 X6.4096 Y15.9043
G1 Z-0.225 F30
G1 X5.2908 Y18.2273 F25
G1 X5.1847 Y17.021
G1 Z0.025 F30
G1 X5.1408 Y16.5229 F25
G1 Z-0.225 F30
G1 X5.0864 Y15.9043 F25
G1 X6.4096 Y15.9043
G0 Z0.3
M5
M30
