(Generated by PartKam Version 0.05)

G20 G90 G40

(profile 1)
G0 Z0.3
T0 M6
G17
M3
G0 X16.9861 Y26.9608
G1 Z-0.15 F30
G1 X8.9949 Y26.9608 F25
G1 X8.4949 Y26.9608
G1 X4.7788 Y26.9608
G1 X4.2604 Y26.4869
G1 X5.6491 Y24.9744
G1 X13.2598 Y24.9744
G1 X13.7598 Y24.9744
G1 X15.7349 Y24.9744
G1 X17.4068 Y26.5024
G1 X16.9861 Y26.9608
G1 Z-0.3 F30
G1 X8.9949 Y26.9608 F25
G1 Z-0.25 F30
G1 X8.4949 Y26.9608 F25
G1 Z-0.3 F30
G1 X4.7788 Y26.9608 F25
G1 X4.2604 Y26.4869
G1 X5.6491 Y24.9744
G1 X13.2598 Y24.9744
G1 Z-0.25 F30
G1 X13.7598 Y24.9744 F25
G1 Z-0.3 F30
G1 X15.7349 Y24.9744 F25
G1 X17.4068 Y26.5024
G1 X16.9861 Y26.9608
G1 Z-0.45 F30
G1 X8.9949 Y26.9608 F25
G1 Z-0.25 F30
G1 X8.4949 Y26.9608 F25
G1 Z-0.45 F30
G1 X4.7788 Y26.9608 F25
G1 X4.2604 Y26.4869
G1 X5.6491 Y24.9744
G1 X13.2598 Y24.9744
G1 Z-0.25 F30
G1 X13.7598 Y24.9744 F25
G1 Z-0.45 F30
G1 X15.7349 Y24.9744 F25
G1 X17.4068 Y26.5024
G1 X16.9861 Y26.9608
G1 Z-0.6 F30
G1 X8.9949 Y26.9608 F25
G1 Z-0.25 F30
G1 X8.4949 Y26.9608 F25
G1 Z-0.6 F30
G1 X4.7788 Y26.9608 F25
G1 X4.2604 Y26.4869
G1 X5.6491 Y24.9744
G1 X13.2598 Y24.9744
G1 Z-0.25 F30
G1 X13.7598 Y24.9744 F25
G1 Z-0.6 F30
G1 X15.7349 Y24.9744 F25
G1 X17.4068 Y26.5024
G1 X16.9861 Y26.9608
G1 Z-0.75 F30
G1 X8.9949 Y26.9608 F25
G1 Z-0.25 F30
G1 X8.4949 Y26.9608 F25
G1 Z-0.75 F30
G1 X4.7788 Y26.9608 F25
G1 X4.2604 Y26.4869
G1 X5.6491 Y24.9744
G1 X13.2598 Y24.9744
G1 Z-0.25 F30
G1 X13.7598 Y24.9744 F25
G1 Z-0.75 F30
G1 X15.7349 Y24.9744 F25
G1 X17.4068 Y26.5024
G1 X16.9861 Y26.9608
G1 Z-0.85 F30
G1 X8.9949 Y26.9608 F25
G1 Z-0.25 F30
G1 X8.4949 Y26.9608 F25
G1 Z-0.85 F30
G1 X4.7788 Y26.9608 F25
G1 X4.2604 Y26.4869
G1 X5.6491 Y24.9744
G1 X13.2598 Y24.9744
G1 Z-0.25 F30
G1 X13.7598 Y24.9744 F25
G1 Z-0.85 F30
G1 X15.7349 Y24.9744 F25
G1 X17.4068 Y26.5024
G1 X16.9861 Y26.9608

(profile 2)
G0 Z0.3
G0 X2.9804 Y25.317
G1 Z-0.15 F30
G1 X2.7917 Y23.1734 F25
G1 X2.7479 Y22.6753
G1 X2.1256 Y15.6049
G1 X3.0305 Y14.6192
G1 X4.126 Y15.6204
G1 X4.3389 Y18.0391
G1 X4.3827 Y18.5372
G1 X4.888 Y24.2782
G1 X3.4991 Y25.7912
G1 X2.9804 Y25.317
G1 Z-0.3 F30
G1 X2.7917 Y23.1734 F25
G1 Z-0.25 F30
G1 X2.7479 Y22.6753 F25
G1 Z-0.3 F30
G1 X2.1256 Y15.6049 F25
G1 X3.0305 Y14.6192
G1 X4.126 Y15.6204
G1 X4.3389 Y18.0391
G1 Z-0.25 F30
G1 X4.3827 Y18.5372 F25
G1 Z-0.3 F30
G1 X4.888 Y24.2782 F25
G1 X3.4991 Y25.7912
G1 X2.9804 Y25.317
G1 Z-0.45 F30
G1 X2.7917 Y23.1734 F25
G1 Z-0.25 F30
G1 X2.7479 Y22.6753 F25
G1 Z-0.45 F30
G1 X2.1256 Y15.6049 F25
G1 X3.0305 Y14.6192
G1 X4.126 Y15.6204
G1 X4.3389 Y18.0391
G1 Z-0.25 F30
G1 X4.3827 Y18.5372 F25
G1 Z-0.45 F30
G1 X4.888 Y24.2782 F25
G1 X3.4991 Y25.7912
G1 X2.9804 Y25.317
G1 Z-0.6 F30
G1 X2.7917 Y23.1734 F25
G1 Z-0.25 F30
G1 X2.7479 Y22.6753 F25
G1 Z-0.6 F30
G1 X2.1256 Y15.6049 F25
G1 X3.0305 Y14.6192
G1 X4.126 Y15.6204
G1 X4.3389 Y18.0391
G1 Z-0.25 F30
G1 X4.3827 Y18.5372 F25
G1 Z-0.6 F30
G1 X4.888 Y24.2782 F25
G1 X3.4991 Y25.7912
G1 X2.9804 Y25.317
G1 Z-0.75 F30
G1 X2.7917 Y23.1734 F25
G1 Z-0.25 F30
G1 X2.7479 Y22.6753 F25
G1 Z-0.75 F30
G1 X2.1256 Y15.6049 F25
G1 X3.0305 Y14.6192
G1 X4.126 Y15.6204
G1 X4.3389 Y18.0391
G1 Z-0.25 F30
G1 X4.3827 Y18.5372 F25
G1 Z-0.75 F30
G1 X4.888 Y24.2782 F25
G1 X3.4991 Y25.7912
G1 X2.9804 Y25.317
G1 Z-0.85 F30
G1 X2.7917 Y23.1734 F25
G1 Z-0.25 F30
G1 X2.7479 Y22.6753 F25
G1 Z-0.85 F30
G1 X2.1256 Y15.6049 F25
G1 X3.0305 Y14.6192
G1 X4.126 Y15.6204
G1 X4.3389 Y18.0391
G1 Z-0.25 F30
G1 X4.3827 Y18.5372 F25
G1 Z-0.85 F30
G1 X4.888 Y24.2782 F25
G1 X3.4991 Y25.7912
G1 X2.9804 Y25.317

(profile 3)
G0 Z0.3
G0 X6.4096 Y15.9043
G1 Z-0.15 F30
G1 X6.0718 Y16.6057 F25
G1 X5.8548 Y17.0562
G1 X5.2908 Y18.2273
G1 X5.1907 Y17.0893
G1 X5.1468 Y16.5912
G1 X5.0864 Y15.9043
G1 X6.4096 Y15.9043
G1 Z-0.3 F30
G1 X6.0718 Y16.6057 F25
G1 Z-0.25 F30
G1 X5.8548 Y17.0562 F25
G1 Z-0.3 F30
G1 X5.2908 Y18.2273 F25
G1 X5.1907 Y17.0893
G1 Z-0.25 F30
G1 X5.1468 Y16.5912 F25
G1 Z-0.3 F30
G1 X5.0864 Y15.9043 F25
G1 X6.4096 Y15.9043
G1 Z-0.45 F30
G1 X6.0718 Y16.6057 F25
G1 Z-0.25 F30
G1 X5.8548 Y17.0562 F25
G1 Z-0.45 F30
G1 X5.2908 Y18.2273 F25
G1 X5.1907 Y17.0893
G1 Z-0.25 F30
G1 X5.1468 Y16.5912 F25
G1 Z-0.45 F30
G1 X5.0864 Y15.9043 F25
G1 X6.4096 Y15.9043
G1 Z-0.6 F30
G1 X6.0718 Y16.6057 F25
G1 Z-0.25 F30
G1 X5.8548 Y17.0562 F25
G1 Z-0.6 F30
G1 X5.2908 Y18.2273 F25
G1 X5.1907 Y17.0893
G1 Z-0.25 F30
G1 X5.1468 Y16.5912 F25
G1 Z-0.6 F30
G1 X5.0864 Y15.9043 F25
G1 X6.4096 Y15.9043
G1 Z-0.75 F30
G1 X6.0718 Y16.6057 F25
G1 Z-0.25 F30
G1 X5.8548 Y17.0562 F25
G1 Z-0.75 F30
G1 X5.2908 Y18.2273 F25
G1 X5.1907 Y17.0893
G1 Z-0.25 F30
G1 X5.1468 Y16.5912 F25
G1 Z-0.75 F30
G1 X5.0864 Y15.9043 F25
G1 X6.4096 Y15.9043
G1 Z-0.85 F30
G1 X6.0718 Y16.6057 F25
G1 Z-0.25 F30
G1 X5.8548 Y17.0562 F25
G1 Z-0.85 F30
G1 X5.2908 Y18.2273 F25
G1 X5.1907 Y17.0893
G1 Z-0.25 F30
G1 X5.1468 Y16.5912 F25
G1 Z-0.85 F30
G1 X5.0864 Y15.9043 F25
G1 X6.4096 Y15.9043

(profile 4)
G0 Z0.3
G0 X8.2134 Y19.4536
G1 Z-0.15 F30
G1 X7.5196 Y20.8941 F25
G1 X7.3027 Y21.3445
G1 X6.0339 Y23.9789
G1 X5.8626 Y23.9789
G1 X5.5324 Y20.2276
G1 X5.9369 Y19.3877
G1 X6.1539 Y18.9372
G1 X7.6146 Y15.9043
G1 X7.9009 Y15.9043
G1 X8.2134 Y19.4536
G1 Z-0.3 F30
G1 X7.5196 Y20.8941 F25
G1 Z-0.25 F30
G1 X7.3027 Y21.3445 F25
G1 Z-0.3 F30
G1 X6.0339 Y23.9789 F25
G1 X5.8626 Y23.9789
G1 X5.5324 Y20.2276
G1 X5.9369 Y19.3877
G1 Z-0.25 F30
G1 X6.1539 Y18.9372 F25
G1 Z-0.3 F30
G1 X7.6146 Y15.9043 F25
G1 X7.9009 Y15.9043
G1 X8.2134 Y19.4536
G1 Z-0.45 F30
G1 X7.5196 Y20.8941 F25
G1 Z-0.25 F30
G1 X7.3027 Y21.3445 F25
G1 Z-0.45 F30
G1 X6.0339 Y23.9789 F25
G1 X5.8626 Y23.9789
G1 X5.5324 Y20.2276
G1 X5.9369 Y19.3877
G1 Z-0.25 F30
G1 X6.1539 Y18.9372 F25
G1 Z-0.45 F30
G1 X7.6146 Y15.9043 F25
G1 X7.9009 Y15.9043
G1 X8.2134 Y19.4536
G1 Z-0.6 F30
G1 X7.5196 Y20.8941 F25
G1 Z-0.25 F30
G1 X7.3027 Y21.3445 F25
G1 Z-0.6 F30
G1 X6.0339 Y23.9789 F25
G1 X5.8626 Y23.9789
G1 X5.5324 Y20.2276
G1 X5.9369 Y19.3877
G1 Z-0.25 F30
G1 X6.1539 Y18.9372 F25
G1 Z-0.6 F30
G1 X7.6146 Y15.9043 F25
G1 X7.9009 Y15.9043
G1 X8.2134 Y19.4536
G1 Z-0.75 F30
G1 X7.5196 Y20.8941 F25
G1 Z-0.25 F30
G1 X7.3027 Y21.3445 F25
G1 Z-0.75 F30
G1 X6.0339 Y23.9789 F25
G1 X5.8626 Y23.9789
G1 X5.5324 Y20.2276
G1 X5.9369 Y19.3877
G1 Z-0.25 F30
G1 X6.1539 Y18.9372 F25
G1 Z-0.75 F30
G1 X7.6146 Y15.9043 F25
G1 X7.9009 Y15.9043
G1 X8.2134 Y19.4536
G1 Z-0.85 F30
G1 X7.5196 Y20.8941 F25
G1 Z-0.25 F30
G1 X7.3027 Y21.3445 F25
G1 Z-0.85 F30
G1 X6.0339 Y23.9789 F25
G1 X5.8626 Y23.9789
G1 X5.5324 Y20.2276
G1 X5.9369 Y19.3877
G1 Z-0.25 F30
G1 X6.1539 Y18.9372 F25
G1 Z-0.85 F30
G1 X7.6146 Y15.9043 F25
G1 X7.9009 Y15.9043
G1 X8.2134 Y19.4536

(profile 5)
G0 Z0.3
G0 X7.1077 Y23.9789
G1 Z-0.15 F30
G1 X7.4469 Y23.2746 F25
G1 X7.6639 Y22.8241
G1 X8.3238 Y21.4537
G1 X8.4011 Y22.3319
G1 X8.445 Y22.83
G1 X8.4868 Y23.3054
G2 X8.527 Y23.3867 I0.1245 J-0.011
G1 X9.1748 Y23.9789
G1 X7.1077 Y23.9789
G1 Z-0.3 F30
G1 X7.4469 Y23.2746 F25
G1 Z-0.25 F30
G1 X7.6639 Y22.8241 F25
G1 Z-0.3 F30
G1 X8.3238 Y21.4537 F25
G1 X8.4011 Y22.3319
G1 Z-0.25 F30
G1 X8.445 Y22.83 F25
G1 Z-0.3 F30
G1 X8.4868 Y23.3054 F25
G2 X8.527 Y23.3867 I0.1245 J-0.011
G1 X9.1748 Y23.9789
G1 X7.1077 Y23.9789
G1 Z-0.45 F30
G1 X7.4469 Y23.2746 F25
G1 Z-0.25 F30
G1 X7.6639 Y22.8241 F25
G1 Z-0.45 F30
G1 X8.3238 Y21.4537 F25
G1 X8.4011 Y22.3319
G1 Z-0.25 F30
G1 X8.445 Y22.83 F25
G1 Z-0.45 F30
G1 X8.4868 Y23.3054 F25
G2 X8.527 Y23.3867 I0.1245 J-0.011
G1 X9.1748 Y23.9789
G1 X7.1077 Y23.9789
G1 Z-0.6 F30
G1 X7.4469 Y23.2746 F25
G1 Z-0.25 F30
G1 X7.6639 Y22.8241 F25
G1 Z-0.6 F30
G1 X8.3238 Y21.4537 F25
G1 X8.4011 Y22.3319
G1 Z-0.25 F30
G1 X8.445 Y22.83 F25
G1 Z-0.6 F30
G1 X8.4868 Y23.3054 F25
G2 X8.527 Y23.3867 I0.1245 J-0.011
G1 X9.1748 Y23.9789
G1 X7.1077 Y23.9789
G1 Z-0.75 F30
G1 X7.4469 Y23.2746 F25
G1 Z-0.25 F30
G1 X7.6639 Y22.8241 F25
G1 Z-0.75 F30
G1 X8.3238 Y21.4537 F25
G1 X8.4011 Y22.3319
G1 Z-0.25 F30
G1 X8.445 Y22.83 F25
G1 Z-0.75 F30
G1 X8.4868 Y23.3054 F25
G2 X8.527 Y23.3867 I0.1245 J-0.011
G1 X9.1748 Y23.9789
G1 X7.1077 Y23.9789
G1 Z-0.85 F30
G1 X7.4469 Y23.2746 F25
G1 Z-0.25 F30
G1 X7.6639 Y22.8241 F25
G1 Z-0.85 F30
G1 X8.3238 Y21.4537 F25
G1 X8.4011 Y22.3319
G1 Z-0.25 F30
G1 X8.445 Y22.83 F25
G1 Z-0.85 F30
G1 X8.4868 Y23.3054 F25
G2 X8.527 Y23.3867 I0.1245 J-0.011
G1 X9.1748 Y23.9789
G1 X7.1077 Y23.9789

(profile 6)
G0 Z0.3
G0 X10.876 Y15.6204
G1 Z-0.15 F30
G1 X11.3535 Y21.0456 F25
G1 X11.3973 Y21.5437
G1 X11.5204 Y22.9417
G1 X10.6154 Y23.9275
G1 X9.52 Y22.9262
G1 X9.096 Y18.1089
G1 X9.0521 Y17.6108
G1 X8.8756 Y15.6049
G1 X9.7806 Y14.6192
G1 X10.876 Y15.6204
G1 Z-0.3 F30
G1 X11.3535 Y21.0456 F25
G1 Z-0.25 F30
G1 X11.3973 Y21.5437 F25
G1 Z-0.3 F30
G1 X11.5204 Y22.9417 F25
G1 X10.6154 Y23.9275
G1 X9.52 Y22.9262
G1 X9.096 Y18.1089
G1 Z-0.25 F30
G1 X9.0521 Y17.6108 F25
G1 Z-0.3 F30
G1 X8.8756 Y15.6049 F25
G1 X9.7806 Y14.6192
G1 X10.876 Y15.6204
G1 Z-0.45 F30
G1 X11.3535 Y21.0456 F25
G1 Z-0.25 F30
G1 X11.3973 Y21.5437 F25
G1 Z-0.45 F30
G1 X11.5204 Y22.9417 F25
G1 X10.6154 Y23.9275
G1 X9.52 Y22.9262
G1 X9.096 Y18.1089
G1 Z-0.25 F30
G1 X9.0521 Y17.6108 F25
G1 Z-0.45 F30
G1 X8.8756 Y15.6049 F25
G1 X9.7806 Y14.6192
G1 X10.876 Y15.6204
G1 Z-0.6 F30
G1 X11.3535 Y21.0456 F25
G1 Z-0.25 F30
G1 X11.3973 Y21.5437 F25
G1 Z-0.6 F30
G1 X11.5204 Y22.9417 F25
G1 X10.6154 Y23.9275
G1 X9.52 Y22.9262
G1 X9.096 Y18.1089
G1 Z-0.25 F30
G1 X9.0521 Y17.6108 F25
G1 Z-0.6 F30
G1 X8.8756 Y15.6049 F25
G1 X9.7806 Y14.6192
G1 X10.876 Y15.6204
G1 Z-0.75 F30
G1 X11.3535 Y21.0456 F25
G1 Z-0.25 F30
G1 X11.3973 Y21.5437 F25
G1 Z-0.75 F30
G1 X11.5204 Y22.9417 F25
G1 X10.6154 Y23.9275
G1 X9.52 Y22.9262
G1 X9.096 Y18.1089
G1 Z-0.25 F30
G1 X9.0521 Y17.6108 F25
G1 Z-0.75 F30
G1 X8.8756 Y15.6049 F25
G1 X9.7806 Y14.6192
G1 X10.876 Y15.6204
G1 Z-0.85 F30
G1 X11.3535 Y21.0456 F25
G1 Z-0.25 F30
G1 X11.3973 Y21.5437 F25
G1 Z-0.85 F30
G1 X11.5204 Y22.9417 F25
G1 X10.6154 Y23.9275
G1 X9.52 Y22.9262
G1 X9.096 Y18.1089
G1 Z-0.25 F30
G1 X9.0521 Y17.6108 F25
G1 Z-0.85 F30
G1 X8.8756 Y15.6049 F25
G1 X9.7806 Y14.6192
G1 X10.876 Y15.6204

(profile 7)
G0 Z0.3
G0 X12.3265 Y21.4729
G1 Z-0.15 F30
G1 X12.9012 Y22.3468 F25
G1 X13.1759 Y22.7645
G1 X13.9745 Y23.9789
G1 X12.9738 Y23.9789
G1 X12.4738 Y23.9789
G1 X11.9026 Y23.9789
G1 X12.2529 Y23.5973
G1 X12.4533 Y23.379
G2 X12.4863 Y23.2945 I-0.0921 J-0.0845
G2 X12.4858 Y23.2835 I-0.125 J0
G1 X12.3265 Y21.4729
G1 Z-0.3 F30
G1 X12.9012 Y22.3468 F25
G1 Z-0.25 F30
G1 X13.1759 Y22.7645 F25
G1 Z-0.3 F30
G1 X13.9745 Y23.9789 F25
G1 X12.9738 Y23.9789
G1 Z-0.25 F30
G1 X12.4738 Y23.9789 F25
G1 Z-0.3 F30
G1 X11.9026 Y23.9789 F25
G1 X12.2529 Y23.5973
G1 X12.4533 Y23.379
G2 X12.4863 Y23.2945 I-0.0921 J-0.0845
G2 X12.4858 Y23.2835 I-0.125 J0
G1 X12.3265 Y21.4729
G1 Z-0.45 F30
G1 X12.9012 Y22.3468 F25
G1 Z-0.25 F30
G1 X13.1759 Y22.7645 F25
G1 Z-0.45 F30
G1 X13.9745 Y23.9789 F25
G1 X12.9738 Y23.9789
G1 Z-0.25 F30
G1 X12.4738 Y23.9789 F25
G1 Z-0.45 F30
G1 X11.9026 Y23.9789 F25
G1 X12.2529 Y23.5973
G1 X12.4533 Y23.379
G2 X12.4863 Y23.2945 I-0.0921 J-0.0845
G2 X12.4858 Y23.2835 I-0.125 J0
G1 X12.3265 Y21.4729
G1 Z-0.6 F30
G1 X12.9012 Y22.3468 F25
G1 Z-0.25 F30
G1 X13.1759 Y22.7645 F25
G1 Z-0.6 F30
G1 X13.9745 Y23.9789 F25
G1 X12.9738 Y23.9789
G1 Z-0.25 F30
G1 X12.4738 Y23.9789 F25
G1 Z-0.6 F30
G1 X11.9026 Y23.9789 F25
G1 X12.2529 Y23.5973
G1 X12.4533 Y23.379
G2 X12.4863 Y23.2945 I-0.0921 J-0.0845
G2 X12.4858 Y23.2835 I-0.125 J0
G1 X12.3265 Y21.4729
G1 Z-0.75 F30
G1 X12.9012 Y22.3468 F25
G1 Z-0.25 F30
G1 X13.1759 Y22.7645 F25
G1 Z-0.75 F30
G1 X13.9745 Y23.9789 F25
G1 X12.9738 Y23.9789
G1 Z-0.25 F30
G1 X12.4738 Y23.9789 F25
G1 Z-0.75 F30
G1 X11.9026 Y23.9789 F25
G1 X12.2529 Y23.5973
G1 X12.4533 Y23.379
G2 X12.4863 Y23.2945 I-0.0921 J-0.0845
G2 X12.4858 Y23.2835 I-0.125 J0
G1 X12.3265 Y21.4729
G1 Z-0.85 F30
G1 X12.9012 Y22.3468 F25
G1 Z-0.25 F30
G1 X13.1759 Y22.7645 F25
G1 Z-0.85 F30
G1 X13.9745 Y23.9789 F25
G1 X12.9738 Y23.9789
G1 Z-0.25 F30
G1 X12.4738 Y23.9789 F25
G1 Z-0.85 F30
G1 X11.9026 Y23.9789 F25
G1 X12.2529 Y23.5973
G1 X12.4533 Y23.379
G2 X12.4863 Y23.2945 I-0.0921 J-0.0845
G2 X12.4858 Y23.2835 I-0.125 J0
G1 X12.3265 Y21.4729

(profile 8)
G0 Z0.3
G0 X15.2012 Y23.9789
G1 Z-0.15 F30
G1 X13.2399 Y20.9965 F25
G1 X12.9651 Y20.5788
G1 X12.2126 Y19.4345
G1 X11.9019 Y15.9043
G1 X12.1774 Y15.9043
G1 X14.157 Y18.9144
G1 X14.4317 Y19.3321
G1 X15.0332 Y20.2467
G1 X15.3617 Y23.9789
G1 X15.2012 Y23.9789
G1 Z-0.3 F30
G1 X13.2399 Y20.9965 F25
G1 Z-0.25 F30
G1 X12.9651 Y20.5788 F25
G1 Z-0.3 F30
G1 X12.2126 Y19.4345 F25
G1 X11.9019 Y15.9043
G1 X12.1774 Y15.9043
G1 X14.157 Y18.9144
G1 Z-0.25 F30
G1 X14.4317 Y19.3321 F25
G1 Z-0.3 F30
G1 X15.0332 Y20.2467 F25
G1 X15.3617 Y23.9789
G1 X15.2012 Y23.9789
G1 Z-0.45 F30
G1 X13.2399 Y20.9965 F25
G1 Z-0.25 F30
G1 X12.9651 Y20.5788 F25
G1 Z-0.45 F30
G1 X12.2126 Y19.4345 F25
G1 X11.9019 Y15.9043
G1 X12.1774 Y15.9043
G1 X14.157 Y18.9144
G1 Z-0.25 F30
G1 X14.4317 Y19.3321 F25
G1 Z-0.45 F30
G1 X15.0332 Y20.2467 F25
G1 X15.3617 Y23.9789
G1 X15.2012 Y23.9789
G1 Z-0.6 F30
G1 X13.2399 Y20.9965 F25
G1 Z-0.25 F30
G1 X12.9651 Y20.5788 F25
G1 Z-0.6 F30
G1 X12.2126 Y19.4345 F25
G1 X11.9019 Y15.9043
G1 X12.1774 Y15.9043
G1 X14.157 Y18.9144
G1 Z-0.25 F30
G1 X14.4317 Y19.3321 F25
G1 Z-0.6 F30
G1 X15.0332 Y20.2467 F25
G1 X15.3617 Y23.9789
G1 X15.2012 Y23.9789
G1 Z-0.75 F30
G1 X13.2399 Y20.9965 F25
G1 Z-0.25 F30
G1 X12.9651 Y20.5788 F25
G1 Z-0.75 F30
G1 X12.2126 Y19.4345 F25
G1 X11.9019 Y15.9043
G1 X12.1774 Y15.9043
G1 X14.157 Y18.9144
G1 Z-0.25 F30
G1 X14.4317 Y19.3321 F25
G1 Z-0.75 F30
G1 X15.0332 Y20.2467 F25
G1 X15.3617 Y23.9789
G1 X15.2012 Y23.9789
G1 Z-0.85 F30
G1 X13.2399 Y20.9965 F25
G1 Z-0.25 F30
G1 X12.9651 Y20.5788 F25
G1 Z-0.85 F30
G1 X12.2126 Y19.4345 F25
G1 X11.9019 Y15.9043
G1 X12.1774 Y15.9043
G1 X14.157 Y18.9144
G1 Z-0.25 F30
G1 X14.4317 Y19.3321 F25
G1 Z-0.85 F30
G1 X15.0332 Y20.2467 F25
G1 X15.3617 Y23.9789
G1 X15.2012 Y23.9789

(profile 9)
G0 Z0.3
G0 X14.7881 Y18.2082
G1 Z-0.15 F30
G1 X14.0172 Y17.0359 F25
G1 X13.7424 Y16.6182
G1 X13.273 Y15.9043
G1 X14.5853 Y15.9043
G1 X14.6347 Y16.4651
G1 X14.6785 Y16.9631
G1 X14.7881 Y18.2082
G1 Z-0.3 F30
G1 X14.0172 Y17.0359 F25
G1 Z-0.25 F30
G1 X13.7424 Y16.6182 F25
G1 Z-0.3 F30
G1 X13.273 Y15.9043 F25
G1 X14.5853 Y15.9043
G1 X14.6347 Y16.4651
G1 Z-0.25 F30
G1 X14.6785 Y16.9631 F25
G1 Z-0.3 F30
G1 X14.7881 Y18.2082 F25
G1 Z-0.45 F30
G1 X14.0172 Y17.0359 F25
G1 Z-0.25 F30
G1 X13.7424 Y16.6182 F25
G1 Z-0.45 F30
G1 X13.273 Y15.9043 F25
G1 X14.5853 Y15.9043
G1 X14.6347 Y16.4651
G1 Z-0.25 F30
G1 X14.6785 Y16.9631 F25
G1 Z-0.45 F30
G1 X14.7881 Y18.2082 F25
G1 Z-0.6 F30
G1 X14.0172 Y17.0359 F25
G1 Z-0.25 F30
G1 X13.7424 Y16.6182 F25
G1 Z-0.6 F30
G1 X13.273 Y15.9043 F25
G1 X14.5853 Y15.9043
G1 X14.6347 Y16.4651
G1 Z-0.25 F30
G1 X14.6785 Y16.9631 F25
G1 Z-0.6 F30
G1 X14.7881 Y18.2082 F25
G1 Z-0.75 F30
G1 X14.0172 Y17.0359 F25
G1 Z-0.25 F30
G1 X13.7424 Y16.6182 F25
G1 Z-0.75 F30
G1 X13.273 Y15.9043 F25
G1 X14.5853 Y15.9043
G1 X14.6347 Y16.4651
G1 Z-0.25 F30
G1 X14.6785 Y16.9631 F25
G1 Z-0.75 F30
G1 X14.7881 Y18.2082 F25
G1 Z-0.85 F30
G1 X14.0172 Y17.0359 F25
G1 Z-0.25 F30
G1 X13.7424 Y16.6182 F25
G1 Z-0.85 F30
G1 X13.273 Y15.9043 F25
G1 X14.5853 Y15.9043
G1 X14.6347 Y16.4651
G1 Z-0.25 F30
G1 X14.6785 Y16.9631 F25
G1 Z-0.85 F30
G1 X14.7881 Y18.2082 F25

(profile 10)
G0 Z0.3
G0 X17.6259 Y15.6204
G1 Z-0.15 F30
G1 X18.2457 Y22.661 F25
G1 X18.2895 Y23.159
G1 X18.4808 Y25.3325
G1 X18.0598 Y25.7912
G1 X16.3876 Y24.2627
G1 X15.9358 Y19.1294
G1 X15.892 Y18.6313
G1 X15.6256 Y15.6049
G1 X16.5305 Y14.6192
G1 X17.6259 Y15.6204
G1 Z-0.3 F30
G1 X18.2457 Y22.661 F25
G1 Z-0.25 F30
G1 X18.2895 Y23.159 F25
G1 Z-0.3 F30
G1 X18.4808 Y25.3325 F25
G1 X18.0598 Y25.7912
G1 X16.3876 Y24.2627
G1 X15.9358 Y19.1294
G1 Z-0.25 F30
G1 X15.892 Y18.6313 F25
G1 Z-0.3 F30
G1 X15.6256 Y15.6049 F25
G1 X16.5305 Y14.6192
G1 X17.6259 Y15.6204
G1 Z-0.45 F30
G1 X18.2457 Y22.661 F25
G1 Z-0.25 F30
G1 X18.2895 Y23.159 F25
G1 Z-0.45 F30
G1 X18.4808 Y25.3325 F25
G1 X18.0598 Y25.7912
G1 X16.3876 Y24.2627
G1 X15.9358 Y19.1294
G1 Z-0.25 F30
G1 X15.892 Y18.6313 F25
G1 Z-0.45 F30
G1 X15.6256 Y15.6049 F25
G1 X16.5305 Y14.6192
G1 X17.6259 Y15.6204
G1 Z-0.6 F30
G1 X18.2457 Y22.661 F25
G1 Z-0.25 F30
G1 X18.2895 Y23.159 F25
G1 Z-0.6 F30
G1 X18.4808 Y25.3325 F25
G1 X18.0598 Y25.7912
G1 X16.3876 Y24.2627
G1 X15.9358 Y19.1294
G1 Z-0.25 F30
G1 X15.892 Y18.6313 F25
G1 Z-0.6 F30
G1 X15.6256 Y15.6049 F25
G1 X16.5305 Y14.6192
G1 X17.6259 Y15.6204
G1 Z-0.75 F30
G1 X18.2457 Y22.661 F25
G1 Z-0.25 F30
G1 X18.2895 Y23.159 F25
G1 Z-0.75 F30
G1 X18.4808 Y25.3325 F25
G1 X18.0598 Y25.7912
G1 X16.3876 Y24.2627
G1 X15.9358 Y19.1294
G1 Z-0.25 F30
G1 X15.892 Y18.6313 F25
G1 Z-0.75 F30
G1 X15.6256 Y15.6049 F25
G1 X16.5305 Y14.6192
G1 X17.6259 Y15.6204
G1 Z-0.85 F30
G1 X18.2457 Y22.661 F25
G1 Z-0.25 F30
G1 X18.2895 Y23.159 F25
G1 Z-0.85 F30
G1 X18.4808 Y25.3325 F25
G1 X18.0598 Y25.7912
G1 X16.3876 Y24.2627
G1 X15.9358 Y19.1294
G1 Z-0.25 F30
G1 X15.892 Y18.6313 F25
G1 Z-0.85 F30
G1 X15.6256 Y15.6049 F25
G1 X16.5305 Y14.6192
G1 X17.6259 Y15.6204

(profile 11)
G0 Z0.3
G0 X14.8645 Y14.9088
G1 Z-0.15 F30
G1 X12.9472 Y14.9088 F25
G1 X12.4472 Y14.9088
G1 X11.5286 Y14.9088
G1 X10.4335 Y13.9079
G1 X11.3382 Y12.9224
G1 X13.6004 Y12.9224
G1 X14.1004 Y12.9224
G1 X14.6741 Y12.9224
G1 X15.7693 Y13.9234
G1 X14.8645 Y14.9088
G1 Z-0.3 F30
G1 X12.9472 Y14.9088 F25
G1 Z-0.25 F30
G1 X12.4472 Y14.9088 F25
G1 Z-0.3 F30
G1 X11.5286 Y14.9088 F25
G1 X10.4335 Y13.9079
G1 X11.3382 Y12.9224
G1 X13.6004 Y12.9224
G1 Z-0.25 F30
G1 X14.1004 Y12.9224 F25
G1 Z-0.3 F30
G1 X14.6741 Y12.9224 F25
G1 X15.7693 Y13.9234
G1 X14.8645 Y14.9088
G1 Z-0.45 F30
G1 X12.9472 Y14.9088 F25
G1 Z-0.25 F30
G1 X12.4472 Y14.9088 F25
G1 Z-0.45 F30
G1 X11.5286 Y14.9088 F25
G1 X10.4335 Y13.9079
G1 X11.3382 Y12.9224
G1 X13.6004 Y12.9224
G1 Z-0.25 F30
G1 X14.1004 Y12.9224 F25
G1 Z-0.45 F30
G1 X14.6741 Y12.9224 F25
G1 X15.7693 Y13.9234
G1 X14.8645 Y14.9088
G1 Z-0.6 F30
G1 X12.9472 Y14.9088 F25
G1 Z-0.25 F30
G1 X12.4472 Y14.9088 F25
G1 Z-0.6 F30
G1 X11.5286 Y14.9088 F25
G1 X10.4335 Y13.9079
G1 X11.3382 Y12.9224
G1 X13.6004 Y12.9224
G1 Z-0.25 F30
G1 X14.1004 Y12.9224 F25
G1 Z-0.6 F30
G1 X14.6741 Y12.9224 F25
G1 X15.7693 Y13.9234
G1 X14.8645 Y14.9088
G1 Z-0.75 F30
G1 X12.9472 Y14.9088 F25
G1 Z-0.25 F30
G1 X12.4472 Y14.9088 F25
G1 Z-0.75 F30
G1 X11.5286 Y14.9088 F25
G1 X10.4335 Y13.9079
G1 X11.3382 Y12.9224
G1 X13.6004 Y12.9224
G1 Z-0.25 F30
G1 X14.1004 Y12.9224 F25
G1 Z-0.75 F30
G1 X14.6741 Y12.9224 F25
G1 X15.7693 Y13.9234
G1 X14.8645 Y14.9088
G1 Z-0.85 F30
G1 X12.9472 Y14.9088 F25
G1 Z-0.25 F30
G1 X12.4472 Y14.9088 F25
G1 Z-0.85 F30
G1 X11.5286 Y14.9088 F25
G1 X10.4335 Y13.9079
G1 X11.3382 Y12.9224
G1 X13.6004 Y12.9224
G1 Z-0.25 F30
G1 X14.1004 Y12.9224 F25
G1 Z-0.85 F30
G1 X14.6741 Y12.9224 F25
G1 X15.7693 Y13.9234
G1 X14.8645 Y14.9088

(profile 12)
G0 Z0.3
G0 X4.5882 Y12.9224
G1 Z-0.15 F30
G1 X5.3973 Y12.9224 F25
G1 X5.8973 Y12.9224
G1 X7.9241 Y12.9224
G1 X9.0192 Y13.9234
G1 X8.1146 Y14.9088
G1 X7.6626 Y14.9088
G1 X7.1626 Y14.9088
G1 X4.7787 Y14.9088
G1 X3.6836 Y13.9079
G1 X4.5882 Y12.9224
G1 Z-0.3 F30
G1 X5.3973 Y12.9224 F25
G1 Z-0.25 F30
G1 X5.8973 Y12.9224 F25
G1 Z-0.3 F30
G1 X7.9241 Y12.9224 F25
G1 X9.0192 Y13.9234
G1 X8.1146 Y14.9088
G1 X7.6626 Y14.9088
G1 Z-0.25 F30
G1 X7.1626 Y14.9088 F25
G1 Z-0.3 F30
G1 X4.7787 Y14.9088 F25
G1 X3.6836 Y13.9079
G1 X4.5882 Y12.9224
G1 Z-0.45 F30
G1 X5.3973 Y12.9224 F25
G1 Z-0.25 F30
G1 X5.8973 Y12.9224 F25
G1 Z-0.45 F30
G1 X7.9241 Y12.9224 F25
G1 X9.0192 Y13.9234
G1 X8.1146 Y14.9088
G1 X7.6626 Y14.9088
G1 Z-0.25 F30
G1 X7.1626 Y14.9088 F25
G1 Z-0.45 F30
G1 X4.7787 Y14.9088 F25
G1 X3.6836 Y13.9079
G1 X4.5882 Y12.9224
G1 Z-0.6 F30
G1 X5.3973 Y12.9224 F25
G1 Z-0.25 F30
G1 X5.8973 Y12.9224 F25
G1 Z-0.6 F30
G1 X7.9241 Y12.9224 F25
G1 X9.0192 Y13.9234
G1 X8.1146 Y14.9088
G1 X7.6626 Y14.9088
G1 Z-0.25 F30
G1 X7.1626 Y14.9088 F25
G1 Z-0.6 F30
G1 X4.7787 Y14.9088 F25
G1 X3.6836 Y13.9079
G1 X4.5882 Y12.9224
G1 Z-0.75 F30
G1 X5.3973 Y12.9224 F25
G1 Z-0.25 F30
G1 X5.8973 Y12.9224 F25
G1 Z-0.75 F30
G1 X7.9241 Y12.9224 F25
G1 X9.0192 Y13.9234
G1 X8.1146 Y14.9088
G1 X7.6626 Y14.9088
G1 Z-0.25 F30
G1 X7.1626 Y14.9088 F25
G1 Z-0.75 F30
G1 X4.7787 Y14.9088 F25
G1 X3.6836 Y13.9079
G1 X4.5882 Y12.9224
G1 Z-0.85 F30
G1 X5.3973 Y12.9224 F25
G1 Z-0.25 F30
G1 X5.8973 Y12.9224 F25
G1 Z-0.85 F30
G1 X7.9241 Y12.9224 F25
G1 X9.0192 Y13.9234
G1 X8.1146 Y14.9088
G1 X7.6626 Y14.9088
G1 Z-0.25 F30
G1 X7.1626 Y14.9088 F25
G1 Z-0.85 F30
G1 X4.7787 Y14.9088 F25
G1 X3.6836 Y13.9079
G1 X4.5882 Y12.9224

(profile 13)
G0 Z0.3
G0 X1.8268 Y12.2108
G1 Z-0.15 F30
G1 X1.6476 Y10.1743 F25
G1 X1.6037 Y9.6762
G1 X0.9719 Y2.4987
G1 X1.393 Y2.0401
G1 X3.0652 Y3.5684
G1 X3.2723 Y5.9217
G1 X3.3161 Y6.4198
G1 X3.8272 Y12.2263
G1 X2.9222 Y13.2121
G1 X1.8268 Y12.2108
G1 Z-0.3 F30
G1 X1.6476 Y10.1743 F25
G1 Z-0.25 F30
G1 X1.6037 Y9.6762 F25
G1 Z-0.3 F30
G1 X0.9719 Y2.4987 F25
G1 X1.393 Y2.0401
G1 X3.0652 Y3.5684
G1 X3.2723 Y5.9217
G1 Z-0.25 F30
G1 X3.3161 Y6.4198 F25
G1 Z-0.3 F30
G1 X3.8272 Y12.2263 F25
G1 X2.9222 Y13.2121
G1 X1.8268 Y12.2108
G1 Z-0.45 F30
G1 X1.6476 Y10.1743 F25
G1 Z-0.25 F30
G1 X1.6037 Y9.6762 F25
G1 Z-0.45 F30
G1 X0.9719 Y2.4987 F25
G1 X1.393 Y2.0401
G1 X3.0652 Y3.5684
G1 X3.2723 Y5.9217
G1 Z-0.25 F30
G1 X3.3161 Y6.4198 F25
G1 Z-0.45 F30
G1 X3.8272 Y12.2263 F25
G1 X2.9222 Y13.2121
G1 X1.8268 Y12.2108
G1 Z-0.6 F30
G1 X1.6476 Y10.1743 F25
G1 Z-0.25 F30
G1 X1.6037 Y9.6762 F25
G1 Z-0.6 F30
G1 X0.9719 Y2.4987 F25
G1 X1.393 Y2.0401
G1 X3.0652 Y3.5684
G1 X3.2723 Y5.9217
G1 Z-0.25 F30
G1 X3.3161 Y6.4198 F25
G1 Z-0.6 F30
G1 X3.8272 Y12.2263 F25
G1 X2.9222 Y13.2121
G1 X1.8268 Y12.2108
G1 Z-0.75 F30
G1 X1.6476 Y10.1743 F25
G1 Z-0.25 F30
G1 X1.6037 Y9.6762 F25
G1 Z-0.75 F30
G1 X0.9719 Y2.4987 F25
G1 X1.393 Y2.0401
G1 X3.0652 Y3.5684
G1 X3.2723 Y5.9217
G1 Z-0.25 F30
G1 X3.3161 Y6.4198 F25
G1 Z-0.75 F30
G1 X3.8272 Y12.2263 F25
G1 X2.9222 Y13.2121
G1 X1.8268 Y12.2108
G1 Z-0.85 F30
G1 X1.6476 Y10.1743 F25
G1 Z-0.25 F30
G1 X1.6037 Y9.6762 F25
G1 Z-0.85 F30
G1 X0.9719 Y2.4987 F25
G1 X1.393 Y2.0401
G1 X3.0652 Y3.5684
G1 X3.2723 Y5.9217
G1 Z-0.25 F30
G1 X3.3161 Y6.4198 F25
G1 Z-0.85 F30
G1 X3.8272 Y12.2263 F25
G1 X2.9222 Y13.2121
G1 X1.8268 Y12.2108

(profile 14)
G0 Z0.3
G0 X4.5334 Y9.623
G1 Z-0.15 F30
G1 X5.2834 Y10.7633 F25
G1 X5.5581 Y11.1811
G1 X6.0486 Y11.9269
G1 X4.7363 Y11.9269
G1 X4.6634 Y11.0991
G1 X4.6196 Y10.6011
G1 X4.5334 Y9.623
G1 Z-0.3 F30
G1 X5.2834 Y10.7633 F25
G1 Z-0.25 F30
G1 X5.5581 Y11.1811 F25
G1 Z-0.3 F30
G1 X6.0486 Y11.9269 F25
G1 X4.7363 Y11.9269
G1 X4.6634 Y11.0991
G1 Z-0.25 F30
G1 X4.6196 Y10.6011 F25
G1 Z-0.3 F30
G1 X4.5334 Y9.623 F25
G1 Z-0.45 F30
G1 X5.2834 Y10.7633 F25
G1 Z-0.25 F30
G1 X5.5581 Y11.1811 F25
G1 Z-0.45 F30
G1 X6.0486 Y11.9269 F25
G1 X4.7363 Y11.9269
G1 X4.6634 Y11.0991
G1 Z-0.25 F30
G1 X4.6196 Y10.6011 F25
G1 Z-0.45 F30
G1 X4.5334 Y9.623 F25
G1 Z-0.6 F30
G1 X5.2834 Y10.7633 F25
G1 Z-0.25 F30
G1 X5.5581 Y11.1811 F25
G1 Z-0.6 F30
G1 X6.0486 Y11.9269 F25
G1 X4.7363 Y11.9269
G1 X4.6634 Y11.0991
G1 Z-0.25 F30
G1 X4.6196 Y10.6011 F25
G1 Z-0.6 F30
G1 X4.5334 Y9.623 F25
G1 Z-0.75 F30
G1 X5.2834 Y10.7633 F25
G1 Z-0.25 F30
G1 X5.5581 Y11.1811 F25
G1 Z-0.75 F30
G1 X6.0486 Y11.9269 F25
G1 X4.7363 Y11.9269
G1 X4.6634 Y11.0991
G1 Z-0.25 F30
G1 X4.6196 Y10.6011 F25
G1 Z-0.75 F30
G1 X4.5334 Y9.623 F25
G1 Z-0.85 F30
G1 X5.2834 Y10.7633 F25
G1 Z-0.25 F30
G1 X5.5581 Y11.1811 F25
G1 Z-0.85 F30
G1 X6.0486 Y11.9269 F25
G1 X4.7363 Y11.9269
G1 X4.6634 Y11.0991
G1 Z-0.25 F30
G1 X4.6196 Y10.6011 F25
G1 Z-0.85 F30
G1 X4.5334 Y9.623 F25

(profile 15)
G0 Z0.3
G0 X4.2516 Y3.8524
G1 Z-0.15 F30
G1 X5.779 Y6.175 F25
G1 X6.0537 Y6.5927
G1 X7.2401 Y8.3967
G1 X7.5509 Y11.9269
G1 X7.2753 Y11.9269
G1 X6.0425 Y10.0523
G1 X5.7678 Y9.6345
G1 X4.4197 Y7.5846
G1 X4.0912 Y3.8524
G1 X4.2516 Y3.8524
G1 Z-0.3 F30
G1 X5.779 Y6.175 F25
G1 Z-0.25 F30
G1 X6.0537 Y6.5927 F25
G1 Z-0.3 F30
G1 X7.2401 Y8.3967 F25
G1 X7.5509 Y11.9269
G1 X7.2753 Y11.9269
G1 X6.0425 Y10.0523
G1 Z-0.25 F30
G1 X5.7678 Y9.6345 F25
G1 Z-0.3 F30
G1 X4.4197 Y7.5846 F25
G1 X4.0912 Y3.8524
G1 X4.2516 Y3.8524
G1 Z-0.45 F30
G1 X5.779 Y6.175 F25
G1 Z-0.25 F30
G1 X6.0537 Y6.5927 F25
G1 Z-0.45 F30
G1 X7.2401 Y8.3967 F25
G1 X7.5509 Y11.9269
G1 X7.2753 Y11.9269
G1 X6.0425 Y10.0523
G1 Z-0.25 F30
G1 X5.7678 Y9.6345 F25
G1 Z-0.45 F30
G1 X4.4197 Y7.5846 F25
G1 X4.0912 Y3.8524
G1 X4.2516 Y3.8524
G1 Z-0.6 F30
G1 X5.779 Y6.175 F25
G1 Z-0.25 F30
G1 X6.0537 Y6.5927 F25
G1 Z-0.6 F30
G1 X7.2401 Y8.3967 F25
G1 X7.5509 Y11.9269
G1 X7.2753 Y11.9269
G1 X6.0425 Y10.0523
G1 Z-0.25 F30
G1 X5.7678 Y9.6345 F25
G1 Z-0.6 F30
G1 X4.4197 Y7.5846 F25
G1 X4.0912 Y3.8524
G1 X4.2516 Y3.8524
G1 Z-0.75 F30
G1 X5.779 Y6.175 F25
G1 Z-0.25 F30
G1 X6.0537 Y6.5927 F25
G1 Z-0.75 F30
G1 X7.2401 Y8.3967 F25
G1 X7.5509 Y11.9269
G1 X7.2753 Y11.9269
G1 X6.0425 Y10.0523
G1 Z-0.25 F30
G1 X5.7678 Y9.6345 F25
G1 Z-0.75 F30
G1 X4.4197 Y7.5846 F25
G1 X4.0912 Y3.8524
G1 X4.2516 Y3.8524
G1 Z-0.85 F30
G1 X5.779 Y6.175 F25
G1 Z-0.25 F30
G1 X6.0537 Y6.5927 F25
G1 Z-0.85 F30
G1 X7.2401 Y8.3967 F25
G1 X7.5509 Y11.9269
G1 X7.2753 Y11.9269
G1 X6.0425 Y10.0523
G1 Z-0.25 F30
G1 X5.7678 Y9.6345 F25
G1 Z-0.85 F30
G1 X4.4197 Y7.5846 F25
G1 X4.0912 Y3.8524
G1 X4.2516 Y3.8524

(profile 16)
G0 Z0.3
G0 X6.9951 Y6.3584
G1 Z-0.15 F30
G1 X6.266 Y5.2496 F25
G1 X5.9913 Y4.8319
G1 X5.3471 Y3.8524
G1 X6.1496 Y3.8524
G1 X6.6496 Y3.8524
G1 X7.4189 Y3.8524
G1 X6.8682 Y4.4522
G2 X6.8352 Y4.5368 I0.0921 J0.0845
G2 X6.8357 Y4.5477 I0.125 J0
G1 X6.9951 Y6.3584
G1 Z-0.3 F30
G1 X6.266 Y5.2496 F25
G1 Z-0.25 F30
G1 X5.9913 Y4.8319 F25
G1 Z-0.3 F30
G1 X5.3471 Y3.8524 F25
G1 X6.1496 Y3.8524
G1 Z-0.25 F30
G1 X6.6496 Y3.8524 F25
G1 Z-0.3 F30
G1 X7.4189 Y3.8524 F25
G1 X6.8682 Y4.4522
G2 X6.8352 Y4.5368 I0.0921 J0.0845
G2 X6.8357 Y4.5477 I0.125 J0
G1 X6.9951 Y6.3584
G1 Z-0.45 F30
G1 X6.266 Y5.2496 F25
G1 Z-0.25 F30
G1 X5.9913 Y4.8319 F25
G1 Z-0.45 F30
G1 X5.3471 Y3.8524 F25
G1 X6.1496 Y3.8524
G1 Z-0.25 F30
G1 X6.6496 Y3.8524 F25
G1 Z-0.45 F30
G1 X7.4189 Y3.8524 F25
G1 X6.8682 Y4.4522
G2 X6.8352 Y4.5368 I0.0921 J0.0845
G2 X6.8357 Y4.5477 I0.125 J0
G1 X6.9951 Y6.3584
G1 Z-0.6 F30
G1 X6.266 Y5.2496 F25
G1 Z-0.25 F30
G1 X5.9913 Y4.8319 F25
G1 Z-0.6 F30
G1 X5.3471 Y3.8524 F25
G1 X6.1496 Y3.8524
G1 Z-0.25 F30
G1 X6.6496 Y3.8524 F25
G1 Z-0.6 F30
G1 X7.4189 Y3.8524 F25
G1 X6.8682 Y4.4522
G2 X6.8352 Y4.5368 I0.0921 J0.0845
G2 X6.8357 Y4.5477 I0.125 J0
G1 X6.9951 Y6.3584
G1 Z-0.75 F30
G1 X6.266 Y5.2496 F25
G1 Z-0.25 F30
G1 X5.9913 Y4.8319 F25
G1 Z-0.75 F30
G1 X5.3471 Y3.8524 F25
G1 X6.1496 Y3.8524
G1 Z-0.25 F30
G1 X6.6496 Y3.8524 F25
G1 Z-0.75 F30
G1 X7.4189 Y3.8524 F25
G1 X6.8682 Y4.4522
G2 X6.8352 Y4.5368 I0.0921 J0.0845
G2 X6.8357 Y4.5477 I0.125 J0
G1 X6.9951 Y6.3584
G1 Z-0.85 F30
G1 X6.266 Y5.2496 F25
G1 Z-0.25 F30
G1 X5.9913 Y4.8319 F25
G1 Z-0.85 F30
G1 X5.3471 Y3.8524 F25
G1 X6.1496 Y3.8524
G1 Z-0.25 F30
G1 X6.6496 Y3.8524 F25
G1 Z-0.85 F30
G1 X7.4189 Y3.8524 F25
G1 X6.8682 Y4.4522
G2 X6.8352 Y4.5368 I0.0921 J0.0845
G2 X6.8357 Y4.5477 I0.125 J0
G1 X6.9951 Y6.3584

(profile 17)
G0 Z0.3
G0 X9.9328 Y4.905
G1 Z-0.15 F30
G1 X10.3712 Y9.8858 F25
G1 X10.415 Y10.3838
G1 X10.5772 Y12.2263
G1 X9.6723 Y13.2121
G1 X8.5768 Y12.2108
G1 X8.1535 Y7.4013
G1 X8.1097 Y6.9032
G1 X7.9324 Y4.8895
G1 X8.8374 Y3.9038
G1 X9.9328 Y4.905
G1 Z-0.3 F30
G1 X10.3712 Y9.8858 F25
G1 Z-0.25 F30
G1 X10.415 Y10.3838 F25
G1 Z-0.3 F30
G1 X10.5772 Y12.2263 F25
G1 X9.6723 Y13.2121
G1 X8.5768 Y12.2108
G1 X8.1535 Y7.4013
G1 Z-0.25 F30
G1 X8.1097 Y6.9032 F25
G1 Z-0.3 F30
G1 X7.9324 Y4.8895 F25
G1 X8.8374 Y3.9038
G1 X9.9328 Y4.905
G1 Z-0.45 F30
G1 X10.3712 Y9.8858 F25
G1 Z-0.25 F30
G1 X10.415 Y10.3838 F25
G1 Z-0.45 F30
G1 X10.5772 Y12.2263 F25
G1 X9.6723 Y13.2121
G1 X8.5768 Y12.2108
G1 X8.1535 Y7.4013
G1 Z-0.25 F30
G1 X8.1097 Y6.9032 F25
G1 Z-0.45 F30
G1 X7.9324 Y4.8895 F25
G1 X8.8374 Y3.9038
G1 X9.9328 Y4.905
G1 Z-0.6 F30
G1 X10.3712 Y9.8858 F25
G1 Z-0.25 F30
G1 X10.415 Y10.3838 F25
G1 Z-0.6 F30
G1 X10.5772 Y12.2263 F25
G1 X9.6723 Y13.2121
G1 X8.5768 Y12.2108
G1 X8.1535 Y7.4013
G1 Z-0.25 F30
G1 X8.1097 Y6.9032 F25
G1 Z-0.6 F30
G1 X7.9324 Y4.8895 F25
G1 X8.8374 Y3.9038
G1 X9.9328 Y4.905
G1 Z-0.75 F30
G1 X10.3712 Y9.8858 F25
G1 Z-0.25 F30
G1 X10.415 Y10.3838 F25
G1 Z-0.75 F30
G1 X10.5772 Y12.2263 F25
G1 X9.6723 Y13.2121
G1 X8.5768 Y12.2108
G1 X8.1535 Y7.4013
G1 Z-0.25 F30
G1 X8.1097 Y6.9032 F25
G1 Z-0.75 F30
G1 X7.9324 Y4.8895 F25
G1 X8.8374 Y3.9038
G1 X9.9328 Y4.905
G1 Z-0.85 F30
G1 X10.3712 Y9.8858 F25
G1 Z-0.25 F30
G1 X10.415 Y10.3838 F25
G1 Z-0.85 F30
G1 X10.5772 Y12.2263 F25
G1 X9.6723 Y13.2121
G1 X8.5768 Y12.2108
G1 X8.1535 Y7.4013
G1 Z-0.25 F30
G1 X8.1097 Y6.9032 F25
G1 Z-0.85 F30
G1 X7.9324 Y4.8895 F25
G1 X8.8374 Y3.9038
G1 X9.9328 Y4.905

(profile 18)
G0 Z0.3
G0 X12.2138 Y3.8525
G1 Z-0.15 F30
G1 X11.6876 Y4.9451 F25
G1 X11.4706 Y5.3956
G1 X10.9977 Y6.3775
G1 X10.8618 Y4.8348
G1 X10.8348 Y4.5259
G2 X10.7946 Y4.4446 I-0.1245 J0.0109
G1 X10.1468 Y3.8525
G1 X11.0092 Y3.8525
G1 X11.5092 Y3.8525
G1 X12.2138 Y3.8525
G1 Z-0.3 F30
G1 X11.6876 Y4.9451 F25
G1 Z-0.25 F30
G1 X11.4706 Y5.3956 F25
G1 Z-0.3 F30
G1 X10.9977 Y6.3775 F25
G1 X10.8618 Y4.8348
G1 X10.8348 Y4.5259
G2 X10.7946 Y4.4446 I-0.1245 J0.0109
G1 X10.1468 Y3.8525
G1 X11.0092 Y3.8525
G1 Z-0.25 F30
G1 X11.5092 Y3.8525 F25
G1 Z-0.3 F30
G1 X12.2138 Y3.8525 F25
G1 Z-0.45 F30
G1 X11.6876 Y4.9451 F25
G1 Z-0.25 F30
G1 X11.4706 Y5.3956 F25
G1 Z-0.45 F30
G1 X10.9977 Y6.3775 F25
G1 X10.8618 Y4.8348
G1 X10.8348 Y4.5259
G2 X10.7946 Y4.4446 I-0.1245 J0.0109
G1 X10.1468 Y3.8525
G1 X11.0092 Y3.8525
G1 Z-0.25 F30
G1 X11.5092 Y3.8525 F25
G1 Z-0.45 F30
G1 X12.2138 Y3.8525 F25
G1 Z-0.6 F30
G1 X11.6876 Y4.9451 F25
G1 Z-0.25 F30
G1 X11.4706 Y5.3956 F25
G1 Z-0.6 F30
G1 X10.9977 Y6.3775 F25
G1 X10.8618 Y4.8348
G1 X10.8348 Y4.5259
G2 X10.7946 Y4.4446 I-0.1245 J0.0109
G1 X10.1468 Y3.8525
G1 X11.0092 Y3.8525
G1 Z-0.25 F30
G1 X11.5092 Y3.8525 F25
G1 Z-0.6 F30
G1 X12.2138 Y3.8525 F25
G1 Z-0.75 F30
G1 X11.6876 Y4.9451 F25
G1 Z-0.25 F30
G1 X11.4706 Y5.3956 F25
G1 Z-0.75 F30
G1 X10.9977 Y6.3775 F25
G1 X10.8618 Y4.8348
G1 X10.8348 Y4.5259
G2 X10.7946 Y4.4446 I-0.1245 J0.0109
G1 X10.1468 Y3.8525
G1 X11.0092 Y3.8525
G1 Z-0.25 F30
G1 X11.5092 Y3.8525 F25
G1 Z-0.75 F30
G1 X12.2138 Y3.8525 F25
G1 Z-0.85 F30
G1 X11.6876 Y4.9451 F25
G1 Z-0.25 F30
G1 X11.4706 Y5.3956 F25
G1 Z-0.85 F30
G1 X10.9977 Y6.3775 F25
G1 X10.8618 Y4.8348
G1 X10.8348 Y4.5259
G2 X10.7946 Y4.4446 I-0.1245 J0.0109
G1 X10.1468 Y3.8525
G1 X11.0092 Y3.8525
G1 Z-0.25 F30
G1 X11.5092 Y3.8525 F25
G1 Z-0.85 F30
G1 X12.2138 Y3.8525 F25

(profile 19)
G0 Z0.3
G0 X11.2395 Y8.3777
G1 Z-0.15 F30
G1 X11.9638 Y6.8737 F25
G1 X12.1807 Y6.4232
G1 X13.4188 Y3.8524
G1 X13.5902 Y3.8524
G1 X13.9203 Y7.6037
G1 X13.469 Y8.5408
G1 X13.2521 Y8.9913
G1 X11.8383 Y11.9269
G1 X11.5518 Y11.9269
G1 X11.2395 Y8.3777
G1 Z-0.3 F30
G1 X11.9638 Y6.8737 F25
G1 Z-0.25 F30
G1 X12.1807 Y6.4232 F25
G1 Z-0.3 F30
G1 X13.4188 Y3.8524 F25
G1 X13.5902 Y3.8524
G1 X13.9203 Y7.6037
G1 X13.469 Y8.5408
G1 Z-0.25 F30
G1 X13.2521 Y8.9913 F25
G1 Z-0.3 F30
G1 X11.8383 Y11.9269 F25
G1 X11.5518 Y11.9269
G1 X11.2395 Y8.3777
G1 Z-0.45 F30
G1 X11.9638 Y6.8737 F25
G1 Z-0.25 F30
G1 X12.1807 Y6.4232 F25
G1 Z-0.45 F30
G1 X13.4188 Y3.8524 F25
G1 X13.5902 Y3.8524
G1 X13.9203 Y7.6037
G1 X13.469 Y8.5408
G1 Z-0.25 F30
G1 X13.2521 Y8.9913 F25
G1 Z-0.45 F30
G1 X11.8383 Y11.9269 F25
G1 X11.5518 Y11.9269
G1 X11.2395 Y8.3777
G1 Z-0.6 F30
G1 X11.9638 Y6.8737 F25
G1 Z-0.25 F30
G1 X12.1807 Y6.4232 F25
G1 Z-0.6 F30
G1 X13.4188 Y3.8524 F25
G1 X13.5902 Y3.8524
G1 X13.9203 Y7.6037
G1 X13.469 Y8.5408
G1 Z-0.25 F30
G1 X13.2521 Y8.9913 F25
G1 Z-0.6 F30
G1 X11.8383 Y11.9269 F25
G1 X11.5518 Y11.9269
G1 X11.2395 Y8.3777
G1 Z-0.75 F30
G1 X11.9638 Y6.8737 F25
G1 Z-0.25 F30
G1 X12.1807 Y6.4232 F25
G1 Z-0.75 F30
G1 X13.4188 Y3.8524 F25
G1 X13.5902 Y3.8524
G1 X13.9203 Y7.6037
G1 X13.469 Y8.5408
G1 Z-0.25 F30
G1 X13.2521 Y8.9913 F25
G1 Z-0.75 F30
G1 X11.8383 Y11.9269 F25
G1 X11.5518 Y11.9269
G1 X11.2395 Y8.3777
G1 Z-0.85 F30
G1 X11.9638 Y6.8737 F25
G1 Z-0.25 F30
G1 X12.1807 Y6.4232 F25
G1 Z-0.85 F30
G1 X13.4188 Y3.8524 F25
G1 X13.5902 Y3.8524
G1 X13.9203 Y7.6037
G1 X13.469 Y8.5408
G1 Z-0.25 F30
G1 X13.2521 Y8.9913 F25
G1 Z-0.85 F30
G1 X11.8383 Y11.9269 F25
G1 X11.5518 Y11.9269
G1 X11.2395 Y8.3777

(profile 20)
G0 Z0.3
G0 X12.912 Y11.9269
G1 Z-0.15 F30
G1 X13.3445 Y11.0289 F25
G1 X13.5614 Y10.5784
G1 X14.0307 Y9.6039
G1 X14.1554 Y11.02
G1 X14.1993 Y11.518
G1 X14.2353 Y11.9269
G1 X12.912 Y11.9269
G1 Z-0.3 F30
G1 X13.3445 Y11.0289 F25
G1 Z-0.25 F30
G1 X13.5614 Y10.5784 F25
G1 Z-0.3 F30
G1 X14.0307 Y9.6039 F25
G1 X14.1554 Y11.02
G1 Z-0.25 F30
G1 X14.1993 Y11.518 F25
G1 Z-0.3 F30
G1 X14.2353 Y11.9269 F25
G1 X12.912 Y11.9269
G1 Z-0.45 F30
G1 X13.3445 Y11.0289 F25
G1 Z-0.25 F30
G1 X13.5614 Y10.5784 F25
G1 Z-0.45 F30
G1 X14.0307 Y9.6039 F25
G1 X14.1554 Y11.02
G1 Z-0.25 F30
G1 X14.1993 Y11.518 F25
G1 Z-0.45 F30
G1 X14.2353 Y11.9269 F25
G1 X12.912 Y11.9269
G1 Z-0.6 F30
G1 X13.3445 Y11.0289 F25
G1 Z-0.25 F30
G1 X13.5614 Y10.5784 F25
G1 Z-0.6 F30
G1 X14.0307 Y9.6039 F25
G1 X14.1554 Y11.02
G1 Z-0.25 F30
G1 X14.1993 Y11.518 F25
G1 Z-0.6 F30
G1 X14.2353 Y11.9269 F25
G1 X12.912 Y11.9269
G1 Z-0.75 F30
G1 X13.3445 Y11.0289 F25
G1 Z-0.25 F30
G1 X13.5614 Y10.5784 F25
G1 Z-0.75 F30
G1 X14.0307 Y9.6039 F25
G1 X14.1554 Y11.02
G1 Z-0.25 F30
G1 X14.1993 Y11.518 F25
G1 Z-0.75 F30
G1 X14.2353 Y11.9269 F25
G1 X12.912 Y11.9269
G1 Z-0.85 F30
G1 X13.3445 Y11.0289 F25
G1 Z-0.25 F30
G1 X13.5614 Y10.5784 F25
G1 Z-0.85 F30
G1 X14.0307 Y9.6039 F25
G1 X14.1554 Y11.02
G1 Z-0.25 F30
G1 X14.1993 Y11.518 F25
G1 Z-0.85 F30
G1 X14.2353 Y11.9269 F25
G1 X12.912 Y11.9269

(profile 21)
G0 Z0.3
G0 X16.4724 Y2.5142
G1 Z-0.15 F30
G1 X16.7579 Y5.7586 F25
G1 X16.8018 Y6.2566
G1 X17.3273 Y12.2263
G1 X16.4223 Y13.2121
G1 X15.3268 Y12.2108
G1 X15.1139 Y9.7921
G1 X15.0701 Y9.294
G1 X14.5648 Y3.553
G1 X15.9537 Y2.0401
G1 X16.4724 Y2.5142
G1 Z-0.3 F30
G1 X16.7579 Y5.7586 F25
G1 Z-0.25 F30
G1 X16.8018 Y6.2566 F25
G1 Z-0.3 F30
G1 X17.3273 Y12.2263 F25
G1 X16.4223 Y13.2121
G1 X15.3268 Y12.2108
G1 X15.1139 Y9.7921
G1 Z-0.25 F30
G1 X15.0701 Y9.294 F25
G1 Z-0.3 F30
G1 X14.5648 Y3.553 F25
G1 X15.9537 Y2.0401
G1 X16.4724 Y2.5142
G1 Z-0.45 F30
G1 X16.7579 Y5.7586 F25
G1 Z-0.25 F30
G1 X16.8018 Y6.2566 F25
G1 Z-0.45 F30
G1 X17.3273 Y12.2263 F25
G1 X16.4223 Y13.2121
G1 X15.3268 Y12.2108
G1 X15.1139 Y9.7921
G1 Z-0.25 F30
G1 X15.0701 Y9.294 F25
G1 Z-0.45 F30
G1 X14.5648 Y3.553 F25
G1 X15.9537 Y2.0401
G1 X16.4724 Y2.5142
G1 Z-0.6 F30
G1 X16.7579 Y5.7586 F25
G1 Z-0.25 F30
G1 X16.8018 Y6.2566 F25
G1 Z-0.6 F30
G1 X17.3273 Y12.2263 F25
G1 X16.4223 Y13.2121
G1 X15.3268 Y12.2108
G1 X15.1139 Y9.7921
G1 Z-0.25 F30
G1 X15.0701 Y9.294 F25
G1 Z-0.6 F30
G1 X14.5648 Y3.553 F25
G1 X15.9537 Y2.0401
G1 X16.4724 Y2.5142
G1 Z-0.75 F30
G1 X16.7579 Y5.7586 F25
G1 Z-0.25 F30
G1 X16.8018 Y6.2566 F25
G1 Z-0.75 F30
G1 X17.3273 Y12.2263 F25
G1 X16.4223 Y13.2121
G1 X15.3268 Y12.2108
G1 X15.1139 Y9.7921
G1 Z-0.25 F30
G1 X15.0701 Y9.294 F25
G1 Z-0.75 F30
G1 X14.5648 Y3.553 F25
G1 X15.9537 Y2.0401
G1 X16.4724 Y2.5142
G1 Z-0.85 F30
G1 X16.7579 Y5.7586 F25
G1 Z-0.25 F30
G1 X16.8018 Y6.2566 F25
G1 Z-0.85 F30
G1 X17.3273 Y12.2263 F25
G1 X16.4223 Y13.2121
G1 X15.3268 Y12.2108
G1 X15.1139 Y9.7921
G1 Z-0.25 F30
G1 X15.0701 Y9.294 F25
G1 Z-0.85 F30
G1 X14.5648 Y3.553 F25
G1 X15.9537 Y2.0401
G1 X16.4724 Y2.5142

(profile 22)
G0 Z0.3
G0 X2.4668 Y0.8706
G1 Z-0.15 F30
G1 X6.4072 Y0.8706 F25
G1 X6.9072 Y0.8706
G1 X14.674 Y0.8706
G1 X15.1924 Y1.3445
G1 X13.8038 Y2.8571
G1 X11.2773 Y2.8571
G1 X10.7773 Y2.8571
G1 X3.7179 Y2.8571
G1 X2.046 Y1.329
G1 X2.4668 Y0.8706
G1 Z-0.3 F30
G1 X6.4072 Y0.8706 F25
G1 Z-0.25 F30
G1 X6.9072 Y0.8706 F25
G1 Z-0.3 F30
G1 X14.674 Y0.8706 F25
G1 X15.1924 Y1.3445
G1 X13.8038 Y2.8571
G1 X11.2773 Y2.8571
G1 Z-0.25 F30
G1 X10.7773 Y2.8571 F25
G1 Z-0.3 F30
G1 X3.7179 Y2.8571 F25
G1 X2.046 Y1.329
G1 X2.4668 Y0.8706
G1 Z-0.45 F30
G1 X6.4072 Y0.8706 F25
G1 Z-0.25 F30
G1 X6.9072 Y0.8706 F25
G1 Z-0.45 F30
G1 X14.674 Y0.8706 F25
G1 X15.1924 Y1.3445
G1 X13.8038 Y2.8571
G1 X11.2773 Y2.8571
G1 Z-0.25 F30
G1 X10.7773 Y2.8571 F25
G1 Z-0.45 F30
G1 X3.7179 Y2.8571 F25
G1 X2.046 Y1.329
G1 X2.4668 Y0.8706
G1 Z-0.6 F30
G1 X6.4072 Y0.8706 F25
G1 Z-0.25 F30
G1 X6.9072 Y0.8706 F25
G1 Z-0.6 F30
G1 X14.674 Y0.8706 F25
G1 X15.1924 Y1.3445
G1 X13.8038 Y2.8571
G1 X11.2773 Y2.8571
G1 Z-0.25 F30
G1 X10.7773 Y2.8571 F25
G1 Z-0.6 F30
G1 X3.7179 Y2.8571 F25
G1 X2.046 Y1.329
G1 X2.4668 Y0.8706
G1 Z-0.75 F30
G1 X6.4072 Y0.8706 F25
G1 Z-0.25 F30
G1 X6.9072 Y0.8706 F25
G1 Z-0.75 F30
G1 X14.674 Y0.8706 F25
G1 X15.1924 Y1.3445
G1 X13.8038 Y2.8571
G1 X11.2773 Y2.8571
G1 Z-0.25 F30
G1 X10.7773 Y2.8571 F25
G1 Z-0.75 F30
G1 X3.7179 Y2.8571 F25
G1 X2.046 Y1.329
G1 X2.4668 Y0.8706
G1 Z-0.85 F30
G1 X6.4072 Y0.8706 F25
G1 Z-0.25 F30
G1 X6.9072 Y0.8706 F25
G1 Z-0.85 F30
G1 X14.674 Y0.8706 F25
G1 X15.1924 Y1.3445
G1 X13.8038 Y2.8571
G1 X11.2773 Y2.8571
G1 Z-0.25 F30
G1 X10.7773 Y2.8571 F25
G1 Z-0.85 F30
G1 X3.7179 Y2.8571 F25
G1 X2.046 Y1.329
G1 X2.4668 Y0.8706

(profile 23)
G0 Z0.3
G0 X17.3516 Y27.9563
G1 Z-0.15 F30
G1 X12.0442 Y27.9563 F25
G1 X11.5442 Y27.9563
G1 X4.4196 Y27.9563
G3 X4.3353 Y27.9235 I0 J-0.125
G1 X4.0964 Y27.7051
G1 X3.4497 Y27.1141
G1 X2.873 Y26.5869
G1 X1.9874 Y25.7776
G3 X1.9472 Y25.6962 I0.0843 J-0.0923
G1 X1.9202 Y25.3874
G1 X1.4647 Y20.2121
G1 X1.4209 Y19.7141
G1 X1.0291 Y15.2631
G3 X1.0286 Y15.2521 I0.1245 J-0.011
G3 X1.0615 Y15.1676 I0.125 J0
G1 X2.2038 Y13.9234
G1 X0.834 Y12.6713
G3 X0.7938 Y12.59 I0.0843 J-0.0923
G1 X0.3199 Y7.2062
G1 X0.2761 Y6.7081
G1 X-0.1245 Y2.1569
G3 X-0.125 Y2.146 I0.1245 J-0.011
G3 X-0.0921 Y2.0614 I0.125 J0
G1 X0.1084 Y1.8431
G1 X1.1349 Y0.7249
G1 X1.878 Y-0.0845
G3 X1.9701 Y-0.125 I0.0921 J0.0845
G1 X2.2807 Y-0.125
G1 X8.248 Y-0.125
G1 X8.748 Y-0.125
G1 X14.9021 Y-0.125
G3 X14.9864 Y-0.0923 I0 J0.125
G1 X15.872 Y0.7171
G1 X17.3343 Y2.0537
G3 X17.3745 Y2.1351 I-0.0843 J0.0923
G1 X17.4015 Y2.4437
G1 X17.7797 Y6.7404
G1 X17.8235 Y7.2385
G1 X18.2926 Y12.5681
G3 X18.2931 Y12.579 I-0.1245 J0.011
G3 X18.2602 Y12.6636 I-0.125 J0
G1 X17.1179 Y13.9079
G1 X18.4877 Y15.1599
G3 X18.5279 Y15.2412 I-0.0843 J0.0923
G1 X18.8935 Y19.3948
G1 X18.9373 Y19.8929
G1 X19.4462 Y25.6743
G3 X19.4467 Y25.6853 I-0.1245 J0.011
G3 X19.4138 Y25.7698 I-0.125 J0
G1 X19.2134 Y25.9881
G1 X18.6707 Y26.5792
G1 X18.1868 Y27.1063
G1 X17.4437 Y27.9158
G3 X17.3516 Y27.9563 I-0.0921 J-0.0845
G1 Z-0.3 F30
G1 X12.0442 Y27.9563 F25
G1 Z-0.25 F30
G1 X11.5442 Y27.9563 F25
G1 Z-0.3 F30
G1 X4.4196 Y27.9563 F25
G3 X4.3353 Y27.9235 I0 J-0.125
G1 X4.0964 Y27.7051
G1 X3.4497 Y27.1141
G1 X2.873 Y26.5869
G1 X1.9874 Y25.7776
G3 X1.9472 Y25.6962 I0.0843 J-0.0923
G1 X1.9202 Y25.3874
G1 X1.4647 Y20.2121
G1 Z-0.25 F30
G1 X1.4209 Y19.7141 F25
G1 Z-0.3 F30
G1 X1.0291 Y15.2631 F25
G3 X1.0286 Y15.2521 I0.1245 J-0.011
G3 X1.0615 Y15.1676 I0.125 J0
G1 X2.2038 Y13.9234
G1 X0.834 Y12.6713
G3 X0.7938 Y12.59 I0.0843 J-0.0923
G1 X0.3199 Y7.2062
G1 Z-0.25 F30
G1 X0.2761 Y6.7081 F25
G1 Z-0.3 F30
G1 X-0.1245 Y2.1569 F25
G3 X-0.125 Y2.146 I0.1245 J-0.011
G3 X-0.0921 Y2.0614 I0.125 J0
G1 X0.1084 Y1.8431
G1 X1.1349 Y0.7249
G1 X1.878 Y-0.0845
G3 X1.9701 Y-0.125 I0.0921 J0.0845
G1 X2.2807 Y-0.125
G1 X8.248 Y-0.125
G1 Z-0.25 F30
G1 X8.748 Y-0.125 F25
G1 Z-0.3 F30
G1 X14.9021 Y-0.125 F25
G3 X14.9864 Y-0.0923 I0 J0.125
G1 X15.872 Y0.7171
G1 X17.3343 Y2.0537
G3 X17.3745 Y2.1351 I-0.0843 J0.0923
G1 X17.4015 Y2.4437
G1 X17.7797 Y6.7404
G1 Z-0.25 F30
G1 X17.8235 Y7.2385 F25
G1 Z-0.3 F30
G1 X18.2926 Y12.5681 F25
G3 X18.2931 Y12.579 I-0.1245 J0.011
G3 X18.2602 Y12.6636 I-0.125 J0
G1 X17.1179 Y13.9079
G1 X18.4877 Y15.1599
G3 X18.5279 Y15.2412 I-0.0843 J0.0923
G1 X18.8935 Y19.3948
G1 Z-0.25 F30
G1 X18.9373 Y19.8929 F25
G1 Z-0.3 F30
G1 X19.4462 Y25.6743 F25
G3 X19.4467 Y25.6853 I-0.1245 J0.011
G3 X19.4138 Y25.7698 I-0.125 J0
G1 X19.2134 Y25.9881
G1 X18.6707 Y26.5792
G1 X18.1868 Y27.1063
G1 X17.4437 Y27.9158
G3 X17.3516 Y27.9563 I-0.0921 J-0.0845
G1 Z-0.45 F30
G1 X12.0442 Y27.9563 F25
G1 Z-0.25 F30
G1 X11.5442 Y27.9563 F25
G1 Z-0.45 F30
G1 X4.4196 Y27.9563 F25
G3 X4.3353 Y27.9235 I0 J-0.125
G1 X4.0964 Y27.7051
G1 X3.4497 Y27.1141
G1 X2.873 Y26.5869
G1 X1.9874 Y25.7776
G3 X1.9472 Y25.6962 I0.0843 J-0.0923
G1 X1.9202 Y25.3874
G1 X1.4647 Y20.2121
G1 Z-0.25 F30
G1 X1.4209 Y19.7141 F25
G1 Z-0.45 F30
G1 X1.0291 Y15.2631 F25
G3 X1.0286 Y15.2521 I0.1245 J-0.011
G3 X1.0615 Y15.1676 I0.125 J0
G1 X2.2038 Y13.9234
G1 X0.834 Y12.6713
G3 X0.7938 Y12.59 I0.0843 J-0.0923
G1 X0.3199 Y7.2062
G1 Z-0.25 F30
G1 X0.2761 Y6.7081 F25
G1 Z-0.45 F30
G1 X-0.1245 Y2.1569 F25
G3 X-0.125 Y2.146 I0.1245 J-0.011
G3 X-0.0921 Y2.0614 I0.125 J0
G1 X0.1084 Y1.8431
G1 X1.1349 Y0.7249
G1 X1.878 Y-0.0845
G3 X1.9701 Y-0.125 I0.0921 J0.0845
G1 X2.2807 Y-0.125
G1 X8.248 Y-0.125
G1 Z-0.25 F30
G1 X8.748 Y-0.125 F25
G1 Z-0.45 F30
G1 X14.9021 Y-0.125 F25
G3 X14.9864 Y-0.0923 I0 J0.125
G1 X15.872 Y0.7171
G1 X17.3343 Y2.0537
G3 X17.3745 Y2.1351 I-0.0843 J0.0923
G1 X17.4015 Y2.4437
G1 X17.7797 Y6.7404
G1 Z-0.25 F30
G1 X17.8235 Y7.2385 F25
G1 Z-0.45 F30
G1 X18.2926 Y12.5681 F25
G3 X18.2931 Y12.579 I-0.1245 J0.011
G3 X18.2602 Y12.6636 I-0.125 J0
G1 X17.1179 Y13.9079
G1 X18.4877 Y15.1599
G3 X18.5279 Y15.2412 I-0.0843 J0.0923
G1 X18.8935 Y19.3948
G1 Z-0.25 F30
G1 X18.9373 Y19.8929 F25
G1 Z-0.45 F30
G1 X19.4462 Y25.6743 F25
G3 X19.4467 Y25.6853 I-0.1245 J0.011
G3 X19.4138 Y25.7698 I-0.125 J0
G1 X19.2134 Y25.9881
G1 X18.6707 Y26.5792
G1 X18.1868 Y27.1063
G1 X17.4437 Y27.9158
G3 X17.3516 Y27.9563 I-0.0921 J-0.0845
G1 Z-0.6 F30
G1 X12.0442 Y27.9563 F25
G1 Z-0.25 F30
G1 X11.5442 Y27.9563 F25
G1 Z-0.6 F30
G1 X4.4196 Y27.9563 F25
G3 X4.3353 Y27.9235 I0 J-0.125
G1 X4.0964 Y27.7051
G1 X3.4497 Y27.1141
G1 X2.873 Y26.5869
G1 X1.9874 Y25.7776
G3 X1.9472 Y25.6962 I0.0843 J-0.0923
G1 X1.9202 Y25.3874
G1 X1.4647 Y20.2121
G1 Z-0.25 F30
G1 X1.4209 Y19.7141 F25
G1 Z-0.6 F30
G1 X1.0291 Y15.2631 F25
G3 X1.0286 Y15.2521 I0.1245 J-0.011
G3 X1.0615 Y15.1676 I0.125 J0
G1 X2.2038 Y13.9234
G1 X0.834 Y12.6713
G3 X0.7938 Y12.59 I0.0843 J-0.0923
G1 X0.3199 Y7.2062
G1 Z-0.25 F30
G1 X0.2761 Y6.7081 F25
G1 Z-0.6 F30
G1 X-0.1245 Y2.1569 F25
G3 X-0.125 Y2.146 I0.1245 J-0.011
G3 X-0.0921 Y2.0614 I0.125 J0
G1 X0.1084 Y1.8431
G1 X1.1349 Y0.7249
G1 X1.878 Y-0.0845
G3 X1.9701 Y-0.125 I0.0921 J0.0845
G1 X2.2807 Y-0.125
G1 X8.248 Y-0.125
G1 Z-0.25 F30
G1 X8.748 Y-0.125 F25
G1 Z-0.6 F30
G1 X14.9021 Y-0.125 F25
G3 X14.9864 Y-0.0923 I0 J0.125
G1 X15.872 Y0.7171
G1 X17.3343 Y2.0537
G3 X17.3745 Y2.1351 I-0.0843 J0.0923
G1 X17.4015 Y2.4437
G1 X17.7797 Y6.7404
G1 Z-0.25 F30
G1 X17.8235 Y7.2385 F25
G1 Z-0.6 F30
G1 X18.2926 Y12.5681 F25
G3 X18.2931 Y12.579 I-0.1245 J0.011
G3 X18.2602 Y12.6636 I-0.125 J0
G1 X17.1179 Y13.9079
G1 X18.4877 Y15.1599
G3 X18.5279 Y15.2412 I-0.0843 J0.0923
G1 X18.8935 Y19.3948
G1 Z-0.25 F30
G1 X18.9373 Y19.8929 F25
G1 Z-0.6 F30
G1 X19.4462 Y25.6743 F25
G3 X19.4467 Y25.6853 I-0.1245 J0.011
G3 X19.4138 Y25.7698 I-0.125 J0
G1 X19.2134 Y25.9881
G1 X18.6707 Y26.5792
G1 X18.1868 Y27.1063
G1 X17.4437 Y27.9158
G3 X17.3516 Y27.9563 I-0.0921 J-0.0845
G1 Z-0.75 F30
G1 X12.0442 Y27.9563 F25
G1 Z-0.25 F30
G1 X11.5442 Y27.9563 F25
G1 Z-0.75 F30
G1 X4.4196 Y27.9563 F25
G3 X4.3353 Y27.9235 I0 J-0.125
G1 X4.0964 Y27.7051
G1 X3.4497 Y27.1141
G1 X2.873 Y26.5869
G1 X1.9874 Y25.7776
G3 X1.9472 Y25.6962 I0.0843 J-0.0923
G1 X1.9202 Y25.3874
G1 X1.4647 Y20.2121
G1 Z-0.25 F30
G1 X1.4209 Y19.7141 F25
G1 Z-0.75 F30
G1 X1.0291 Y15.2631 F25
G3 X1.0286 Y15.2521 I0.1245 J-0.011
G3 X1.0615 Y15.1676 I0.125 J0
G1 X2.2038 Y13.9234
G1 X0.834 Y12.6713
G3 X0.7938 Y12.59 I0.0843 J-0.0923
G1 X0.3199 Y7.2062
G1 Z-0.25 F30
G1 X0.2761 Y6.7081 F25
G1 Z-0.75 F30
G1 X-0.1245 Y2.1569 F25
G3 X-0.125 Y2.146 I0.1245 J-0.011
G3 X-0.0921 Y2.0614 I0.125 J0
G1 X0.1084 Y1.8431
G1 X1.1349 Y0.7249
G1 X1.878 Y-0.0845
G3 X1.9701 Y-0.125 I0.0921 J0.0845
G1 X2.2807 Y-0.125
G1 X8.248 Y-0.125
G1 Z-0.25 F30
G1 X8.748 Y-0.125 F25
G1 Z-0.75 F30
G1 X14.9021 Y-0.125 F25
G3 X14.9864 Y-0.0923 I0 J0.125
G1 X15.872 Y0.7171
G1 X17.3343 Y2.0537
G3 X17.3745 Y2.1351 I-0.0843 J0.0923
G1 X17.4015 Y2.4437
G1 X17.7797 Y6.7404
G1 Z-0.25 F30
G1 X17.8235 Y7.2385 F25
G1 Z-0.75 F30
G1 X18.2926 Y12.5681 F25
G3 X18.2931 Y12.579 I-0.1245 J0.011
G3 X18.2602 Y12.6636 I-0.125 J0
G1 X17.1179 Y13.9079
G1 X18.4877 Y15.1599
G3 X18.5279 Y15.2412 I-0.0843 J0.0923
G1 X18.8935 Y19.3948
G1 Z-0.25 F30
G1 X18.9373 Y19.8929 F25
G1 Z-0.75 F30
G1 X19.4462 Y25.6743 F25
G3 X19.4467 Y25.6853 I-0.1245 J0.011
G3 X19.4138 Y25.7698 I-0.125 J0
G1 X19.2134 Y25.9881
G1 X18.6707 Y26.5792
G1 X18.1868 Y27.1063
G1 X17.4437 Y27.9158
G3 X17.3516 Y27.9563 I-0.0921 J-0.0845
G1 Z-0.85 F30
G1 X12.0442 Y27.9563 F25
G1 Z-0.25 F30
G1 X11.5442 Y27.9563 F25
G1 Z-0.85 F30
G1 X4.4196 Y27.9563 F25
G3 X4.3353 Y27.9235 I0 J-0.125
G1 X4.0964 Y27.7051
G1 X3.4497 Y27.1141
G1 X2.873 Y26.5869
G1 X1.9874 Y25.7776
G3 X1.9472 Y25.6962 I0.0843 J-0.0923
G1 X1.9202 Y25.3874
G1 X1.4647 Y20.2121
G1 Z-0.25 F30
G1 X1.4209 Y19.7141 F25
G1 Z-0.85 F30
G1 X1.0291 Y15.2631 F25
G3 X1.0286 Y15.2521 I0.1245 J-0.011
G3 X1.0615 Y15.1676 I0.125 J0
G1 X2.2038 Y13.9234
G1 X0.834 Y12.6713
G3 X0.7938 Y12.59 I0.0843 J-0.0923
G1 X0.3199 Y7.2062
G1 Z-0.25 F30
G1 X0.2761 Y6.7081 F25
G1 Z-0.85 F30
G1 X-0.1245 Y2.1569 F25
G3 X-0.125 Y2.146 I0.1245 J-0.011
G3 X-0.0921 Y2.0614 I0.125 J0
G1 X0.1084 Y1.8431
G1 X1.1349 Y0.7249
G1 X1.878 Y-0.0845
G3 X1.9701 Y-0.125 I0.0921 J0.0845
G1 X2.2807 Y-0.125
G1 X8.248 Y-0.125
G1 Z-0.25 F30
G1 X8.748 Y-0.125 F25
G1 Z-0.85 F30
G1 X14.9021 Y-0.125 F25
G3 X14.9864 Y-0.0923 I0 J0.125
G1 X15.872 Y0.7171
G1 X17.3343 Y2.0537
G3 X17.3745 Y2.1351 I-0.0843 J0.0923
G1 X17.4015 Y2.4437
G1 X17.7797 Y6.7404
G1 Z-0.25 F30
G1 X17.8235 Y7.2385 F25
G1 Z-0.85 F30
G1 X18.2926 Y12.5681 F25
G3 X18.2931 Y12.579 I-0.1245 J0.011
G3 X18.2602 Y12.6636 I-0.125 J0
G1 X17.1179 Y13.9079
G1 X18.4877 Y15.1599
G3 X18.5279 Y15.2412 I-0.0843 J0.0923
G1 X18.8935 Y19.3948
G1 Z-0.25 F30
G1 X18.9373 Y19.8929 F25
G1 Z-0.85 F30
G1 X19.4462 Y25.6743 F25
G3 X19.4467 Y25.6853 I-0.1245 J0.011
G3 X19.4138 Y25.7698 I-0.125 J0
G1 X19.2134 Y25.9881
G1 X18.6707 Y26.5792
G1 X18.1868 Y27.1063
G1 X17.4437 Y27.9158
G3 X17.3516 Y27.9563 I-0.0921 J-0.0845
G0 Z0.3
M5
M30
