(Generated by PartKam Version 0.05)

G20 G90 G40

(pockets)
G0 Z0.3
T0 M6
G17
M3
G0 X16.9861 Y26.9608
G1 Z-0.15 F30
G1 X14.7498 Y26.9608 F25
G1 X14.2498 Y26.9608
G1 X7.2909 Y26.9608
G1 X6.7909 Y26.9608
G1 X4.7788 Y26.9608
G1 X4.2604 Y26.4869
G1 X4.9583 Y25.7268
G1 X5.2964 Y25.3585
G1 X5.6491 Y24.9744
G1 X10.6862 Y24.9744
G1 X11.1862 Y24.9744
G1 X15.7349 Y24.9744
G1 X16.4031 Y25.585
G1 X16.7721 Y25.9223
G1 X17.4068 Y26.5024
G1 X16.9861 Y26.9608
G1 Z-0.3 F30
G1 X14.7498 Y26.9608 F25
G1 Z-0.25 F30
G1 X14.2498 Y26.9608 F25
G1 Z-0.3 F30
G1 X7.2909 Y26.9608 F25
G1 Z-0.25 F30
G1 X6.7909 Y26.9608 F25
G1 Z-0.3 F30
G1 X4.7788 Y26.9608 F25
G1 X4.2604 Y26.4869
G1 X4.9583 Y25.7268
G1 Z-0.25 F30
G1 X5.2964 Y25.3585 F25
G1 Z-0.3 F30
G1 X5.6491 Y24.9744 F25
G1 X10.6862 Y24.9744
G1 Z-0.25 F30
G1 X11.1862 Y24.9744 F25
G1 Z-0.3 F30
G1 X15.7349 Y24.9744 F25
G1 X16.4031 Y25.585
G1 Z-0.25 F30
G1 X16.7721 Y25.9223 F25
G1 Z-0.3 F30
G1 X17.4068 Y26.5024 F25
G1 X16.9861 Y26.9608
G1 Z-0.45 F30
G1 X14.7498 Y26.9608 F25
G1 Z-0.25 F30
G1 X14.2498 Y26.9608 F25
G1 Z-0.45 F30
G1 X7.2909 Y26.9608 F25
G1 Z-0.25 F30
G1 X6.7909 Y26.9608 F25
G1 Z-0.45 F30
G1 X4.7788 Y26.9608 F25
G1 X4.2604 Y26.4869
G1 X4.9583 Y25.7268
G1 Z-0.25 F30
G1 X5.2964 Y25.3585 F25
G1 Z-0.45 F30
G1 X5.6491 Y24.9744 F25
G1 X10.6862 Y24.9744
G1 Z-0.25 F30
G1 X11.1862 Y24.9744 F25
G1 Z-0.45 F30
G1 X15.7349 Y24.9744 F25
G1 X16.4031 Y25.585
G1 Z-0.25 F30
G1 X16.7721 Y25.9223 F25
G1 Z-0.45 F30
G1 X17.4068 Y26.5024 F25
G1 X16.9861 Y26.9608
G1 Z-0.6 F30
G1 X14.7498 Y26.9608 F25
G1 Z-0.25 F30
G1 X14.2498 Y26.9608 F25
G1 Z-0.6 F30
G1 X7.2909 Y26.9608 F25
G1 Z-0.25 F30
G1 X6.7909 Y26.9608 F25
G1 Z-0.6 F30
G1 X4.7788 Y26.9608 F25
G1 X4.2604 Y26.4869
G1 X4.9583 Y25.7268
G1 Z-0.25 F30
G1 X5.2964 Y25.3585 F25
G1 Z-0.6 F30
G1 X5.6491 Y24.9744 F25
G1 X10.6862 Y24.9744
G1 Z-0.25 F30
G1 X11.1862 Y24.9744 F25
G1 Z-0.6 F30
G1 X15.7349 Y24.9744 F25
G1 X16.4031 Y25.585
G1 Z-0.25 F30
G1 X16.7721 Y25.9223 F25
G1 Z-0.6 F30
G1 X17.4068 Y26.5024 F25
G1 X16.9861 Y26.9608
G1 Z-0.75 F30
G1 X14.7498 Y26.9608 F25
G1 Z-0.25 F30
G1 X14.2498 Y26.9608 F25
G1 Z-0.75 F30
G1 X7.2909 Y26.9608 F25
G1 Z-0.25 F30
G1 X6.7909 Y26.9608 F25
G1 Z-0.75 F30
G1 X4.7788 Y26.9608 F25
G1 X4.2604 Y26.4869
G1 X4.9583 Y25.7268
G1 Z-0.25 F30
G1 X5.2964 Y25.3585 F25
G1 Z-0.75 F30
G1 X5.6491 Y24.9744 F25
G1 X10.6862 Y24.9744
G1 Z-0.25 F30
G1 X11.1862 Y24.9744 F25
G1 Z-0.75 F30
G1 X15.7349 Y24.9744 F25
G1 X16.4031 Y25.585
G1 Z-0.25 F30
G1 X16.7721 Y25.9223 F25
G1 Z-0.75 F30
G1 X17.4068 Y26.5024 F25
G1 X16.9861 Y26.9608
G1 Z-0.85 F30
G1 X14.7498 Y26.9608 F25
G1 Z-0.25 F30
G1 X14.2498 Y26.9608 F25
G1 Z-0.85 F30
G1 X7.2909 Y26.9608 F25
G1 Z-0.25 F30
G1 X6.7909 Y26.9608 F25
G1 Z-0.85 F30
G1 X4.7788 Y26.9608 F25
G1 X4.2604 Y26.4869
G1 X4.9583 Y25.7268
G1 Z-0.25 F30
G1 X5.2964 Y25.3585 F25
G1 Z-0.85 F30
G1 X5.6491 Y24.9744 F25
G1 X10.6862 Y24.9744
G1 Z-0.25 F30
G1 X11.1862 Y24.9744 F25
G1 Z-0.85 F30
G1 X15.7349 Y24.9744 F25
G1 X16.4031 Y25.585
G1 Z-0.25 F30
G1 X16.7721 Y25.9223 F25
G1 Z-0.85 F30
G1 X17.4068 Y26.5024 F25
G1 X16.9861 Y26.9608
G0 Z0.3
G0 X2.4668 Y0.8706
G1 Z-0.15 F30
G1 X5.8485 Y0.8706 F25
G1 X6.3485 Y0.8706
G1 X11.7709 Y0.8706
G1 X12.2709 Y0.8706
G1 X14.674 Y0.8706
G1 X15.1924 Y1.3445
G1 X14.6457 Y1.94
G1 X14.3076 Y2.3083
G1 X13.8038 Y2.8571
G1 X9.238 Y2.8571
G1 X8.738 Y2.8571
G1 X3.7179 Y2.8571
G1 X3.0498 Y2.2464
G1 X2.6807 Y1.9091
G1 X2.046 Y1.329
G1 X2.4668 Y0.8706
G1 Z-0.3 F30
G1 X5.8485 Y0.8706 F25
G1 Z-0.25 F30
G1 X6.3485 Y0.8706 F25
G1 Z-0.3 F30
G1 X11.7709 Y0.8706 F25
G1 Z-0.25 F30
G1 X12.2709 Y0.8706 F25
G1 Z-0.3 F30
G1 X14.674 Y0.8706 F25
G1 X15.1924 Y1.3445
G1 X14.6457 Y1.94
G1 Z-0.25 F30
G1 X14.3076 Y2.3083 F25
G1 Z-0.3 F30
G1 X13.8038 Y2.8571 F25
G1 X9.238 Y2.8571
G1 Z-0.25 F30
G1 X8.738 Y2.8571 F25
G1 Z-0.3 F30
G1 X3.7179 Y2.8571 F25
G1 X3.0498 Y2.2464
G1 Z-0.25 F30
G1 X2.6807 Y1.9091 F25
G1 Z-0.3 F30
G1 X2.046 Y1.329 F25
G1 X2.4668 Y0.8706
G1 Z-0.45 F30
G1 X5.8485 Y0.8706 F25
G1 Z-0.25 F30
G1 X6.3485 Y0.8706 F25
G1 Z-0.45 F30
G1 X11.7709 Y0.8706 F25
G1 Z-0.25 F30
G1 X12.2709 Y0.8706 F25
G1 Z-0.45 F30
G1 X14.674 Y0.8706 F25
G1 X15.1924 Y1.3445
G1 X14.6457 Y1.94
G1 Z-0.25 F30
G1 X14.3076 Y2.3083 F25
G1 Z-0.45 F30
G1 X13.8038 Y2.8571 F25
G1 X9.238 Y2.8571
G1 Z-0.25 F30
G1 X8.738 Y2.8571 F25
G1 Z-0.45 F30
G1 X3.7179 Y2.8571 F25
G1 X3.0498 Y2.2464
G1 Z-0.25 F30
G1 X2.6807 Y1.9091 F25
G1 Z-0.45 F30
G1 X2.046 Y1.329 F25
G1 X2.4668 Y0.8706
G1 Z-0.6 F30
G1 X5.8485 Y0.8706 F25
G1 Z-0.25 F30
G1 X6.3485 Y0.8706 F25
G1 Z-0.6 F30
G1 X11.7709 Y0.8706 F25
G1 Z-0.25 F30
G1 X12.2709 Y0.8706 F25
G1 Z-0.6 F30
G1 X14.674 Y0.8706 F25
G1 X15.1924 Y1.3445
G1 X14.6457 Y1.94
G1 Z-0.25 F30
G1 X14.3076 Y2.3083 F25
G1 Z-0.6 F30
G1 X13.8038 Y2.8571 F25
G1 X9.238 Y2.8571
G1 Z-0.25 F30
G1 X8.738 Y2.8571 F25
G1 Z-0.6 F30
G1 X3.7179 Y2.8571 F25
G1 X3.0498 Y2.2464
G1 Z-0.25 F30
G1 X2.6807 Y1.9091 F25
G1 Z-0.6 F30
G1 X2.046 Y1.329 F25
G1 X2.4668 Y0.8706
G1 Z-0.75 F30
G1 X5.8485 Y0.8706 F25
G1 Z-0.25 F30
G1 X6.3485 Y0.8706 F25
G1 Z-0.75 F30
G1 X11.7709 Y0.8706 F25
G1 Z-0.25 F30
G1 X12.2709 Y0.8706 F25
G1 Z-0.75 F30
G1 X14.674 Y0.8706 F25
G1 X15.1924 Y1.3445
G1 X14.6457 Y1.94
G1 Z-0.25 F30
G1 X14.3076 Y2.3083 F25
G1 Z-0.75 F30
G1 X13.8038 Y2.8571 F25
G1 X9.238 Y2.8571
G1 Z-0.25 F30
G1 X8.738 Y2.8571 F25
G1 Z-0.75 F30
G1 X3.7179 Y2.8571 F25
G1 X3.0498 Y2.2464
G1 Z-0.25 F30
G1 X2.6807 Y1.9091 F25
G1 Z-0.75 F30
G1 X2.046 Y1.329 F25
G1 X2.4668 Y0.8706
G1 Z-0.85 F30
G1 X5.8485 Y0.8706 F25
G1 Z-0.25 F30
G1 X6.3485 Y0.8706 F25
G1 Z-0.85 F30
G1 X11.7709 Y0.8706 F25
G1 Z-0.25 F30
G1 X12.2709 Y0.8706 F25
G1 Z-0.85 F30
G1 X14.674 Y0.8706 F25
G1 X15.1924 Y1.3445
G1 X14.6457 Y1.94
G1 Z-0.25 F30
G1 X14.3076 Y2.3083 F25
G1 Z-0.85 F30
G1 X13.8038 Y2.8571 F25
G1 X9.238 Y2.8571
G1 Z-0.25 F30
G1 X8.738 Y2.8571 F25
G1 Z-0.85 F30
G1 X3.7179 Y2.8571 F25
G1 X3.0498 Y2.2464
G1 Z-0.25 F30
G1 X2.6807 Y1.9091 F25
G1 Z-0.85 F30
G1 X2.046 Y1.329 F25
G1 X2.4668 Y0.8706
G0 Z0.3
G0 X17.6259 Y15.6204
G1 Z-0.15 F30
G1 X18.0644 Y20.6011 F25
G1 X18.1082 Y21.0992
G1 X18.4808 Y25.3325
G1 X18.0598 Y25.7912
G1 X17.5397 Y25.3158
G1 X17.1706 Y24.9784
G1 X16.3876 Y24.2627
G1 X16.0374 Y20.2842
G1 X15.9936 Y19.7861
G1 X15.6256 Y15.6049
G1 X16.5305 Y14.6192
G1 X16.9244 Y14.9792
G1 X17.2935 Y15.3165
G1 X17.6259 Y15.6204
G1 Z-0.3 F30
G1 X18.0644 Y20.6011 F25
G1 Z-0.25 F30
G1 X18.1082 Y21.0992 F25
G1 Z-0.3 F30
G1 X18.4808 Y25.3325 F25
G1 X18.0598 Y25.7912
G1 X17.5397 Y25.3158
G1 Z-0.25 F30
G1 X17.1706 Y24.9784 F25
G1 Z-0.3 F30
G1 X16.3876 Y24.2627 F25
G1 X16.0374 Y20.2842
G1 Z-0.25 F30
G1 X15.9936 Y19.7861 F25
G1 Z-0.3 F30
G1 X15.6256 Y15.6049 F25
G1 X16.5305 Y14.6192
G1 X16.9244 Y14.9792
G1 Z-0.25 F30
G1 X17.2935 Y15.3165 F25
G1 Z-0.3 F30
G1 X17.6259 Y15.6204 F25
G1 Z-0.45 F30
G1 X18.0644 Y20.6011 F25
G1 Z-0.25 F30
G1 X18.1082 Y21.0992 F25
G1 Z-0.45 F30
G1 X18.4808 Y25.3325 F25
G1 X18.0598 Y25.7912
G1 X17.5397 Y25.3158
G1 Z-0.25 F30
G1 X17.1706 Y24.9784 F25
G1 Z-0.45 F30
G1 X16.3876 Y24.2627 F25
G1 X16.0374 Y20.2842
G1 Z-0.25 F30
G1 X15.9936 Y19.7861 F25
G1 Z-0.45 F30
G1 X15.6256 Y15.6049 F25
G1 X16.5305 Y14.6192
G1 X16.9244 Y14.9792
G1 Z-0.25 F30
G1 X17.2935 Y15.3165 F25
G1 Z-0.45 F30
G1 X17.6259 Y15.6204 F25
G1 Z-0.6 F30
G1 X18.0644 Y20.6011 F25
G1 Z-0.25 F30
G1 X18.1082 Y21.0992 F25
G1 Z-0.6 F30
G1 X18.4808 Y25.3325 F25
G1 X18.0598 Y25.7912
G1 X17.5397 Y25.3158
G1 Z-0.25 F30
G1 X17.1706 Y24.9784 F25
G1 Z-0.6 F30
G1 X16.3876 Y24.2627 F25
G1 X16.0374 Y20.2842
G1 Z-0.25 F30
G1 X15.9936 Y19.7861 F25
G1 Z-0.6 F30
G1 X15.6256 Y15.6049 F25
G1 X16.5305 Y14.6192
G1 X16.9244 Y14.9792
G1 Z-0.25 F30
G1 X17.2935 Y15.3165 F25
G1 Z-0.6 F30
G1 X17.6259 Y15.6204 F25
G1 Z-0.75 F30
G1 X18.0644 Y20.6011 F25
G1 Z-0.25 F30
G1 X18.1082 Y21.0992 F25
G1 Z-0.75 F30
G1 X18.4808 Y25.3325 F25
G1 X18.0598 Y25.7912
G1 X17.5397 Y25.3158
G1 Z-0.25 F30
G1 X17.1706 Y24.9784 F25
G1 Z-0.75 F30
G1 X16.3876 Y24.2627 F25
G1 X16.0374 Y20.2842
G1 Z-0.25 F30
G1 X15.9936 Y19.7861 F25
G1 Z-0.75 F30
G1 X15.6256 Y15.6049 F25
G1 X16.5305 Y14.6192
G1 X16.9244 Y14.9792
G1 Z-0.25 F30
G1 X17.2935 Y15.3165 F25
G1 Z-0.75 F30
G1 X17.6259 Y15.6204 F25
G1 Z-0.85 F30
G1 X18.0644 Y20.6011 F25
G1 Z-0.25 F30
G1 X18.1082 Y21.0992 F25
G1 Z-0.85 F30
G1 X18.4808 Y25.3325 F25
G1 X18.0598 Y25.7912
G1 X17.5397 Y25.3158
G1 Z-0.25 F30
G1 X17.1706 Y24.9784 F25
G1 Z-0.85 F30
G1 X16.3876 Y24.2627 F25
G1 X16.0374 Y20.2842
G1 Z-0.25 F30
G1 X15.9936 Y19.7861 F25
G1 Z-0.85 F30
G1 X15.6256 Y15.6049 F25
G1 X16.5305 Y14.6192
G1 X16.9244 Y14.9792
G1 Z-0.25 F30
G1 X17.2935 Y15.3165 F25
G1 Z-0.85 F30
G1 X17.6259 Y15.6204 F25
G0 Z0.3
G0 X2.9804 Y25.317
G1 Z-0.15 F30
G1 X2.5411 Y20.326 F25
G1 X2.4973 Y19.8279
G1 X2.1256 Y15.6049
G1 X2.4454 Y15.2565
G1 X2.7835 Y14.8882
G1 X3.0305 Y14.6192
G1 X4.126 Y15.6204
G1 X4.497 Y19.8362
G1 X4.5409 Y20.3343
G1 X4.888 Y24.2782
G1 X4.33 Y24.8861
G1 X3.9919 Y25.2544
G1 X3.4991 Y25.7912
G1 X2.9804 Y25.317
G1 Z-0.3 F30
G1 X2.5411 Y20.326 F25
G1 Z-0.25 F30
G1 X2.4973 Y19.8279 F25
G1 Z-0.3 F30
G1 X2.1256 Y15.6049 F25
G1 X2.4454 Y15.2565
G1 Z-0.25 F30
G1 X2.7835 Y14.8882 F25
G1 Z-0.3 F30
G1 X3.0305 Y14.6192 F25
G1 X4.126 Y15.6204
G1 X4.497 Y19.8362
G1 Z-0.25 F30
G1 X4.5409 Y20.3343 F25
G1 Z-0.3 F30
G1 X4.888 Y24.2782 F25
G1 X4.33 Y24.8861
G1 Z-0.25 F30
G1 X3.9919 Y25.2544 F25
G1 Z-0.3 F30
G1 X3.4991 Y25.7912 F25
G1 X2.9804 Y25.317
G1 Z-0.45 F30
G1 X2.5411 Y20.326 F25
G1 Z-0.25 F30
G1 X2.4973 Y19.8279 F25
G1 Z-0.45 F30
G1 X2.1256 Y15.6049 F25
G1 X2.4454 Y15.2565
G1 Z-0.25 F30
G1 X2.7835 Y14.8882 F25
G1 Z-0.45 F30
G1 X3.0305 Y14.6192 F25
G1 X4.126 Y15.6204
G1 X4.497 Y19.8362
G1 Z-0.25 F30
G1 X4.5409 Y20.3343 F25
G1 Z-0.45 F30
G1 X4.888 Y24.2782 F25
G1 X4.33 Y24.8861
G1 Z-0.25 F30
G1 X3.9919 Y25.2544 F25
G1 Z-0.45 F30
G1 X3.4991 Y25.7912 F25
G1 X2.9804 Y25.317
G1 Z-0.6 F30
G1 X2.5411 Y20.326 F25
G1 Z-0.25 F30
G1 X2.4973 Y19.8279 F25
G1 Z-0.6 F30
G1 X2.1256 Y15.6049 F25
G1 X2.4454 Y15.2565
G1 Z-0.25 F30
G1 X2.7835 Y14.8882 F25
G1 Z-0.6 F30
G1 X3.0305 Y14.6192 F25
G1 X4.126 Y15.6204
G1 X4.497 Y19.8362
G1 Z-0.25 F30
G1 X4.5409 Y20.3343 F25
G1 Z-0.6 F30
G1 X4.888 Y24.2782 F25
G1 X4.33 Y24.8861
G1 Z-0.25 F30
G1 X3.9919 Y25.2544 F25
G1 Z-0.6 F30
G1 X3.4991 Y25.7912 F25
G1 X2.9804 Y25.317
G1 Z-0.75 F30
G1 X2.5411 Y20.326 F25
G1 Z-0.25 F30
G1 X2.4973 Y19.8279 F25
G1 Z-0.75 F30
G1 X2.1256 Y15.6049 F25
G1 X2.4454 Y15.2565
G1 Z-0.25 F30
G1 X2.7835 Y14.8882 F25
G1 Z-0.75 F30
G1 X3.0305 Y14.6192 F25
G1 X4.126 Y15.6204
G1 X4.497 Y19.8362
G1 Z-0.25 F30
G1 X4.5409 Y20.3343 F25
G1 Z-0.75 F30
G1 X4.888 Y24.2782 F25
G1 X4.33 Y24.8861
G1 Z-0.25 F30
G1 X3.9919 Y25.2544 F25
G1 Z-0.75 F30
G1 X3.4991 Y25.7912 F25
G1 X2.9804 Y25.317
G1 Z-0.85 F30
G1 X2.5411 Y20.326 F25
G1 Z-0.25 F30
G1 X2.4973 Y19.8279 F25
G1 Z-0.85 F30
G1 X2.1256 Y15.6049 F25
G1 X2.4454 Y15.2565
G1 Z-0.25 F30
G1 X2.7835 Y14.8882 F25
G1 Z-0.85 F30
G1 X3.0305 Y14.6192 F25
G1 X4.126 Y15.6204
G1 X4.497 Y19.8362
G1 Z-0.25 F30
G1 X4.5409 Y20.3343 F25
G1 Z-0.85 F30
G1 X4.888 Y24.2782 F25
G1 X4.33 Y24.8861
G1 Z-0.25 F30
G1 X3.9919 Y25.2544 F25
G1 Z-0.85 F30
G1 X3.4991 Y25.7912 F25
G1 X2.9804 Y25.317
G0 Z0.3
G0 X1.8268 Y12.2108
G1 Z-0.15 F30
G1 X1.4104 Y7.4798 F25
G1 X1.3665 Y6.9817
G1 X0.9719 Y2.4987
G1 X1.393 Y2.0401
G1 X1.9666 Y2.5644
G1 X2.3357 Y2.9018
G1 X3.0652 Y3.5684
G1 X3.4006 Y7.3788
G1 X3.4444 Y7.8768
G1 X3.8272 Y12.2263
G1 X2.9222 Y13.2121
G1 X2.5818 Y12.9009
G1 X2.2127 Y12.5636
G1 X1.8268 Y12.2108
G1 Z-0.3 F30
G1 X1.4104 Y7.4798 F25
G1 Z-0.25 F30
G1 X1.3665 Y6.9817 F25
G1 Z-0.3 F30
G1 X0.9719 Y2.4987 F25
G1 X1.393 Y2.0401
G1 X1.9666 Y2.5644
G1 Z-0.25 F30
G1 X2.3357 Y2.9018 F25
G1 Z-0.3 F30
G1 X3.0652 Y3.5684 F25
G1 X3.4006 Y7.3788
G1 Z-0.25 F30
G1 X3.4444 Y7.8768 F25
G1 Z-0.3 F30
G1 X3.8272 Y12.2263 F25
G1 X2.9222 Y13.2121
G1 X2.5818 Y12.9009
G1 Z-0.25 F30
G1 X2.2127 Y12.5636 F25
G1 Z-0.3 F30
G1 X1.8268 Y12.2108 F25
G1 Z-0.45 F30
G1 X1.4104 Y7.4798 F25
G1 Z-0.25 F30
G1 X1.3665 Y6.9817 F25
G1 Z-0.45 F30
G1 X0.9719 Y2.4987 F25
G1 X1.393 Y2.0401
G1 X1.9666 Y2.5644
G1 Z-0.25 F30
G1 X2.3357 Y2.9018 F25
G1 Z-0.45 F30
G1 X3.0652 Y3.5684 F25
G1 X3.4006 Y7.3788
G1 Z-0.25 F30
G1 X3.4444 Y7.8768 F25
G1 Z-0.45 F30
G1 X3.8272 Y12.2263 F25
G1 X2.9222 Y13.2121
G1 X2.5818 Y12.9009
G1 Z-0.25 F30
G1 X2.2127 Y12.5636 F25
G1 Z-0.45 F30
G1 X1.8268 Y12.2108 F25
G1 Z-0.6 F30
G1 X1.4104 Y7.4798 F25
G1 Z-0.25 F30
G1 X1.3665 Y6.9817 F25
G1 Z-0.6 F30
G1 X0.9719 Y2.4987 F25
G1 X1.393 Y2.0401
G1 X1.9666 Y2.5644
G1 Z-0.25 F30
G1 X2.3357 Y2.9018 F25
G1 Z-0.6 F30
G1 X3.0652 Y3.5684 F25
G1 X3.4006 Y7.3788
G1 Z-0.25 F30
G1 X3.4444 Y7.8768 F25
G1 Z-0.6 F30
G1 X3.8272 Y12.2263 F25
G1 X2.9222 Y13.2121
G1 X2.5818 Y12.9009
G1 Z-0.25 F30
G1 X2.2127 Y12.5636 F25
G1 Z-0.6 F30
G1 X1.8268 Y12.2108 F25
G1 Z-0.75 F30
G1 X1.4104 Y7.4798 F25
G1 Z-0.25 F30
G1 X1.3665 Y6.9817 F25
G1 Z-0.75 F30
G1 X0.9719 Y2.4987 F25
G1 X1.393 Y2.0401
G1 X1.9666 Y2.5644
G1 Z-0.25 F30
G1 X2.3357 Y2.9018 F25
G1 Z-0.75 F30
G1 X3.0652 Y3.5684 F25
G1 X3.4006 Y7.3788
G1 Z-0.25 F30
G1 X3.4444 Y7.8768 F25
G1 Z-0.75 F30
G1 X3.8272 Y12.2263 F25
G1 X2.9222 Y13.2121
G1 X2.5818 Y12.9009
G1 Z-0.25 F30
G1 X2.2127 Y12.5636 F25
G1 Z-0.75 F30
G1 X1.8268 Y12.2108 F25
G1 Z-0.85 F30
G1 X1.4104 Y7.4798 F25
G1 Z-0.25 F30
G1 X1.3665 Y6.9817 F25
G1 Z-0.85 F30
G1 X0.9719 Y2.4987 F25
G1 X1.393 Y2.0401
G1 X1.9666 Y2.5644
G1 Z-0.25 F30
G1 X2.3357 Y2.9018 F25
G1 Z-0.85 F30
G1 X3.0652 Y3.5684 F25
G1 X3.4006 Y7.3788
G1 Z-0.25 F30
G1 X3.4444 Y7.8768 F25
G1 Z-0.85 F30
G1 X3.8272 Y12.2263 F25
G1 X2.9222 Y13.2121
G1 X2.5818 Y12.9009
G1 Z-0.25 F30
G1 X2.2127 Y12.5636 F25
G1 Z-0.85 F30
G1 X1.8268 Y12.2108 F25
G0 Z0.3
G0 X16.4724 Y2.5142
G1 Z-0.15 F30
G1 X16.9108 Y7.495 F25
G1 X16.9546 Y7.993
G1 X17.3273 Y12.2263
G1 X17.0236 Y12.557
G1 X16.6855 Y12.9253
G1 X16.4223 Y13.2121
G1 X15.3268 Y12.2108
G1 X14.9789 Y8.2582
G1 X14.9351 Y7.7602
G1 X14.5648 Y3.553
G1 X15.1227 Y2.9452
G1 X15.4609 Y2.5769
G1 X15.9537 Y2.0401
G1 X16.4724 Y2.5142
G1 Z-0.3 F30
G1 X16.9108 Y7.495 F25
G1 Z-0.25 F30
G1 X16.9546 Y7.993 F25
G1 Z-0.3 F30
G1 X17.3273 Y12.2263 F25
G1 X17.0236 Y12.557
G1 Z-0.25 F30
G1 X16.6855 Y12.9253 F25
G1 Z-0.3 F30
G1 X16.4223 Y13.2121 F25
G1 X15.3268 Y12.2108
G1 X14.9789 Y8.2582
G1 Z-0.25 F30
G1 X14.9351 Y7.7602 F25
G1 Z-0.3 F30
G1 X14.5648 Y3.553 F25
G1 X15.1227 Y2.9452
G1 Z-0.25 F30
G1 X15.4609 Y2.5769 F25
G1 Z-0.3 F30
G1 X15.9537 Y2.0401 F25
G1 X16.4724 Y2.5142
G1 Z-0.45 F30
G1 X16.9108 Y7.495 F25
G1 Z-0.25 F30
G1 X16.9546 Y7.993 F25
G1 Z-0.45 F30
G1 X17.3273 Y12.2263 F25
G1 X17.0236 Y12.557
G1 Z-0.25 F30
G1 X16.6855 Y12.9253 F25
G1 Z-0.45 F30
G1 X16.4223 Y13.2121 F25
G1 X15.3268 Y12.2108
G1 X14.9789 Y8.2582
G1 Z-0.25 F30
G1 X14.9351 Y7.7602 F25
G1 Z-0.45 F30
G1 X14.5648 Y3.553 F25
G1 X15.1227 Y2.9452
G1 Z-0.25 F30
G1 X15.4609 Y2.5769 F25
G1 Z-0.45 F30
G1 X15.9537 Y2.0401 F25
G1 X16.4724 Y2.5142
G1 Z-0.6 F30
G1 X16.9108 Y7.495 F25
G1 Z-0.25 F30
G1 X16.9546 Y7.993 F25
G1 Z-0.6 F30
G1 X17.3273 Y12.2263 F25
G1 X17.0236 Y12.557
G1 Z-0.25 F30
G1 X16.6855 Y12.9253 F25
G1 Z-0.6 F30
G1 X16.4223 Y13.2121 F25
G1 X15.3268 Y12.2108
G1 X14.9789 Y8.2582
G1 Z-0.25 F30
G1 X14.9351 Y7.7602 F25
G1 Z-0.6 F30
G1 X14.5648 Y3.553 F25
G1 X15.1227 Y2.9452
G1 Z-0.25 F30
G1 X15.4609 Y2.5769 F25
G1 Z-0.6 F30
G1 X15.9537 Y2.0401 F25
G1 X16.4724 Y2.5142
G1 Z-0.75 F30
G1 X16.9108 Y7.495 F25
G1 Z-0.25 F30
G1 X16.9546 Y7.993 F25
G1 Z-0.75 F30
G1 X17.3273 Y12.2263 F25
G1 X17.0236 Y12.557
G1 Z-0.25 F30
G1 X16.6855 Y12.9253 F25
G1 Z-0.75 F30
G1 X16.4223 Y13.2121 F25
G1 X15.3268 Y12.2108
G1 X14.9789 Y8.2582
G1 Z-0.25 F30
G1 X14.9351 Y7.7602 F25
G1 Z-0.75 F30
G1 X14.5648 Y3.553 F25
G1 X15.1227 Y2.9452
G1 Z-0.25 F30
G1 X15.4609 Y2.5769 F25
G1 Z-0.75 F30
G1 X15.9537 Y2.0401 F25
G1 X16.4724 Y2.5142
G1 Z-0.85 F30
G1 X16.9108 Y7.495 F25
G1 Z-0.25 F30
G1 X16.9546 Y7.993 F25
G1 Z-0.85 F30
G1 X17.3273 Y12.2263 F25
G1 X17.0236 Y12.557
G1 Z-0.25 F30
G1 X16.6855 Y12.9253 F25
G1 Z-0.85 F30
G1 X16.4223 Y13.2121 F25
G1 X15.3268 Y12.2108
G1 X14.9789 Y8.2582
G1 Z-0.25 F30
G1 X14.9351 Y7.7602 F25
G1 Z-0.85 F30
G1 X14.5648 Y3.553 F25
G1 X15.1227 Y2.9452
G1 Z-0.25 F30
G1 X15.4609 Y2.5769 F25
G1 Z-0.85 F30
G1 X15.9537 Y2.0401 F25
G1 X16.4724 Y2.5142
G0 Z0.3
G0 X10.876 Y15.6204
G1 Z-0.15 F30
G1 X11.2215 Y19.546 F25
G1 X11.2653 Y20.0441
G1 X11.5204 Y22.9417
G1 X10.6154 Y23.9275
G1 X10.2451 Y23.589
G1 X9.8761 Y23.2516
G1 X9.52 Y22.9262
G1 X9.0966 Y18.1166
G1 X9.0528 Y17.6186
G1 X8.8756 Y15.6049
G1 X9.7806 Y14.6192
G1 X10.286 Y15.0811
G1 X10.6551 Y15.4185
G1 X10.876 Y15.6204
G1 Z-0.3 F30
G1 X11.2215 Y19.546 F25
G1 Z-0.25 F30
G1 X11.2653 Y20.0441 F25
G1 Z-0.3 F30
G1 X11.5204 Y22.9417 F25
G1 X10.6154 Y23.9275
G1 X10.2451 Y23.589
G1 Z-0.25 F30
G1 X9.8761 Y23.2516 F25
G1 Z-0.3 F30
G1 X9.52 Y22.9262 F25
G1 X9.0966 Y18.1166
G1 Z-0.25 F30
G1 X9.0528 Y17.6186 F25
G1 Z-0.3 F30
G1 X8.8756 Y15.6049 F25
G1 X9.7806 Y14.6192
G1 X10.286 Y15.0811
G1 Z-0.25 F30
G1 X10.6551 Y15.4185 F25
G1 Z-0.3 F30
G1 X10.876 Y15.6204 F25
G1 Z-0.45 F30
G1 X11.2215 Y19.546 F25
G1 Z-0.25 F30
G1 X11.2653 Y20.0441 F25
G1 Z-0.45 F30
G1 X11.5204 Y22.9417 F25
G1 X10.6154 Y23.9275
G1 X10.2451 Y23.589
G1 Z-0.25 F30
G1 X9.8761 Y23.2516 F25
G1 Z-0.45 F30
G1 X9.52 Y22.9262 F25
G1 X9.0966 Y18.1166
G1 Z-0.25 F30
G1 X9.0528 Y17.6186 F25
G1 Z-0.45 F30
G1 X8.8756 Y15.6049 F25
G1 X9.7806 Y14.6192
G1 X10.286 Y15.0811
G1 Z-0.25 F30
G1 X10.6551 Y15.4185 F25
G1 Z-0.45 F30
G1 X10.876 Y15.6204 F25
G1 Z-0.6 F30
G1 X11.2215 Y19.546 F25
G1 Z-0.25 F30
G1 X11.2653 Y20.0441 F25
G1 Z-0.6 F30
G1 X11.5204 Y22.9417 F25
G1 X10.6154 Y23.9275
G1 X10.2451 Y23.589
G1 Z-0.25 F30
G1 X9.8761 Y23.2516 F25
G1 Z-0.6 F30
G1 X9.52 Y22.9262 F25
G1 X9.0966 Y18.1166
G1 Z-0.25 F30
G1 X9.0528 Y17.6186 F25
G1 Z-0.6 F30
G1 X8.8756 Y15.6049 F25
G1 X9.7806 Y14.6192
G1 X10.286 Y15.0811
G1 Z-0.25 F30
G1 X10.6551 Y15.4185 F25
G1 Z-0.6 F30
G1 X10.876 Y15.6204 F25
G1 Z-0.75 F30
G1 X11.2215 Y19.546 F25
G1 Z-0.25 F30
G1 X11.2653 Y20.0441 F25
G1 Z-0.75 F30
G1 X11.5204 Y22.9417 F25
G1 X10.6154 Y23.9275
G1 X10.2451 Y23.589
G1 Z-0.25 F30
G1 X9.8761 Y23.2516 F25
G1 Z-0.75 F30
G1 X9.52 Y22.9262 F25
G1 X9.0966 Y18.1166
G1 Z-0.25 F30
G1 X9.0528 Y17.6186 F25
G1 Z-0.75 F30
G1 X8.8756 Y15.6049 F25
G1 X9.7806 Y14.6192
G1 X10.286 Y15.0811
G1 Z-0.25 F30
G1 X10.6551 Y15.4185 F25
G1 Z-0.75 F30
G1 X10.876 Y15.6204 F25
G1 Z-0.85 F30
G1 X11.2215 Y19.546 F25
G1 Z-0.25 F30
G1 X11.2653 Y20.0441 F25
G1 Z-0.85 F30
G1 X11.5204 Y22.9417 F25
G1 X10.6154 Y23.9275
G1 X10.2451 Y23.589
G1 Z-0.25 F30
G1 X9.8761 Y23.2516 F25
G1 Z-0.85 F30
G1 X9.52 Y22.9262 F25
G1 X9.0966 Y18.1166
G1 Z-0.25 F30
G1 X9.0528 Y17.6186 F25
G1 Z-0.85 F30
G1 X8.8756 Y15.6049 F25
G1 X9.7806 Y14.6192
G1 X10.286 Y15.0811
G1 Z-0.25 F30
G1 X10.6551 Y15.4185 F25
G1 Z-0.85 F30
G1 X10.876 Y15.6204 F25
G0 Z0.3
G0 X9.9328 Y4.905
G1 Z-0.15 F30
G1 X10.3712 Y9.8858 F25
G1 X10.415 Y10.3838
G1 X10.5772 Y12.2263
G1 X9.6723 Y13.2121
G1 X9.4071 Y12.9697
G1 X9.038 Y12.6324
G1 X8.5768 Y12.2108
G1 X8.1535 Y7.4013
G1 X8.1097 Y6.9032
G1 X7.9324 Y4.8895
G1 X8.8374 Y3.9038
G1 X9.2077 Y4.2423
G1 X9.5767 Y4.5796
G1 X9.9328 Y4.905
G1 Z-0.3 F30
G1 X10.3712 Y9.8858 F25
G1 Z-0.25 F30
G1 X10.415 Y10.3838 F25
G1 Z-0.3 F30
G1 X10.5772 Y12.2263 F25
G1 X9.6723 Y13.2121
G1 X9.4071 Y12.9697
G1 Z-0.25 F30
G1 X9.038 Y12.6324 F25
G1 Z-0.3 F30
G1 X8.5768 Y12.2108 F25
G1 X8.1535 Y7.4013
G1 Z-0.25 F30
G1 X8.1097 Y6.9032 F25
G1 Z-0.3 F30
G1 X7.9324 Y4.8895 F25
G1 X8.8374 Y3.9038
G1 X9.2077 Y4.2423
G1 Z-0.25 F30
G1 X9.5767 Y4.5796 F25
G1 Z-0.3 F30
G1 X9.9328 Y4.905 F25
G1 Z-0.45 F30
G1 X10.3712 Y9.8858 F25
G1 Z-0.25 F30
G1 X10.415 Y10.3838 F25
G1 Z-0.45 F30
G1 X10.5772 Y12.2263 F25
G1 X9.6723 Y13.2121
G1 X9.4071 Y12.9697
G1 Z-0.25 F30
G1 X9.038 Y12.6324 F25
G1 Z-0.45 F30
G1 X8.5768 Y12.2108 F25
G1 X8.1535 Y7.4013
G1 Z-0.25 F30
G1 X8.1097 Y6.9032 F25
G1 Z-0.45 F30
G1 X7.9324 Y4.8895 F25
G1 X8.8374 Y3.9038
G1 X9.2077 Y4.2423
G1 Z-0.25 F30
G1 X9.5767 Y4.5796 F25
G1 Z-0.45 F30
G1 X9.9328 Y4.905 F25
G1 Z-0.6 F30
G1 X10.3712 Y9.8858 F25
G1 Z-0.25 F30
G1 X10.415 Y10.3838 F25
G1 Z-0.6 F30
G1 X10.5772 Y12.2263 F25
G1 X9.6723 Y13.2121
G1 X9.4071 Y12.9697
G1 Z-0.25 F30
G1 X9.038 Y12.6324 F25
G1 Z-0.6 F30
G1 X8.5768 Y12.2108 F25
G1 X8.1535 Y7.4013
G1 Z-0.25 F30
G1 X8.1097 Y6.9032 F25
G1 Z-0.6 F30
G1 X7.9324 Y4.8895 F25
G1 X8.8374 Y3.9038
G1 X9.2077 Y4.2423
G1 Z-0.25 F30
G1 X9.5767 Y4.5796 F25
G1 Z-0.6 F30
G1 X9.9328 Y4.905 F25
G1 Z-0.75 F30
G1 X10.3712 Y9.8858 F25
G1 Z-0.25 F30
G1 X10.415 Y10.3838 F25
G1 Z-0.75 F30
G1 X10.5772 Y12.2263 F25
G1 X9.6723 Y13.2121
G1 X9.4071 Y12.9697
G1 Z-0.25 F30
G1 X9.038 Y12.6324 F25
G1 Z-0.75 F30
G1 X8.5768 Y12.2108 F25
G1 X8.1535 Y7.4013
G1 Z-0.25 F30
G1 X8.1097 Y6.9032 F25
G1 Z-0.75 F30
G1 X7.9324 Y4.8895 F25
G1 X8.8374 Y3.9038
G1 X9.2077 Y4.2423
G1 Z-0.25 F30
G1 X9.5767 Y4.5796 F25
G1 Z-0.75 F30
G1 X9.9328 Y4.905 F25
G1 Z-0.85 F30
G1 X10.3712 Y9.8858 F25
G1 Z-0.25 F30
G1 X10.415 Y10.3838 F25
G1 Z-0.85 F30
G1 X10.5772 Y12.2263 F25
G1 X9.6723 Y13.2121
G1 X9.4071 Y12.9697
G1 Z-0.25 F30
G1 X9.038 Y12.6324 F25
G1 Z-0.85 F30
G1 X8.5768 Y12.2108 F25
G1 X8.1535 Y7.4013
G1 Z-0.25 F30
G1 X8.1097 Y6.9032 F25
G1 Z-0.85 F30
G1 X7.9324 Y4.8895 F25
G1 X8.8374 Y3.9038
G1 X9.2077 Y4.2423
G1 Z-0.25 F30
G1 X9.5767 Y4.5796 F25
G1 Z-0.85 F30
G1 X9.9328 Y4.905 F25
G0 Z0.3
G0 X4.2516 Y3.8524
G1 Z-0.15 F30
G1 X5.1938 Y5.2851 F25
G1 X5.4685 Y5.7029
G1 X7.2401 Y8.3967
G1 X7.3241 Y9.3513
G1 X7.368 Y9.8494
G1 X7.5509 Y11.9269
G1 X7.2753 Y11.9269
G1 X6.0627 Y10.083
G1 X5.7879 Y9.6652
G1 X4.4197 Y7.5846
G1 X4.0912 Y3.8524
G1 X4.2516 Y3.8524
G1 Z-0.3 F30
G1 X5.1938 Y5.2851 F25
G1 Z-0.25 F30
G1 X5.4685 Y5.7029 F25
G1 Z-0.3 F30
G1 X7.2401 Y8.3967 F25
G1 X7.3241 Y9.3513
G1 Z-0.25 F30
G1 X7.368 Y9.8494 F25
G1 Z-0.3 F30
G1 X7.5509 Y11.9269 F25
G1 X7.2753 Y11.9269
G1 X6.0627 Y10.083
G1 Z-0.25 F30
G1 X5.7879 Y9.6652 F25
G1 Z-0.3 F30
G1 X4.4197 Y7.5846 F25
G1 X4.0912 Y3.8524
G1 X4.2516 Y3.8524
G1 Z-0.45 F30
G1 X5.1938 Y5.2851 F25
G1 Z-0.25 F30
G1 X5.4685 Y5.7029 F25
G1 Z-0.45 F30
G1 X7.2401 Y8.3967 F25
G1 X7.3241 Y9.3513
G1 Z-0.25 F30
G1 X7.368 Y9.8494 F25
G1 Z-0.45 F30
G1 X7.5509 Y11.9269 F25
G1 X7.2753 Y11.9269
G1 X6.0627 Y10.083
G1 Z-0.25 F30
G1 X5.7879 Y9.6652 F25
G1 Z-0.45 F30
G1 X4.4197 Y7.5846 F25
G1 X4.0912 Y3.8524
G1 X4.2516 Y3.8524
G1 Z-0.6 F30
G1 X5.1938 Y5.2851 F25
G1 Z-0.25 F30
G1 X5.4685 Y5.7029 F25
G1 Z-0.6 F30
G1 X7.2401 Y8.3967 F25
G1 X7.3241 Y9.3513
G1 Z-0.25 F30
G1 X7.368 Y9.8494 F25
G1 Z-0.6 F30
G1 X7.5509 Y11.9269 F25
G1 X7.2753 Y11.9269
G1 X6.0627 Y10.083
G1 Z-0.25 F30
G1 X5.7879 Y9.6652 F25
G1 Z-0.6 F30
G1 X4.4197 Y7.5846 F25
G1 X4.0912 Y3.8524
G1 X4.2516 Y3.8524
G1 Z-0.75 F30
G1 X5.1938 Y5.2851 F25
G1 Z-0.25 F30
G1 X5.4685 Y5.7029 F25
G1 Z-0.75 F30
G1 X7.2401 Y8.3967 F25
G1 X7.3241 Y9.3513
G1 Z-0.25 F30
G1 X7.368 Y9.8494 F25
G1 Z-0.75 F30
G1 X7.5509 Y11.9269 F25
G1 X7.2753 Y11.9269
G1 X6.0627 Y10.083
G1 Z-0.25 F30
G1 X5.7879 Y9.6652 F25
G1 Z-0.75 F30
G1 X4.4197 Y7.5846 F25
G1 X4.0912 Y3.8524
G1 X4.2516 Y3.8524
G1 Z-0.85 F30
G1 X5.1938 Y5.2851 F25
G1 Z-0.25 F30
G1 X5.4685 Y5.7029 F25
G1 Z-0.85 F30
G1 X7.2401 Y8.3967 F25
G1 X7.3241 Y9.3513
G1 Z-0.25 F30
G1 X7.368 Y9.8494 F25
G1 Z-0.85 F30
G1 X7.5509 Y11.9269 F25
G1 X7.2753 Y11.9269
G1 X6.0627 Y10.083
G1 Z-0.25 F30
G1 X5.7879 Y9.6652 F25
G1 Z-0.85 F30
G1 X4.4197 Y7.5846 F25
G1 X4.0912 Y3.8524
G1 X4.2516 Y3.8524
G0 Z0.3
G0 X15.2012 Y23.9789
G1 Z-0.15 F30
G1 X13.4013 Y21.242 F25
G1 X13.1266 Y20.8243
G1 X12.2126 Y19.4345
G1 X11.9019 Y15.9043
G1 X12.1774 Y15.9043
G1 X12.8655 Y16.9506
G1 X13.1402 Y17.3683
G1 X15.0332 Y20.2467
G1 X15.196 Y22.0971
G1 X15.2399 Y22.5952
G1 X15.3617 Y23.9789
G1 X15.2012 Y23.9789
G1 Z-0.3 F30
G1 X13.4013 Y21.242 F25
G1 Z-0.25 F30
G1 X13.1266 Y20.8243 F25
G1 Z-0.3 F30
G1 X12.2126 Y19.4345 F25
G1 X11.9019 Y15.9043
G1 X12.1774 Y15.9043
G1 X12.8655 Y16.9506
G1 Z-0.25 F30
G1 X13.1402 Y17.3683 F25
G1 Z-0.3 F30
G1 X15.0332 Y20.2467 F25
G1 X15.196 Y22.0971
G1 Z-0.25 F30
G1 X15.2399 Y22.5952 F25
G1 Z-0.3 F30
G1 X15.3617 Y23.9789 F25
G1 X15.2012 Y23.9789
G1 Z-0.45 F30
G1 X13.4013 Y21.242 F25
G1 Z-0.25 F30
G1 X13.1266 Y20.8243 F25
G1 Z-0.45 F30
G1 X12.2126 Y19.4345 F25
G1 X11.9019 Y15.9043
G1 X12.1774 Y15.9043
G1 X12.8655 Y16.9506
G1 Z-0.25 F30
G1 X13.1402 Y17.3683 F25
G1 Z-0.45 F30
G1 X15.0332 Y20.2467 F25
G1 X15.196 Y22.0971
G1 Z-0.25 F30
G1 X15.2399 Y22.5952 F25
G1 Z-0.45 F30
G1 X15.3617 Y23.9789 F25
G1 X15.2012 Y23.9789
G1 Z-0.6 F30
G1 X13.4013 Y21.242 F25
G1 Z-0.25 F30
G1 X13.1266 Y20.8243 F25
G1 Z-0.6 F30
G1 X12.2126 Y19.4345 F25
G1 X11.9019 Y15.9043
G1 X12.1774 Y15.9043
G1 X12.8655 Y16.9506
G1 Z-0.25 F30
G1 X13.1402 Y17.3683 F25
G1 Z-0.6 F30
G1 X15.0332 Y20.2467 F25
G1 X15.196 Y22.0971
G1 Z-0.25 F30
G1 X15.2399 Y22.5952 F25
G1 Z-0.6 F30
G1 X15.3617 Y23.9789 F25
G1 X15.2012 Y23.9789
G1 Z-0.75 F30
G1 X13.4013 Y21.242 F25
G1 Z-0.25 F30
G1 X13.1266 Y20.8243 F25
G1 Z-0.75 F30
G1 X12.2126 Y19.4345 F25
G1 X11.9019 Y15.9043
G1 X12.1774 Y15.9043
G1 X12.8655 Y16.9506
G1 Z-0.25 F30
G1 X13.1402 Y17.3683 F25
G1 Z-0.75 F30
G1 X15.0332 Y20.2467 F25
G1 X15.196 Y22.0971
G1 Z-0.25 F30
G1 X15.2399 Y22.5952 F25
G1 Z-0.75 F30
G1 X15.3617 Y23.9789 F25
G1 X15.2012 Y23.9789
G1 Z-0.85 F30
G1 X13.4013 Y21.242 F25
G1 Z-0.25 F30
G1 X13.1266 Y20.8243 F25
G1 Z-0.85 F30
G1 X12.2126 Y19.4345 F25
G1 X11.9019 Y15.9043
G1 X12.1774 Y15.9043
G1 X12.8655 Y16.9506
G1 Z-0.25 F30
G1 X13.1402 Y17.3683 F25
G1 Z-0.85 F30
G1 X15.0332 Y20.2467 F25
G1 X15.196 Y22.0971
G1 Z-0.25 F30
G1 X15.2399 Y22.5952 F25
G1 Z-0.85 F30
G1 X15.3617 Y23.9789 F25
G1 X15.2012 Y23.9789
G0 Z0.3
G0 X8.2134 Y19.4536
G1 Z-0.15 F30
G1 X6.0339 Y23.9789 F25
G1 X5.8626 Y23.9789
G1 X5.7394 Y22.5789
G1 X5.6956 Y22.0808
G1 X5.5324 Y20.2276
G1 X6.3037 Y18.6262
G1 X6.5206 Y18.1758
G1 X7.6146 Y15.9043
G1 X7.9009 Y15.9043
G1 X8.0417 Y17.5032
G1 X8.0855 Y18.0013
G1 X8.2134 Y19.4536
G1 Z-0.3 F30
G1 X6.0339 Y23.9789 F25
G1 X5.8626 Y23.9789
G1 X5.7394 Y22.5789
G1 Z-0.25 F30
G1 X5.6956 Y22.0808 F25
G1 Z-0.3 F30
G1 X5.5324 Y20.2276 F25
G1 X6.3037 Y18.6262
G1 Z-0.25 F30
G1 X6.5206 Y18.1758 F25
G1 Z-0.3 F30
G1 X7.6146 Y15.9043 F25
G1 X7.9009 Y15.9043
G1 X8.0417 Y17.5032
G1 Z-0.25 F30
G1 X8.0855 Y18.0013 F25
G1 Z-0.3 F30
G1 X8.2134 Y19.4536 F25
G1 Z-0.45 F30
G1 X6.0339 Y23.9789 F25
G1 X5.8626 Y23.9789
G1 X5.7394 Y22.5789
G1 Z-0.25 F30
G1 X5.6956 Y22.0808 F25
G1 Z-0.45 F30
G1 X5.5324 Y20.2276 F25
G1 X6.3037 Y18.6262
G1 Z-0.25 F30
G1 X6.5206 Y18.1758 F25
G1 Z-0.45 F30
G1 X7.6146 Y15.9043 F25
G1 X7.9009 Y15.9043
G1 X8.0417 Y17.5032
G1 Z-0.25 F30
G1 X8.0855 Y18.0013 F25
G1 Z-0.45 F30
G1 X8.2134 Y19.4536 F25
G1 Z-0.6 F30
G1 X6.0339 Y23.9789 F25
G1 X5.8626 Y23.9789
G1 X5.7394 Y22.5789
G1 Z-0.25 F30
G1 X5.6956 Y22.0808 F25
G1 Z-0.6 F30
G1 X5.5324 Y20.2276 F25
G1 X6.3037 Y18.6262
G1 Z-0.25 F30
G1 X6.5206 Y18.1758 F25
G1 Z-0.6 F30
G1 X7.6146 Y15.9043 F25
G1 X7.9009 Y15.9043
G1 X8.0417 Y17.5032
G1 Z-0.25 F30
G1 X8.0855 Y18.0013 F25
G1 Z-0.6 F30
G1 X8.2134 Y19.4536 F25
G1 Z-0.75 F30
G1 X6.0339 Y23.9789 F25
G1 X5.8626 Y23.9789
G1 X5.7394 Y22.5789
G1 Z-0.25 F30
G1 X5.6956 Y22.0808 F25
G1 Z-0.75 F30
G1 X5.5324 Y20.2276 F25
G1 X6.3037 Y18.6262
G1 Z-0.25 F30
G1 X6.5206 Y18.1758 F25
G1 Z-0.75 F30
G1 X7.6146 Y15.9043 F25
G1 X7.9009 Y15.9043
G1 X8.0417 Y17.5032
G1 Z-0.25 F30
G1 X8.0855 Y18.0013 F25
G1 Z-0.75 F30
G1 X8.2134 Y19.4536 F25
G1 Z-0.85 F30
G1 X6.0339 Y23.9789 F25
G1 X5.8626 Y23.9789
G1 X5.7394 Y22.5789
G1 Z-0.25 F30
G1 X5.6956 Y22.0808 F25
G1 Z-0.85 F30
G1 X5.5324 Y20.2276 F25
G1 X6.3037 Y18.6262
G1 Z-0.25 F30
G1 X6.5206 Y18.1758 F25
G1 Z-0.85 F30
G1 X7.6146 Y15.9043 F25
G1 X7.9009 Y15.9043
G1 X8.0417 Y17.5032
G1 Z-0.25 F30
G1 X8.0855 Y18.0013 F25
G1 Z-0.85 F30
G1 X8.2134 Y19.4536 F25
G0 Z0.3
G0 X11.2395 Y8.3777
G1 Z-0.15 F30
G1 X11.7957 Y7.2227 F25
G1 X12.0126 Y6.7723
G1 X13.4188 Y3.8524
G1 X13.5902 Y3.8524
G1 X13.7273 Y5.4102
G1 X13.7711 Y5.9083
G1 X13.9203 Y7.6037
G1 X12.9352 Y9.6492
G1 X12.7183 Y10.0997
G1 X11.8383 Y11.9269
G1 X11.5518 Y11.9269
G1 X11.2395 Y8.3777
G1 Z-0.3 F30
G1 X11.7957 Y7.2227 F25
G1 Z-0.25 F30
G1 X12.0126 Y6.7723 F25
G1 Z-0.3 F30
G1 X13.4188 Y3.8524 F25
G1 X13.5902 Y3.8524
G1 X13.7273 Y5.4102
G1 Z-0.25 F30
G1 X13.7711 Y5.9083 F25
G1 Z-0.3 F30
G1 X13.9203 Y7.6037 F25
G1 X12.9352 Y9.6492
G1 Z-0.25 F30
G1 X12.7183 Y10.0997 F25
G1 Z-0.3 F30
G1 X11.8383 Y11.9269 F25
G1 X11.5518 Y11.9269
G1 X11.2395 Y8.3777
G1 Z-0.45 F30
G1 X11.7957 Y7.2227 F25
G1 Z-0.25 F30
G1 X12.0126 Y6.7723 F25
G1 Z-0.45 F30
G1 X13.4188 Y3.8524 F25
G1 X13.5902 Y3.8524
G1 X13.7273 Y5.4102
G1 Z-0.25 F30
G1 X13.7711 Y5.9083 F25
G1 Z-0.45 F30
G1 X13.9203 Y7.6037 F25
G1 X12.9352 Y9.6492
G1 Z-0.25 F30
G1 X12.7183 Y10.0997 F25
G1 Z-0.45 F30
G1 X11.8383 Y11.9269 F25
G1 X11.5518 Y11.9269
G1 X11.2395 Y8.3777
G1 Z-0.6 F30
G1 X11.7957 Y7.2227 F25
G1 Z-0.25 F30
G1 X12.0126 Y6.7723 F25
G1 Z-0.6 F30
G1 X13.4188 Y3.8524 F25
G1 X13.5902 Y3.8524
G1 X13.7273 Y5.4102
G1 Z-0.25 F30
G1 X13.7711 Y5.9083 F25
G1 Z-0.6 F30
G1 X13.9203 Y7.6037 F25
G1 X12.9352 Y9.6492
G1 Z-0.25 F30
G1 X12.7183 Y10.0997 F25
G1 Z-0.6 F30
G1 X11.8383 Y11.9269 F25
G1 X11.5518 Y11.9269
G1 X11.2395 Y8.3777
G1 Z-0.75 F30
G1 X11.7957 Y7.2227 F25
G1 Z-0.25 F30
G1 X12.0126 Y6.7723 F25
G1 Z-0.75 F30
G1 X13.4188 Y3.8524 F25
G1 X13.5902 Y3.8524
G1 X13.7273 Y5.4102
G1 Z-0.25 F30
G1 X13.7711 Y5.9083 F25
G1 Z-0.75 F30
G1 X13.9203 Y7.6037 F25
G1 X12.9352 Y9.6492
G1 Z-0.25 F30
G1 X12.7183 Y10.0997 F25
G1 Z-0.75 F30
G1 X11.8383 Y11.9269 F25
G1 X11.5518 Y11.9269
G1 X11.2395 Y8.3777
G1 Z-0.85 F30
G1 X11.7957 Y7.2227 F25
G1 Z-0.25 F30
G1 X12.0126 Y6.7723 F25
G1 Z-0.85 F30
G1 X13.4188 Y3.8524 F25
G1 X13.5902 Y3.8524
G1 X13.7273 Y5.4102
G1 Z-0.25 F30
G1 X13.7711 Y5.9083 F25
G1 Z-0.85 F30
G1 X13.9203 Y7.6037 F25
G1 X12.9352 Y9.6492
G1 Z-0.25 F30
G1 X12.7183 Y10.0997 F25
G1 Z-0.85 F30
G1 X11.8383 Y11.9269 F25
G1 X11.5518 Y11.9269
G1 X11.2395 Y8.3777
G0 Z0.3
G0 X14.8645 Y14.9088
G1 Z-0.15 F30
G1 X13.9446 Y14.9088 F25
G1 X13.4446 Y14.9088
G1 X11.5286 Y14.9088
G1 X10.4335 Y13.9079
G1 X10.7444 Y13.5692
G1 X11.0826 Y13.2009
G1 X11.3382 Y12.9224
G1 X14.6741 Y12.9224
G1 X15.7693 Y13.9234
G1 X14.8645 Y14.9088
G1 Z-0.3 F30
G1 X13.9446 Y14.9088 F25
G1 Z-0.25 F30
G1 X13.4446 Y14.9088 F25
G1 Z-0.3 F30
G1 X11.5286 Y14.9088 F25
G1 X10.4335 Y13.9079
G1 X10.7444 Y13.5692
G1 Z-0.25 F30
G1 X11.0826 Y13.2009 F25
G1 Z-0.3 F30
G1 X11.3382 Y12.9224 F25
G1 X14.6741 Y12.9224
G1 X15.7693 Y13.9234
G1 X14.8645 Y14.9088
G1 Z-0.45 F30
G1 X13.9446 Y14.9088 F25
G1 Z-0.25 F30
G1 X13.4446 Y14.9088 F25
G1 Z-0.45 F30
G1 X11.5286 Y14.9088 F25
G1 X10.4335 Y13.9079
G1 X10.7444 Y13.5692
G1 Z-0.25 F30
G1 X11.0826 Y13.2009 F25
G1 Z-0.45 F30
G1 X11.3382 Y12.9224 F25
G1 X14.6741 Y12.9224
G1 X15.7693 Y13.9234
G1 X14.8645 Y14.9088
G1 Z-0.6 F30
G1 X13.9446 Y14.9088 F25
G1 Z-0.25 F30
G1 X13.4446 Y14.9088 F25
G1 Z-0.6 F30
G1 X11.5286 Y14.9088 F25
G1 X10.4335 Y13.9079
G1 X10.7444 Y13.5692
G1 Z-0.25 F30
G1 X11.0826 Y13.2009 F25
G1 Z-0.6 F30
G1 X11.3382 Y12.9224 F25
G1 X14.6741 Y12.9224
G1 X15.7693 Y13.9234
G1 X14.8645 Y14.9088
G1 Z-0.75 F30
G1 X13.9446 Y14.9088 F25
G1 Z-0.25 F30
G1 X13.4446 Y14.9088 F25
G1 Z-0.75 F30
G1 X11.5286 Y14.9088 F25
G1 X10.4335 Y13.9079
G1 X10.7444 Y13.5692
G1 Z-0.25 F30
G1 X11.0826 Y13.2009 F25
G1 Z-0.75 F30
G1 X11.3382 Y12.9224 F25
G1 X14.6741 Y12.9224
G1 X15.7693 Y13.9234
G1 X14.8645 Y14.9088
G1 Z-0.85 F30
G1 X13.9446 Y14.9088 F25
G1 Z-0.25 F30
G1 X13.4446 Y14.9088 F25
G1 Z-0.85 F30
G1 X11.5286 Y14.9088 F25
G1 X10.4335 Y13.9079
G1 X10.7444 Y13.5692
G1 Z-0.25 F30
G1 X11.0826 Y13.2009 F25
G1 Z-0.85 F30
G1 X11.3382 Y12.9224 F25
G1 X14.6741 Y12.9224
G1 X15.7693 Y13.9234
G1 X14.8645 Y14.9088
G0 Z0.3
G0 X4.5882 Y12.9224
G1 Z-0.15 F30
G1 X5.1756 Y12.9224 F25
G1 X5.6756 Y12.9224
G1 X7.9241 Y12.9224
G1 X9.0192 Y13.9234
G1 X8.75 Y14.2167
G1 X8.4119 Y14.585
G1 X8.1146 Y14.9088
G1 X4.7787 Y14.9088
G1 X3.6836 Y13.9079
G1 X4.5882 Y12.9224
G1 Z-0.3 F30
G1 X5.1756 Y12.9224 F25
G1 Z-0.25 F30
G1 X5.6756 Y12.9224 F25
G1 Z-0.3 F30
G1 X7.9241 Y12.9224 F25
G1 X9.0192 Y13.9234
G1 X8.75 Y14.2167
G1 Z-0.25 F30
G1 X8.4119 Y14.585 F25
G1 Z-0.3 F30
G1 X8.1146 Y14.9088 F25
G1 X4.7787 Y14.9088
G1 X3.6836 Y13.9079
G1 X4.5882 Y12.9224
G1 Z-0.45 F30
G1 X5.1756 Y12.9224 F25
G1 Z-0.25 F30
G1 X5.6756 Y12.9224 F25
G1 Z-0.45 F30
G1 X7.9241 Y12.9224 F25
G1 X9.0192 Y13.9234
G1 X8.75 Y14.2167
G1 Z-0.25 F30
G1 X8.4119 Y14.585 F25
G1 Z-0.45 F30
G1 X8.1146 Y14.9088 F25
G1 X4.7787 Y14.9088
G1 X3.6836 Y13.9079
G1 X4.5882 Y12.9224
G1 Z-0.6 F30
G1 X5.1756 Y12.9224 F25
G1 Z-0.25 F30
G1 X5.6756 Y12.9224 F25
G1 Z-0.6 F30
G1 X7.9241 Y12.9224 F25
G1 X9.0192 Y13.9234
G1 X8.75 Y14.2167
G1 Z-0.25 F30
G1 X8.4119 Y14.585 F25
G1 Z-0.6 F30
G1 X8.1146 Y14.9088 F25
G1 X4.7787 Y14.9088
G1 X3.6836 Y13.9079
G1 X4.5882 Y12.9224
G1 Z-0.75 F30
G1 X5.1756 Y12.9224 F25
G1 Z-0.25 F30
G1 X5.6756 Y12.9224 F25
G1 Z-0.75 F30
G1 X7.9241 Y12.9224 F25
G1 X9.0192 Y13.9234
G1 X8.75 Y14.2167
G1 Z-0.25 F30
G1 X8.4119 Y14.585 F25
G1 Z-0.75 F30
G1 X8.1146 Y14.9088 F25
G1 X4.7787 Y14.9088
G1 X3.6836 Y13.9079
G1 X4.5882 Y12.9224
G1 Z-0.85 F30
G1 X5.1756 Y12.9224 F25
G1 Z-0.25 F30
G1 X5.6756 Y12.9224 F25
G1 Z-0.85 F30
G1 X7.9241 Y12.9224 F25
G1 X9.0192 Y13.9234
G1 X8.75 Y14.2167
G1 Z-0.25 F30
G1 X8.4119 Y14.585 F25
G1 Z-0.85 F30
G1 X8.1146 Y14.9088 F25
G1 X4.7787 Y14.9088
G1 X3.6836 Y13.9079
G1 X4.5882 Y12.9224

(empty)
G0 Z0.3
G0 X12.3265 Y21.4729
G1 Z-0.15 F30
G1 X13.9745 Y23.9789 F25
G1 X13.414 Y23.9789
G1 X12.914 Y23.9789
G1 X11.9026 Y23.9789
G1 X12.2529 Y23.5973
G1 X12.4533 Y23.379
G2 X12.4863 Y23.2945 I-0.0921 J-0.0845
G2 X12.4858 Y23.2835 I-0.125 J0
G1 X12.4277 Y22.624
G1 X12.3839 Y22.1259
G1 X12.3265 Y21.4729
G1 Z-0.3 F30
G1 X13.9745 Y23.9789 F25
G1 X13.414 Y23.9789
G1 Z-0.25 F30
G1 X12.914 Y23.9789 F25
G1 Z-0.3 F30
G1 X11.9026 Y23.9789 F25
G1 X12.2529 Y23.5973
G1 X12.4533 Y23.379
G2 X12.4863 Y23.2945 I-0.0921 J-0.0845
G2 X12.4858 Y23.2835 I-0.125 J0
G1 X12.4277 Y22.624
G1 Z-0.25 F30
G1 X12.3839 Y22.1259 F25
G1 Z-0.3 F30
G1 X12.3265 Y21.4729 F25
G1 Z-0.45 F30
G1 X13.9745 Y23.9789 F25
G1 X13.414 Y23.9789
G1 Z-0.25 F30
G1 X12.914 Y23.9789 F25
G1 Z-0.45 F30
G1 X11.9026 Y23.9789 F25
G1 X12.2529 Y23.5973
G1 X12.4533 Y23.379
G2 X12.4863 Y23.2945 I-0.0921 J-0.0845
G2 X12.4858 Y23.2835 I-0.125 J0
G1 X12.4277 Y22.624
G1 Z-0.25 F30
G1 X12.3839 Y22.1259 F25
G1 Z-0.45 F30
G1 X12.3265 Y21.4729 F25
G1 Z-0.6 F30
G1 X13.9745 Y23.9789 F25
G1 X13.414 Y23.9789
G1 Z-0.25 F30
G1 X12.914 Y23.9789 F25
G1 Z-0.6 F30
G1 X11.9026 Y23.9789 F25
G1 X12.2529 Y23.5973
G1 X12.4533 Y23.379
G2 X12.4863 Y23.2945 I-0.0921 J-0.0845
G2 X12.4858 Y23.2835 I-0.125 J0
G1 X12.4277 Y22.624
G1 Z-0.25 F30
G1 X12.3839 Y22.1259 F25
G1 Z-0.6 F30
G1 X12.3265 Y21.4729 F25
G1 Z-0.75 F30
G1 X13.9745 Y23.9789 F25
G1 X13.414 Y23.9789
G1 Z-0.25 F30
G1 X12.914 Y23.9789 F25
G1 Z-0.75 F30
G1 X11.9026 Y23.9789 F25
G1 X12.2529 Y23.5973
G1 X12.4533 Y23.379
G2 X12.4863 Y23.2945 I-0.0921 J-0.0845
G2 X12.4858 Y23.2835 I-0.125 J0
G1 X12.4277 Y22.624
G1 Z-0.25 F30
G1 X12.3839 Y22.1259 F25
G1 Z-0.75 F30
G1 X12.3265 Y21.4729 F25
G1 Z-0.85 F30
G1 X13.9745 Y23.9789 F25
G1 X13.414 Y23.9789
G1 Z-0.25 F30
G1 X12.914 Y23.9789 F25
G1 Z-0.85 F30
G1 X11.9026 Y23.9789 F25
G1 X12.2529 Y23.5973
G1 X12.4533 Y23.379
G2 X12.4863 Y23.2945 I-0.0921 J-0.0845
G2 X12.4858 Y23.2835 I-0.125 J0
G1 X12.4277 Y22.624
G1 Z-0.25 F30
G1 X12.3839 Y22.1259 F25
G1 Z-0.85 F30
G1 X12.3265 Y21.4729 F25
G0 Z0.3
G0 X6.9951 Y6.3584
G1 Z-0.15 F30
G1 X5.3471 Y3.8524 F25
G1 X5.8841 Y3.8524
G1 X6.3841 Y3.8524
G1 X7.4189 Y3.8524
G1 X6.8682 Y4.4522
G2 X6.8352 Y4.5368 I0.0921 J0.0845
G2 X6.8357 Y4.5477 I0.125 J0
G1 X6.8931 Y5.1994
G1 X6.9369 Y5.6975
G1 X6.9951 Y6.3584
G1 Z-0.3 F30
G1 X5.3471 Y3.8524 F25
G1 X5.8841 Y3.8524
G1 Z-0.25 F30
G1 X6.3841 Y3.8524 F25
G1 Z-0.3 F30
G1 X7.4189 Y3.8524 F25
G1 X6.8682 Y4.4522
G2 X6.8352 Y4.5368 I0.0921 J0.0845
G2 X6.8357 Y4.5477 I0.125 J0
G1 X6.8931 Y5.1994
G1 Z-0.25 F30
G1 X6.9369 Y5.6975 F25
G1 Z-0.3 F30
G1 X6.9951 Y6.3584 F25
G1 Z-0.45 F30
G1 X5.3471 Y3.8524 F25
G1 X5.8841 Y3.8524
G1 Z-0.25 F30
G1 X6.3841 Y3.8524 F25
G1 Z-0.45 F30
G1 X7.4189 Y3.8524 F25
G1 X6.8682 Y4.4522
G2 X6.8352 Y4.5368 I0.0921 J0.0845
G2 X6.8357 Y4.5477 I0.125 J0
G1 X6.8931 Y5.1994
G1 Z-0.25 F30
G1 X6.9369 Y5.6975 F25
G1 Z-0.45 F30
G1 X6.9951 Y6.3584 F25
G1 Z-0.6 F30
G1 X5.3471 Y3.8524 F25
G1 X5.8841 Y3.8524
G1 Z-0.25 F30
G1 X6.3841 Y3.8524 F25
G1 Z-0.6 F30
G1 X7.4189 Y3.8524 F25
G1 X6.8682 Y4.4522
G2 X6.8352 Y4.5368 I0.0921 J0.0845
G2 X6.8357 Y4.5477 I0.125 J0
G1 X6.8931 Y5.1994
G1 Z-0.25 F30
G1 X6.9369 Y5.6975 F25
G1 Z-0.6 F30
G1 X6.9951 Y6.3584 F25
G1 Z-0.75 F30
G1 X5.3471 Y3.8524 F25
G1 X5.8841 Y3.8524
G1 Z-0.25 F30
G1 X6.3841 Y3.8524 F25
G1 Z-0.75 F30
G1 X7.4189 Y3.8524 F25
G1 X6.8682 Y4.4522
G2 X6.8352 Y4.5368 I0.0921 J0.0845
G2 X6.8357 Y4.5477 I0.125 J0
G1 X6.8931 Y5.1994
G1 Z-0.25 F30
G1 X6.9369 Y5.6975 F25
G1 Z-0.75 F30
G1 X6.9951 Y6.3584 F25
G1 Z-0.85 F30
G1 X5.3471 Y3.8524 F25
G1 X5.8841 Y3.8524
G1 Z-0.25 F30
G1 X6.3841 Y3.8524 F25
G1 Z-0.85 F30
G1 X7.4189 Y3.8524 F25
G1 X6.8682 Y4.4522
G2 X6.8352 Y4.5368 I0.0921 J0.0845
G2 X6.8357 Y4.5477 I0.125 J0
G1 X6.8931 Y5.1994
G1 Z-0.25 F30
G1 X6.9369 Y5.6975 F25
G1 Z-0.85 F30
G1 X6.9951 Y6.3584 F25
G0 Z0.3
G0 X7.1077 Y23.9789
G1 Z-0.15 F30
G1 X8.3238 Y21.4537 F25
G1 X8.3782 Y22.0711
G1 X8.422 Y22.5692
G1 X8.4868 Y23.3054
G2 X8.527 Y23.3867 I0.1245 J-0.011
G1 X9.1748 Y23.9789
G1 X8.1508 Y23.9789
G1 X7.6508 Y23.9789
G1 X7.1077 Y23.9789
G1 Z-0.3 F30
G1 X8.3238 Y21.4537 F25
G1 X8.3782 Y22.0711
G1 Z-0.25 F30
G1 X8.422 Y22.5692 F25
G1 Z-0.3 F30
G1 X8.4868 Y23.3054 F25
G2 X8.527 Y23.3867 I0.1245 J-0.011
G1 X9.1748 Y23.9789
G1 X8.1508 Y23.9789
G1 Z-0.25 F30
G1 X7.6508 Y23.9789 F25
G1 Z-0.3 F30
G1 X7.1077 Y23.9789 F25
G1 Z-0.45 F30
G1 X8.3238 Y21.4537 F25
G1 X8.3782 Y22.0711
G1 Z-0.25 F30
G1 X8.422 Y22.5692 F25
G1 Z-0.45 F30
G1 X8.4868 Y23.3054 F25
G2 X8.527 Y23.3867 I0.1245 J-0.011
G1 X9.1748 Y23.9789
G1 X8.1508 Y23.9789
G1 Z-0.25 F30
G1 X7.6508 Y23.9789 F25
G1 Z-0.45 F30
G1 X7.1077 Y23.9789 F25
G1 Z-0.6 F30
G1 X8.3238 Y21.4537 F25
G1 X8.3782 Y22.0711
G1 Z-0.25 F30
G1 X8.422 Y22.5692 F25
G1 Z-0.6 F30
G1 X8.4868 Y23.3054 F25
G2 X8.527 Y23.3867 I0.1245 J-0.011
G1 X9.1748 Y23.9789
G1 X8.1508 Y23.9789
G1 Z-0.25 F30
G1 X7.6508 Y23.9789 F25
G1 Z-0.6 F30
G1 X7.1077 Y23.9789 F25
G1 Z-0.75 F30
G1 X8.3238 Y21.4537 F25
G1 X8.3782 Y22.0711
G1 Z-0.25 F30
G1 X8.422 Y22.5692 F25
G1 Z-0.75 F30
G1 X8.4868 Y23.3054 F25
G2 X8.527 Y23.3867 I0.1245 J-0.011
G1 X9.1748 Y23.9789
G1 X8.1508 Y23.9789
G1 Z-0.25 F30
G1 X7.6508 Y23.9789 F25
G1 Z-0.75 F30
G1 X7.1077 Y23.9789 F25
G1 Z-0.85 F30
G1 X8.3238 Y21.4537 F25
G1 X8.3782 Y22.0711
G1 Z-0.25 F30
G1 X8.422 Y22.5692 F25
G1 Z-0.85 F30
G1 X8.4868 Y23.3054 F25
G2 X8.527 Y23.3867 I0.1245 J-0.011
G1 X9.1748 Y23.9789
G1 X8.1508 Y23.9789
G1 Z-0.25 F30
G1 X7.6508 Y23.9789 F25
G1 Z-0.85 F30
G1 X7.1077 Y23.9789 F25
G0 Z0.3
G0 X12.2138 Y3.8525
G1 Z-0.15 F30
G1 X10.9977 Y6.3775 F25
G1 X10.9244 Y5.5454
G1 X10.8806 Y5.0473
G1 X10.8618 Y4.8348
G1 X10.8348 Y4.5259
G2 X10.7946 Y4.4446 I-0.1245 J0.0109
G1 X10.1468 Y3.8525
G1 X11.1554 Y3.8525
G1 X11.6554 Y3.8525
G1 X12.2138 Y3.8525
G1 Z-0.3 F30
G1 X10.9977 Y6.3775 F25
G1 X10.9244 Y5.5454
G1 Z-0.25 F30
G1 X10.8806 Y5.0473 F25
G1 Z-0.3 F30
G1 X10.8618 Y4.8348 F25
G1 X10.8348 Y4.5259
G2 X10.7946 Y4.4446 I-0.1245 J0.0109
G1 X10.1468 Y3.8525
G1 X11.1554 Y3.8525
G1 Z-0.25 F30
G1 X11.6554 Y3.8525 F25
G1 Z-0.3 F30
G1 X12.2138 Y3.8525 F25
G1 Z-0.45 F30
G1 X10.9977 Y6.3775 F25
G1 X10.9244 Y5.5454
G1 Z-0.25 F30
G1 X10.8806 Y5.0473 F25
G1 Z-0.45 F30
G1 X10.8618 Y4.8348 F25
G1 X10.8348 Y4.5259
G2 X10.7946 Y4.4446 I-0.1245 J0.0109
G1 X10.1468 Y3.8525
G1 X11.1554 Y3.8525
G1 Z-0.25 F30
G1 X11.6554 Y3.8525 F25
G1 Z-0.45 F30
G1 X12.2138 Y3.8525 F25
G1 Z-0.6 F30
G1 X10.9977 Y6.3775 F25
G1 X10.9244 Y5.5454
G1 Z-0.25 F30
G1 X10.8806 Y5.0473 F25
G1 Z-0.6 F30
G1 X10.8618 Y4.8348 F25
G1 X10.8348 Y4.5259
G2 X10.7946 Y4.4446 I-0.1245 J0.0109
G1 X10.1468 Y3.8525
G1 X11.1554 Y3.8525
G1 Z-0.25 F30
G1 X11.6554 Y3.8525 F25
G1 Z-0.6 F30
G1 X12.2138 Y3.8525 F25
G1 Z-0.75 F30
G1 X10.9977 Y6.3775 F25
G1 X10.9244 Y5.5454
G1 Z-0.25 F30
G1 X10.8806 Y5.0473 F25
G1 Z-0.75 F30
G1 X10.8618 Y4.8348 F25
G1 X10.8348 Y4.5259
G2 X10.7946 Y4.4446 I-0.1245 J0.0109
G1 X10.1468 Y3.8525
G1 X11.1554 Y3.8525
G1 Z-0.25 F30
G1 X11.6554 Y3.8525 F25
G1 Z-0.75 F30
G1 X12.2138 Y3.8525 F25
G1 Z-0.85 F30
G1 X10.9977 Y6.3775 F25
G1 X10.9244 Y5.5454
G1 Z-0.25 F30
G1 X10.8806 Y5.0473 F25
G1 Z-0.85 F30
G1 X10.8618 Y4.8348 F25
G1 X10.8348 Y4.5259
G2 X10.7946 Y4.4446 I-0.1245 J0.0109
G1 X10.1468 Y3.8525
G1 X11.1554 Y3.8525
G1 Z-0.25 F30
G1 X11.6554 Y3.8525 F25
G1 Z-0.85 F30
G1 X12.2138 Y3.8525 F25
G0 Z0.3
G0 X4.5334 Y9.623
G1 Z-0.15 F30
G1 X5.0905 Y10.47 F25
G1 X5.3652 Y10.8878
G1 X6.0486 Y11.9269
G1 X5.6158 Y11.9269
G1 X5.1158 Y11.9269
G1 X4.7363 Y11.9269
G1 X4.5334 Y9.623
G1 Z-0.3 F30
G1 X5.0905 Y10.47 F25
G1 Z-0.25 F30
G1 X5.3652 Y10.8878 F25
G1 Z-0.3 F30
G1 X6.0486 Y11.9269 F25
G1 X5.6158 Y11.9269
G1 Z-0.25 F30
G1 X5.1158 Y11.9269 F25
G1 Z-0.3 F30
G1 X4.7363 Y11.9269 F25
G1 X4.5334 Y9.623
G1 Z-0.45 F30
G1 X5.0905 Y10.47 F25
G1 Z-0.25 F30
G1 X5.3652 Y10.8878 F25
G1 Z-0.45 F30
G1 X6.0486 Y11.9269 F25
G1 X5.6158 Y11.9269
G1 Z-0.25 F30
G1 X5.1158 Y11.9269 F25
G1 Z-0.45 F30
G1 X4.7363 Y11.9269 F25
G1 X4.5334 Y9.623
G1 Z-0.6 F30
G1 X5.0905 Y10.47 F25
G1 Z-0.25 F30
G1 X5.3652 Y10.8878 F25
G1 Z-0.6 F30
G1 X6.0486 Y11.9269 F25
G1 X5.6158 Y11.9269
G1 Z-0.25 F30
G1 X5.1158 Y11.9269 F25
G1 Z-0.6 F30
G1 X4.7363 Y11.9269 F25
G1 X4.5334 Y9.623
G1 Z-0.75 F30
G1 X5.0905 Y10.47 F25
G1 Z-0.25 F30
G1 X5.3652 Y10.8878 F25
G1 Z-0.75 F30
G1 X6.0486 Y11.9269 F25
G1 X5.6158 Y11.9269
G1 Z-0.25 F30
G1 X5.1158 Y11.9269 F25
G1 Z-0.75 F30
G1 X4.7363 Y11.9269 F25
G1 X4.5334 Y9.623
G1 Z-0.85 F30
G1 X5.0905 Y10.47 F25
G1 Z-0.25 F30
G1 X5.3652 Y10.8878 F25
G1 Z-0.85 F30
G1 X6.0486 Y11.9269 F25
G1 X5.6158 Y11.9269
G1 Z-0.25 F30
G1 X5.1158 Y11.9269 F25
G1 Z-0.85 F30
G1 X4.7363 Y11.9269 F25
G1 X4.5334 Y9.623
G0 Z0.3
G0 X14.7881 Y18.2082
G1 Z-0.15 F30
G1 X14.3083 Y17.4785 F25
G1 X14.0335 Y17.0608
G1 X13.273 Y15.9043
G1 X13.7249 Y15.9043
G1 X14.2249 Y15.9043
G1 X14.5853 Y15.9043
G1 X14.7881 Y18.2082
G1 Z-0.3 F30
G1 X14.3083 Y17.4785 F25
G1 Z-0.25 F30
G1 X14.0335 Y17.0608 F25
G1 Z-0.3 F30
G1 X13.273 Y15.9043 F25
G1 X13.7249 Y15.9043
G1 Z-0.25 F30
G1 X14.2249 Y15.9043 F25
G1 Z-0.3 F30
G1 X14.5853 Y15.9043 F25
G1 X14.7881 Y18.2082
G1 Z-0.45 F30
G1 X14.3083 Y17.4785 F25
G1 Z-0.25 F30
G1 X14.0335 Y17.0608 F25
G1 Z-0.45 F30
G1 X13.273 Y15.9043 F25
G1 X13.7249 Y15.9043
G1 Z-0.25 F30
G1 X14.2249 Y15.9043 F25
G1 Z-0.45 F30
G1 X14.5853 Y15.9043 F25
G1 X14.7881 Y18.2082
G1 Z-0.6 F30
G1 X14.3083 Y17.4785 F25
G1 Z-0.25 F30
G1 X14.0335 Y17.0608 F25
G1 Z-0.6 F30
G1 X13.273 Y15.9043 F25
G1 X13.7249 Y15.9043
G1 Z-0.25 F30
G1 X14.2249 Y15.9043 F25
G1 Z-0.6 F30
G1 X14.5853 Y15.9043 F25
G1 X14.7881 Y18.2082
G1 Z-0.75 F30
G1 X14.3083 Y17.4785 F25
G1 Z-0.25 F30
G1 X14.0335 Y17.0608 F25
G1 Z-0.75 F30
G1 X13.273 Y15.9043 F25
G1 X13.7249 Y15.9043
G1 Z-0.25 F30
G1 X14.2249 Y15.9043 F25
G1 Z-0.75 F30
G1 X14.5853 Y15.9043 F25
G1 X14.7881 Y18.2082
G1 Z-0.85 F30
G1 X14.3083 Y17.4785 F25
G1 Z-0.25 F30
G1 X14.0335 Y17.0608 F25
G1 Z-0.85 F30
G1 X13.273 Y15.9043 F25
G1 X13.7249 Y15.9043
G1 Z-0.25 F30
G1 X14.2249 Y15.9043 F25
G1 Z-0.85 F30
G1 X14.5853 Y15.9043 F25
G1 X14.7881 Y18.2082
G0 Z0.3
G0 X12.912 Y11.9269
G1 Z-0.15 F30
G1 X13.431 Y10.8492 F25
G1 X13.648 Y10.3987
G1 X14.0307 Y9.6039
G1 X14.2353 Y11.9269
G1 X13.8976 Y11.9269
G1 X13.3976 Y11.9269
G1 X12.912 Y11.9269
G1 Z-0.3 F30
G1 X13.431 Y10.8492 F25
G1 Z-0.25 F30
G1 X13.648 Y10.3987 F25
G1 Z-0.3 F30
G1 X14.0307 Y9.6039 F25
G1 X14.2353 Y11.9269
G1 X13.8976 Y11.9269
G1 Z-0.25 F30
G1 X13.3976 Y11.9269 F25
G1 Z-0.3 F30
G1 X12.912 Y11.9269 F25
G1 Z-0.45 F30
G1 X13.431 Y10.8492 F25
G1 Z-0.25 F30
G1 X13.648 Y10.3987 F25
G1 Z-0.45 F30
G1 X14.0307 Y9.6039 F25
G1 X14.2353 Y11.9269
G1 X13.8976 Y11.9269
G1 Z-0.25 F30
G1 X13.3976 Y11.9269 F25
G1 Z-0.45 F30
G1 X12.912 Y11.9269 F25
G1 Z-0.6 F30
G1 X13.431 Y10.8492 F25
G1 Z-0.25 F30
G1 X13.648 Y10.3987 F25
G1 Z-0.6 F30
G1 X14.0307 Y9.6039 F25
G1 X14.2353 Y11.9269
G1 X13.8976 Y11.9269
G1 Z-0.25 F30
G1 X13.3976 Y11.9269 F25
G1 Z-0.6 F30
G1 X12.912 Y11.9269 F25
G1 Z-0.75 F30
G1 X13.431 Y10.8492 F25
G1 Z-0.25 F30
G1 X13.648 Y10.3987 F25
G1 Z-0.75 F30
G1 X14.0307 Y9.6039 F25
G1 X14.2353 Y11.9269
G1 X13.8976 Y11.9269
G1 Z-0.25 F30
G1 X13.3976 Y11.9269 F25
G1 Z-0.75 F30
G1 X12.912 Y11.9269 F25
G1 Z-0.85 F30
G1 X13.431 Y10.8492 F25
G1 Z-0.25 F30
G1 X13.648 Y10.3987 F25
G1 Z-0.85 F30
G1 X14.0307 Y9.6039 F25
G1 X14.2353 Y11.9269
G1 X13.8976 Y11.9269
G1 Z-0.25 F30
G1 X13.3976 Y11.9269 F25
G1 Z-0.85 F30
G1 X12.912 Y11.9269 F25
G0 Z0.3
G0 X6.4096 Y15.9043
G1 Z-0.15 F30
G1 X6.0177 Y16.7181 F25
G1 X5.8007 Y17.1685
G1 X5.2908 Y18.2273
G1 X5.0864 Y15.9043
G1 X5.2308 Y15.9043
G1 X5.7308 Y15.9043
G1 X6.4096 Y15.9043
G1 Z-0.3 F30
G1 X6.0177 Y16.7181 F25
G1 Z-0.25 F30
G1 X5.8007 Y17.1685 F25
G1 Z-0.3 F30
G1 X5.2908 Y18.2273 F25
G1 X5.0864 Y15.9043
G1 X5.2308 Y15.9043
G1 Z-0.25 F30
G1 X5.7308 Y15.9043 F25
G1 Z-0.3 F30
G1 X6.4096 Y15.9043 F25
G1 Z-0.45 F30
G1 X6.0177 Y16.7181 F25
G1 Z-0.25 F30
G1 X5.8007 Y17.1685 F25
G1 Z-0.45 F30
G1 X5.2908 Y18.2273 F25
G1 X5.0864 Y15.9043
G1 X5.2308 Y15.9043
G1 Z-0.25 F30
G1 X5.7308 Y15.9043 F25
G1 Z-0.45 F30
G1 X6.4096 Y15.9043 F25
G1 Z-0.6 F30
G1 X6.0177 Y16.7181 F25
G1 Z-0.25 F30
G1 X5.8007 Y17.1685 F25
G1 Z-0.6 F30
G1 X5.2908 Y18.2273 F25
G1 X5.0864 Y15.9043
G1 X5.2308 Y15.9043
G1 Z-0.25 F30
G1 X5.7308 Y15.9043 F25
G1 Z-0.6 F30
G1 X6.4096 Y15.9043 F25
G1 Z-0.75 F30
G1 X6.0177 Y16.7181 F25
G1 Z-0.25 F30
G1 X5.8007 Y17.1685 F25
G1 Z-0.75 F30
G1 X5.2908 Y18.2273 F25
G1 X5.0864 Y15.9043
G1 X5.2308 Y15.9043
G1 Z-0.25 F30
G1 X5.7308 Y15.9043 F25
G1 Z-0.75 F30
G1 X6.4096 Y15.9043 F25
G1 Z-0.85 F30
G1 X6.0177 Y16.7181 F25
G1 Z-0.25 F30
G1 X5.8007 Y17.1685 F25
G1 Z-0.85 F30
G1 X5.2908 Y18.2273 F25
G1 X5.0864 Y15.9043
G1 X5.2308 Y15.9043
G1 Z-0.25 F30
G1 X5.7308 Y15.9043 F25
G1 Z-0.85 F30
G1 X6.4096 Y15.9043 F25

(cutout)
G0 Z0.3
G0 X17.3516 Y27.9563
G1 Z-0.15 F30
G1 X15.8374 Y27.9563 F25
G1 X15.3374 Y27.9563
G1 X7.3516 Y27.9563
G1 X6.8516 Y27.9563
G1 X4.4196 Y27.9563
G3 X4.3353 Y27.9235 I0 J-0.125
G1 X4.0964 Y27.7051
G1 X3.4497 Y27.1141
G1 X2.873 Y26.5869
G1 X1.9874 Y25.7776
G3 X1.9472 Y25.6962 I0.0843 J-0.0923
G1 X1.9202 Y25.3874
G1 X1.4957 Y20.5636
G1 X1.4518 Y20.0656
G1 X1.0291 Y15.2631
G3 X1.0286 Y15.2521 I0.1245 J-0.011
G3 X1.0615 Y15.1676 I0.125 J0
G1 X2.2038 Y13.9234
G1 X0.834 Y12.6713
G3 X0.7938 Y12.59 I0.0843 J-0.0923
G1 X0.374 Y7.8213
G1 X0.3302 Y7.3232
G1 X-0.1245 Y2.1569
G3 X-0.125 Y2.146 I0.1245 J-0.011
G3 X-0.0921 Y2.0614 I0.125 J0
G1 X0.1084 Y1.8431
G1 X1.1349 Y0.7249
G1 X1.878 Y-0.0845
G3 X1.9701 Y-0.125 I0.0921 J0.0845
G1 X2.2807 Y-0.125
G1 X4.1019 Y-0.125
G1 X4.6019 Y-0.125
G1 X12.5704 Y-0.125
G1 X13.0704 Y-0.125
G1 X14.9021 Y-0.125
G3 X14.9864 Y-0.0923 I0 J0.125
G1 X15.872 Y0.7171
G1 X17.3343 Y2.0537
G3 X17.3745 Y2.1351 I-0.0843 J0.0923
G1 X17.4015 Y2.4437
G1 X17.7874 Y6.8283
G1 X17.8313 Y7.3264
G1 X18.2926 Y12.5681
G3 X18.2931 Y12.579 I-0.1245 J0.011
G3 X18.2602 Y12.6636 I-0.125 J0
G1 X17.1179 Y13.9079
G1 X18.4877 Y15.1599
G3 X18.5279 Y15.2412 I-0.0843 J0.0923
G1 X18.9167 Y19.6584
G1 X18.9605 Y20.1565
G1 X19.4462 Y25.6743
G3 X19.4467 Y25.6853 I-0.1245 J0.011
G3 X19.4138 Y25.7698 I-0.125 J0
G1 X19.2134 Y25.9881
G1 X18.6707 Y26.5792
G1 X18.1868 Y27.1063
G1 X17.4437 Y27.9158
G3 X17.3516 Y27.9563 I-0.0921 J-0.0845
G1 Z-0.3 F30
G1 X15.8374 Y27.9563 F25
G1 Z-0.25 F30
G1 X15.3374 Y27.9563 F25
G1 Z-0.3 F30
G1 X7.3516 Y27.9563 F25
G1 Z-0.25 F30
G1 X6.8516 Y27.9563 F25
G1 Z-0.3 F30
G1 X4.4196 Y27.9563 F25
G3 X4.3353 Y27.9235 I0 J-0.125
G1 X4.0964 Y27.7051
G1 X3.4497 Y27.1141
G1 X2.873 Y26.5869
G1 X1.9874 Y25.7776
G3 X1.9472 Y25.6962 I0.0843 J-0.0923
G1 X1.9202 Y25.3874
G1 X1.4957 Y20.5636
G1 Z-0.25 F30
G1 X1.4518 Y20.0656 F25
G1 Z-0.3 F30
G1 X1.0291 Y15.2631 F25
G3 X1.0286 Y15.2521 I0.1245 J-0.011
G3 X1.0615 Y15.1676 I0.125 J0
G1 X2.2038 Y13.9234
G1 X0.834 Y12.6713
G3 X0.7938 Y12.59 I0.0843 J-0.0923
G1 X0.374 Y7.8213
G1 Z-0.25 F30
G1 X0.3302 Y7.3232 F25
G1 Z-0.3 F30
G1 X-0.1245 Y2.1569 F25
G3 X-0.125 Y2.146 I0.1245 J-0.011
G3 X-0.0921 Y2.0614 I0.125 J0
G1 X0.1084 Y1.8431
G1 X1.1349 Y0.7249
G1 X1.878 Y-0.0845
G3 X1.9701 Y-0.125 I0.0921 J0.0845
G1 X2.2807 Y-0.125
G1 X4.1019 Y-0.125
G1 Z-0.25 F30
G1 X4.6019 Y-0.125 F25
G1 Z-0.3 F30
G1 X12.5704 Y-0.125 F25
G1 Z-0.25 F30
G1 X13.0704 Y-0.125 F25
G1 Z-0.3 F30
G1 X14.9021 Y-0.125 F25
G3 X14.9864 Y-0.0923 I0 J0.125
G1 X15.872 Y0.7171
G1 X17.3343 Y2.0537
G3 X17.3745 Y2.1351 I-0.0843 J0.0923
G1 X17.4015 Y2.4437
G1 X17.7874 Y6.8283
G1 Z-0.25 F30
G1 X17.8313 Y7.3264 F25
G1 Z-0.3 F30
G1 X18.2926 Y12.5681 F25
G3 X18.2931 Y12.579 I-0.1245 J0.011
G3 X18.2602 Y12.6636 I-0.125 J0
G1 X17.1179 Y13.9079
G1 X18.4877 Y15.1599
G3 X18.5279 Y15.2412 I-0.0843 J0.0923
G1 X18.9167 Y19.6584
G1 Z-0.25 F30
G1 X18.9605 Y20.1565 F25
G1 Z-0.3 F30
G1 X19.4462 Y25.6743 F25
G3 X19.4467 Y25.6853 I-0.1245 J0.011
G3 X19.4138 Y25.7698 I-0.125 J0
G1 X19.2134 Y25.9881
G1 X18.6707 Y26.5792
G1 X18.1868 Y27.1063
G1 X17.4437 Y27.9158
G3 X17.3516 Y27.9563 I-0.0921 J-0.0845
G1 Z-0.45 F30
G1 X15.8374 Y27.9563 F25
G1 Z-0.25 F30
G1 X15.3374 Y27.9563 F25
G1 Z-0.45 F30
G1 X7.3516 Y27.9563 F25
G1 Z-0.25 F30
G1 X6.8516 Y27.9563 F25
G1 Z-0.45 F30
G1 X4.4196 Y27.9563 F25
G3 X4.3353 Y27.9235 I0 J-0.125
G1 X4.0964 Y27.7051
G1 X3.4497 Y27.1141
G1 X2.873 Y26.5869
G1 X1.9874 Y25.7776
G3 X1.9472 Y25.6962 I0.0843 J-0.0923
G1 X1.9202 Y25.3874
G1 X1.4957 Y20.5636
G1 Z-0.25 F30
G1 X1.4518 Y20.0656 F25
G1 Z-0.45 F30
G1 X1.0291 Y15.2631 F25
G3 X1.0286 Y15.2521 I0.1245 J-0.011
G3 X1.0615 Y15.1676 I0.125 J0
G1 X2.2038 Y13.9234
G1 X0.834 Y12.6713
G3 X0.7938 Y12.59 I0.0843 J-0.0923
G1 X0.374 Y7.8213
G1 Z-0.25 F30
G1 X0.3302 Y7.3232 F25
G1 Z-0.45 F30
G1 X-0.1245 Y2.1569 F25
G3 X-0.125 Y2.146 I0.1245 J-0.011
G3 X-0.0921 Y2.0614 I0.125 J0
G1 X0.1084 Y1.8431
G1 X1.1349 Y0.7249
G1 X1.878 Y-0.0845
G3 X1.9701 Y-0.125 I0.0921 J0.0845
G1 X2.2807 Y-0.125
G1 X4.1019 Y-0.125
G1 Z-0.25 F30
G1 X4.6019 Y-0.125 F25
G1 Z-0.45 F30
G1 X12.5704 Y-0.125 F25
G1 Z-0.25 F30
G1 X13.0704 Y-0.125 F25
G1 Z-0.45 F30
G1 X14.9021 Y-0.125 F25
G3 X14.9864 Y-0.0923 I0 J0.125
G1 X15.872 Y0.7171
G1 X17.3343 Y2.0537
G3 X17.3745 Y2.1351 I-0.0843 J0.0923
G1 X17.4015 Y2.4437
G1 X17.7874 Y6.8283
G1 Z-0.25 F30
G1 X17.8313 Y7.3264 F25
G1 Z-0.45 F30
G1 X18.2926 Y12.5681 F25
G3 X18.2931 Y12.579 I-0.1245 J0.011
G3 X18.2602 Y12.6636 I-0.125 J0
G1 X17.1179 Y13.9079
G1 X18.4877 Y15.1599
G3 X18.5279 Y15.2412 I-0.0843 J0.0923
G1 X18.9167 Y19.6584
G1 Z-0.25 F30
G1 X18.9605 Y20.1565 F25
G1 Z-0.45 F30
G1 X19.4462 Y25.6743 F25
G3 X19.4467 Y25.6853 I-0.1245 J0.011
G3 X19.4138 Y25.7698 I-0.125 J0
G1 X19.2134 Y25.9881
G1 X18.6707 Y26.5792
G1 X18.1868 Y27.1063
G1 X17.4437 Y27.9158
G3 X17.3516 Y27.9563 I-0.0921 J-0.0845
G1 Z-0.6 F30
G1 X15.8374 Y27.9563 F25
G1 Z-0.25 F30
G1 X15.3374 Y27.9563 F25
G1 Z-0.6 F30
G1 X7.3516 Y27.9563 F25
G1 Z-0.25 F30
G1 X6.8516 Y27.9563 F25
G1 Z-0.6 F30
G1 X4.4196 Y27.9563 F25
G3 X4.3353 Y27.9235 I0 J-0.125
G1 X4.0964 Y27.7051
G1 X3.4497 Y27.1141
G1 X2.873 Y26.5869
G1 X1.9874 Y25.7776
G3 X1.9472 Y25.6962 I0.0843 J-0.0923
G1 X1.9202 Y25.3874
G1 X1.4957 Y20.5636
G1 Z-0.25 F30
G1 X1.4518 Y20.0656 F25
G1 Z-0.6 F30
G1 X1.0291 Y15.2631 F25
G3 X1.0286 Y15.2521 I0.1245 J-0.011
G3 X1.0615 Y15.1676 I0.125 J0
G1 X2.2038 Y13.9234
G1 X0.834 Y12.6713
G3 X0.7938 Y12.59 I0.0843 J-0.0923
G1 X0.374 Y7.8213
G1 Z-0.25 F30
G1 X0.3302 Y7.3232 F25
G1 Z-0.6 F30
G1 X-0.1245 Y2.1569 F25
G3 X-0.125 Y2.146 I0.1245 J-0.011
G3 X-0.0921 Y2.0614 I0.125 J0
G1 X0.1084 Y1.8431
G1 X1.1349 Y0.7249
G1 X1.878 Y-0.0845
G3 X1.9701 Y-0.125 I0.0921 J0.0845
G1 X2.2807 Y-0.125
G1 X4.1019 Y-0.125
G1 Z-0.25 F30
G1 X4.6019 Y-0.125 F25
G1 Z-0.6 F30
G1 X12.5704 Y-0.125 F25
G1 Z-0.25 F30
G1 X13.0704 Y-0.125 F25
G1 Z-0.6 F30
G1 X14.9021 Y-0.125 F25
G3 X14.9864 Y-0.0923 I0 J0.125
G1 X15.872 Y0.7171
G1 X17.3343 Y2.0537
G3 X17.3745 Y2.1351 I-0.0843 J0.0923
G1 X17.4015 Y2.4437
G1 X17.7874 Y6.8283
G1 Z-0.25 F30
G1 X17.8313 Y7.3264 F25
G1 Z-0.6 F30
G1 X18.2926 Y12.5681 F25
G3 X18.2931 Y12.579 I-0.1245 J0.011
G3 X18.2602 Y12.6636 I-0.125 J0
G1 X17.1179 Y13.9079
G1 X18.4877 Y15.1599
G3 X18.5279 Y15.2412 I-0.0843 J0.0923
G1 X18.9167 Y19.6584
G1 Z-0.25 F30
G1 X18.9605 Y20.1565 F25
G1 Z-0.6 F30
G1 X19.4462 Y25.6743 F25
G3 X19.4467 Y25.6853 I-0.1245 J0.011
G3 X19.4138 Y25.7698 I-0.125 J0
G1 X19.2134 Y25.9881
G1 X18.6707 Y26.5792
G1 X18.1868 Y27.1063
G1 X17.4437 Y27.9158
G3 X17.3516 Y27.9563 I-0.0921 J-0.0845
G1 Z-0.75 F30
G1 X15.8374 Y27.9563 F25
G1 Z-0.25 F30
G1 X15.3374 Y27.9563 F25
G1 Z-0.75 F30
G1 X7.3516 Y27.9563 F25
G1 Z-0.25 F30
G1 X6.8516 Y27.9563 F25
G1 Z-0.75 F30
G1 X4.4196 Y27.9563 F25
G3 X4.3353 Y27.9235 I0 J-0.125
G1 X4.0964 Y27.7051
G1 X3.4497 Y27.1141
G1 X2.873 Y26.5869
G1 X1.9874 Y25.7776
G3 X1.9472 Y25.6962 I0.0843 J-0.0923
G1 X1.9202 Y25.3874
G1 X1.4957 Y20.5636
G1 Z-0.25 F30
G1 X1.4518 Y20.0656 F25
G1 Z-0.75 F30
G1 X1.0291 Y15.2631 F25
G3 X1.0286 Y15.2521 I0.1245 J-0.011
G3 X1.0615 Y15.1676 I0.125 J0
G1 X2.2038 Y13.9234
G1 X0.834 Y12.6713
G3 X0.7938 Y12.59 I0.0843 J-0.0923
G1 X0.374 Y7.8213
G1 Z-0.25 F30
G1 X0.3302 Y7.3232 F25
G1 Z-0.75 F30
G1 X-0.1245 Y2.1569 F25
G3 X-0.125 Y2.146 I0.1245 J-0.011
G3 X-0.0921 Y2.0614 I0.125 J0
G1 X0.1084 Y1.8431
G1 X1.1349 Y0.7249
G1 X1.878 Y-0.0845
G3 X1.9701 Y-0.125 I0.0921 J0.0845
G1 X2.2807 Y-0.125
G1 X4.1019 Y-0.125
G1 Z-0.25 F30
G1 X4.6019 Y-0.125 F25
G1 Z-0.75 F30
G1 X12.5704 Y-0.125 F25
G1 Z-0.25 F30
G1 X13.0704 Y-0.125 F25
G1 Z-0.75 F30
G1 X14.9021 Y-0.125 F25
G3 X14.9864 Y-0.0923 I0 J0.125
G1 X15.872 Y0.7171
G1 X17.3343 Y2.0537
G3 X17.3745 Y2.1351 I-0.0843 J0.0923
G1 X17.4015 Y2.4437
G1 X17.7874 Y6.8283
G1 Z-0.25 F30
G1 X17.8313 Y7.3264 F25
G1 Z-0.75 F30
G1 X18.2926 Y12.5681 F25
G3 X18.2931 Y12.579 I-0.1245 J0.011
G3 X18.2602 Y12.6636 I-0.125 J0
G1 X17.1179 Y13.9079
G1 X18.4877 Y15.1599
G3 X18.5279 Y15.2412 I-0.0843 J0.0923
G1 X18.9167 Y19.6584
G1 Z-0.25 F30
G1 X18.9605 Y20.1565 F25
G1 Z-0.75 F30
G1 X19.4462 Y25.6743 F25
G3 X19.4467 Y25.6853 I-0.1245 J0.011
G3 X19.4138 Y25.7698 I-0.125 J0
G1 X19.2134 Y25.9881
G1 X18.6707 Y26.5792
G1 X18.1868 Y27.1063
G1 X17.4437 Y27.9158
G3 X17.3516 Y27.9563 I-0.0921 J-0.0845
G1 Z-0.85 F30
G1 X15.8374 Y27.9563 F25
G1 Z-0.25 F30
G1 X15.3374 Y27.9563 F25
G1 Z-0.85 F30
G1 X7.3516 Y27.9563 F25
G1 Z-0.25 F30
G1 X6.8516 Y27.9563 F25
G1 Z-0.85 F30
G1 X4.4196 Y27.9563 F25
G3 X4.3353 Y27.9235 I0 J-0.125
G1 X4.0964 Y27.7051
G1 X3.4497 Y27.1141
G1 X2.873 Y26.5869
G1 X1.9874 Y25.7776
G3 X1.9472 Y25.6962 I0.0843 J-0.0923
G1 X1.9202 Y25.3874
G1 X1.4957 Y20.5636
G1 Z-0.25 F30
G1 X1.4518 Y20.0656 F25
G1 Z-0.85 F30
G1 X1.0291 Y15.2631 F25
G3 X1.0286 Y15.2521 I0.1245 J-0.011
G3 X1.0615 Y15.1676 I0.125 J0
G1 X2.2038 Y13.9234
G1 X0.834 Y12.6713
G3 X0.7938 Y12.59 I0.0843 J-0.0923
G1 X0.374 Y7.8213
G1 Z-0.25 F30
G1 X0.3302 Y7.3232 F25
G1 Z-0.85 F30
G1 X-0.1245 Y2.1569 F25
G3 X-0.125 Y2.146 I0.1245 J-0.011
G3 X-0.0921 Y2.0614 I0.125 J0
G1 X0.1084 Y1.8431
G1 X1.1349 Y0.7249
G1 X1.878 Y-0.0845
G3 X1.9701 Y-0.125 I0.0921 J0.0845
G1 X2.2807 Y-0.125
G1 X4.1019 Y-0.125
G1 Z-0.25 F30
G1 X4.6019 Y-0.125 F25
G1 Z-0.85 F30
G1 X12.5704 Y-0.125 F25
G1 Z-0.25 F30
G1 X13.0704 Y-0.125 F25
G1 Z-0.85 F30
G1 X14.9021 Y-0.125 F25
G3 X14.9864 Y-0.0923 I0 J0.125
G1 X15.872 Y0.7171
G1 X17.3343 Y2.0537
G3 X17.3745 Y2.1351 I-0.0843 J0.0923
G1 X17.4015 Y2.4437
G1 X17.7874 Y6.8283
G1 Z-0.25 F30
G1 X17.8313 Y7.3264 F25
G1 Z-0.85 F30
G1 X18.2926 Y12.5681 F25
G3 X18.2931 Y12.579 I-0.1245 J0.011
G3 X18.2602 Y12.6636 I-0.125 J0
G1 X17.1179 Y13.9079
G1 X18.4877 Y15.1599
G3 X18.5279 Y15.2412 I-0.0843 J0.0923
G1 X18.9167 Y19.6584
G1 Z-0.25 F30
G1 X18.9605 Y20.1565 F25
G1 Z-0.85 F30
G1 X19.4462 Y25.6743 F25
G3 X19.4467 Y25.6853 I-0.1245 J0.011
G3 X19.4138 Y25.7698 I-0.125 J0
G1 X19.2134 Y25.9881
G1 X18.6707 Y26.5792
G1 X18.1868 Y27.1063
G1 X17.4437 Y27.9158
G3 X17.3516 Y27.9563 I-0.0921 J-0.0845
G0 Z0.3
M5
M30
