(Generated by PartKam Version 0.05)

G20 G90 G40

(profile 1)
G0 Z0.3
T0 M6
G17
M3
G0 X16.9861 Y26.9608
G1 Z-0.25 F30
G1 X6.9861 Y26.9608 F30
G1 X6.4861 Y26.9608
G1 X4.7788 Y26.9608
G1 X4.2604 Y26.4869
G1 X5.6491 Y24.9744
G1 X13.9024 Y24.9744
G1 X14.4024 Y24.9744
G1 X15.7349 Y24.9744
G1 X17.4068 Y26.5024
G1 X16.9861 Y26.9608
G1 Z-0.5 F30
G1 X6.9861 Y26.9608 F30
G1 Z-0.25 F30
G1 X6.4861 Y26.9608 F30
G1 Z-0.5 F30
G1 X4.7788 Y26.9608 F30
G1 X4.2604 Y26.4869
G1 X5.6491 Y24.9744
G1 X13.9024 Y24.9744
G1 Z-0.25 F30
G1 X14.4024 Y24.9744 F30
G1 Z-0.5 F30
G1 X15.7349 Y24.9744 F30
G1 X17.4068 Y26.5024
G1 X16.9861 Y26.9608
G1 Z-0.75 F30
G1 X6.9861 Y26.9608 F30
G1 Z-0.25 F30
G1 X6.4861 Y26.9608 F30
G1 Z-0.75 F30
G1 X4.7788 Y26.9608 F30
G1 X4.2604 Y26.4869
G1 X5.6491 Y24.9744
G1 X13.9024 Y24.9744
G1 Z-0.25 F30
G1 X14.4024 Y24.9744 F30
G1 Z-0.75 F30
G1 X15.7349 Y24.9744 F30
G1 X17.4068 Y26.5024
G1 X16.9861 Y26.9608
G1 Z-0.85 F30
G1 X6.9861 Y26.9608 F30
G1 Z-0.25 F30
G1 X6.4861 Y26.9608 F30
G1 Z-0.85 F30
G1 X4.7788 Y26.9608 F30
G1 X4.2604 Y26.4869
G1 X5.6491 Y24.9744
G1 X13.9024 Y24.9744
G1 Z-0.25 F30
G1 X14.4024 Y24.9744 F30
G1 Z-0.85 F30
G1 X15.7349 Y24.9744 F30
G1 X17.4068 Y26.5024
G1 X16.9861 Y26.9608

(profile 2)
G0 Z0.3
G0 X2.9804 Y25.317
G1 Z-0.25 F30
G1 X2.8444 Y23.7715 F30
G1 X2.8005 Y23.2735
G1 X2.1256 Y15.6049
G1 X3.0305 Y14.6192
G1 X4.126 Y15.6204
G1 X4.3389 Y18.0391
G1 X4.3827 Y18.5372
G1 X4.888 Y24.2782
G1 X3.4991 Y25.7912
G1 X2.9804 Y25.317
G1 Z-0.5 F30
G1 X2.8444 Y23.7715 F30
G1 Z-0.25 F30
G1 X2.8005 Y23.2735 F30
G1 Z-0.5 F30
G1 X2.1256 Y15.6049 F30
G1 X3.0305 Y14.6192
G1 X4.126 Y15.6204
G1 X4.3389 Y18.0391
G1 Z-0.25 F30
G1 X4.3827 Y18.5372 F30
G1 Z-0.5 F30
G1 X4.888 Y24.2782 F30
G1 X3.4991 Y25.7912
G1 X2.9804 Y25.317
G1 Z-0.75 F30
G1 X2.8444 Y23.7715 F30
G1 Z-0.25 F30
G1 X2.8005 Y23.2735 F30
G1 Z-0.75 F30
G1 X2.1256 Y15.6049 F30
G1 X3.0305 Y14.6192
G1 X4.126 Y15.6204
G1 X4.3389 Y18.0391
G1 Z-0.25 F30
G1 X4.3827 Y18.5372 F30
G1 Z-0.75 F30
G1 X4.888 Y24.2782 F30
G1 X3.4991 Y25.7912
G1 X2.9804 Y25.317
G1 Z-0.85 F30
G1 X2.8444 Y23.7715 F30
G1 Z-0.25 F30
G1 X2.8005 Y23.2735 F30
G1 Z-0.85 F30
G1 X2.1256 Y15.6049 F30
G1 X3.0305 Y14.6192
G1 X4.126 Y15.6204
G1 X4.3389 Y18.0391
G1 Z-0.25 F30
G1 X4.3827 Y18.5372 F30
G1 Z-0.85 F30
G1 X4.888 Y24.2782 F30
G1 X3.4991 Y25.7912
G1 X2.9804 Y25.317

(profile 3)
G0 Z0.3
G0 X6.4096 Y15.9043
G1 Z-0.25 F30
G1 X5.9933 Y16.7686 F30
G1 X5.7764 Y17.2191
G1 X5.2908 Y18.2273
G1 X5.1737 Y16.8968
G1 X5.1299 Y16.3987
G1 X5.0864 Y15.9043
G1 X6.4096 Y15.9043
G1 Z-0.5 F30
G1 X5.9933 Y16.7686 F30
G1 Z-0.25 F30
G1 X5.7764 Y17.2191 F30
G1 Z-0.5 F30
G1 X5.2908 Y18.2273 F30
G1 X5.1737 Y16.8968
G1 Z-0.25 F30
G1 X5.1299 Y16.3987 F30
G1 Z-0.5 F30
G1 X5.0864 Y15.9043 F30
G1 X6.4096 Y15.9043
G1 Z-0.75 F30
G1 X5.9933 Y16.7686 F30
G1 Z-0.25 F30
G1 X5.7764 Y17.2191 F30
G1 Z-0.75 F30
G1 X5.2908 Y18.2273 F30
G1 X5.1737 Y16.8968
G1 Z-0.25 F30
G1 X5.1299 Y16.3987 F30
G1 Z-0.75 F30
G1 X5.0864 Y15.9043 F30
G1 X6.4096 Y15.9043
G1 Z-0.85 F30
G1 X5.9933 Y16.7686 F30
G1 Z-0.25 F30
G1 X5.7764 Y17.2191 F30
G1 Z-0.85 F30
G1 X5.2908 Y18.2273 F30
G1 X5.1737 Y16.8968
G1 Z-0.25 F30
G1 X5.1299 Y16.3987 F30
G1 Z-0.85 F30
G1 X5.0864 Y15.9043 F30
G1 X6.4096 Y15.9043

(profile 4)
G0 Z0.3
G0 X8.2134 Y19.4536
G1 Z-0.25 F30
G1 X6.916 Y22.1473 F30
G1 X6.6991 Y22.5978
G1 X6.0339 Y23.9789
G1 X5.8626 Y23.9789
G1 X5.5324 Y20.2276
G1 X6.8538 Y17.4841
G1 X7.0707 Y17.0336
G1 X7.6146 Y15.9043
G1 X7.9009 Y15.9043
G1 X8.2134 Y19.4536
G1 Z-0.5 F30
G1 X6.916 Y22.1473 F30
G1 Z-0.25 F30
G1 X6.6991 Y22.5978 F30
G1 Z-0.5 F30
G1 X6.0339 Y23.9789 F30
G1 X5.8626 Y23.9789
G1 X5.5324 Y20.2276
G1 X6.8538 Y17.4841
G1 Z-0.25 F30
G1 X7.0707 Y17.0336 F30
G1 Z-0.5 F30
G1 X7.6146 Y15.9043 F30
G1 X7.9009 Y15.9043
G1 X8.2134 Y19.4536
G1 Z-0.75 F30
G1 X6.916 Y22.1473 F30
G1 Z-0.25 F30
G1 X6.6991 Y22.5978 F30
G1 Z-0.75 F30
G1 X6.0339 Y23.9789 F30
G1 X5.8626 Y23.9789
G1 X5.5324 Y20.2276
G1 X6.8538 Y17.4841
G1 Z-0.25 F30
G1 X7.0707 Y17.0336 F30
G1 Z-0.75 F30
G1 X7.6146 Y15.9043 F30
G1 X7.9009 Y15.9043
G1 X8.2134 Y19.4536
G1 Z-0.85 F30
G1 X6.916 Y22.1473 F30
G1 Z-0.25 F30
G1 X6.6991 Y22.5978 F30
G1 Z-0.85 F30
G1 X6.0339 Y23.9789 F30
G1 X5.8626 Y23.9789
G1 X5.5324 Y20.2276
G1 X6.8538 Y17.4841
G1 Z-0.25 F30
G1 X7.0707 Y17.0336 F30
G1 Z-0.85 F30
G1 X7.6146 Y15.9043 F30
G1 X7.9009 Y15.9043
G1 X8.2134 Y19.4536

(profile 5)
G0 Z0.3
G0 X7.1077 Y23.9789
G1 Z-0.25 F30
G1 X7.6674 Y22.8168 F30
G1 X7.8843 Y22.3663
G1 X8.3238 Y21.4537
G1 X8.4868 Y23.3054
G2 X8.527 Y23.3867 I0.1245 J-0.011
G1 X9.1748 Y23.9789
G1 X8.3124 Y23.9789
G1 X7.8124 Y23.9789
G1 X7.1077 Y23.9789
G1 Z-0.5 F30
G1 X7.6674 Y22.8168 F30
G1 Z-0.25 F30
G1 X7.8843 Y22.3663 F30
G1 Z-0.5 F30
G1 X8.3238 Y21.4537 F30
G1 X8.4868 Y23.3054
G2 X8.527 Y23.3867 I0.1245 J-0.011
G1 X9.1748 Y23.9789
G1 X8.3124 Y23.9789
G1 Z-0.25 F30
G1 X7.8124 Y23.9789 F30
G1 Z-0.5 F30
G1 X7.1077 Y23.9789 F30
G1 Z-0.75 F30
G1 X7.6674 Y22.8168 F30
G1 Z-0.25 F30
G1 X7.8843 Y22.3663 F30
G1 Z-0.75 F30
G1 X8.3238 Y21.4537 F30
G1 X8.4868 Y23.3054
G2 X8.527 Y23.3867 I0.1245 J-0.011
G1 X9.1748 Y23.9789
G1 X8.3124 Y23.9789
G1 Z-0.25 F30
G1 X7.8124 Y23.9789 F30
G1 Z-0.75 F30
G1 X7.1077 Y23.9789 F30
G1 Z-0.85 F30
G1 X7.6674 Y22.8168 F30
G1 Z-0.25 F30
G1 X7.8843 Y22.3663 F30
G1 Z-0.85 F30
G1 X8.3238 Y21.4537 F30
G1 X8.4868 Y23.3054
G2 X8.527 Y23.3867 I0.1245 J-0.011
G1 X9.1748 Y23.9789
G1 X8.3124 Y23.9789
G1 Z-0.25 F30
G1 X7.8124 Y23.9789 F30
G1 Z-0.85 F30
G1 X7.1077 Y23.9789 F30

(profile 6)
G0 Z0.3
G0 X10.876 Y15.6204
G1 Z-0.25 F30
G1 X11.3144 Y20.6011 F30
G1 X11.3582 Y21.0992
G1 X11.5204 Y22.9417
G1 X10.6154 Y23.9275
G1 X9.52 Y22.9262
G1 X9.0966 Y18.1166
G1 X9.0528 Y17.6186
G1 X8.8756 Y15.6049
G1 X9.7806 Y14.6192
G1 X10.876 Y15.6204
G1 Z-0.5 F30
G1 X11.3144 Y20.6011 F30
G1 Z-0.25 F30
G1 X11.3582 Y21.0992 F30
G1 Z-0.5 F30
G1 X11.5204 Y22.9417 F30
G1 X10.6154 Y23.9275
G1 X9.52 Y22.9262
G1 X9.0966 Y18.1166
G1 Z-0.25 F30
G1 X9.0528 Y17.6186 F30
G1 Z-0.5 F30
G1 X8.8756 Y15.6049 F30
G1 X9.7806 Y14.6192
G1 X10.876 Y15.6204
G1 Z-0.75 F30
G1 X11.3144 Y20.6011 F30
G1 Z-0.25 F30
G1 X11.3582 Y21.0992 F30
G1 Z-0.75 F30
G1 X11.5204 Y22.9417 F30
G1 X10.6154 Y23.9275
G1 X9.52 Y22.9262
G1 X9.0966 Y18.1166
G1 Z-0.25 F30
G1 X9.0528 Y17.6186 F30
G1 Z-0.75 F30
G1 X8.8756 Y15.6049 F30
G1 X9.7806 Y14.6192
G1 X10.876 Y15.6204
G1 Z-0.85 F30
G1 X11.3144 Y20.6011 F30
G1 Z-0.25 F30
G1 X11.3582 Y21.0992 F30
G1 Z-0.85 F30
G1 X11.5204 Y22.9417 F30
G1 X10.6154 Y23.9275
G1 X9.52 Y22.9262
G1 X9.0966 Y18.1166
G1 Z-0.25 F30
G1 X9.0528 Y17.6186 F30
G1 Z-0.85 F30
G1 X8.8756 Y15.6049 F30
G1 X9.7806 Y14.6192
G1 X10.876 Y15.6204

(profile 7)
G0 Z0.3
G0 X12.3265 Y21.4729
G1 Z-0.25 F30
G1 X12.9955 Y22.4903 F30
G1 X13.2703 Y22.908
G1 X13.9745 Y23.9789
G1 X13.1408 Y23.9789
G1 X12.6408 Y23.9789
G1 X11.9026 Y23.9789
G1 X12.2529 Y23.5973
G1 X12.4533 Y23.379
G2 X12.4863 Y23.2945 I-0.0921 J-0.0845
G2 X12.4858 Y23.2835 I-0.125 J0
G1 X12.3265 Y21.4729
G1 Z-0.5 F30
G1 X12.9955 Y22.4903 F30
G1 Z-0.25 F30
G1 X13.2703 Y22.908 F30
G1 Z-0.5 F30
G1 X13.9745 Y23.9789 F30
G1 X13.1408 Y23.9789
G1 Z-0.25 F30
G1 X12.6408 Y23.9789 F30
G1 Z-0.5 F30
G1 X11.9026 Y23.9789 F30
G1 X12.2529 Y23.5973
G1 X12.4533 Y23.379
G2 X12.4863 Y23.2945 I-0.0921 J-0.0845
G2 X12.4858 Y23.2835 I-0.125 J0
G1 X12.3265 Y21.4729
G1 Z-0.75 F30
G1 X12.9955 Y22.4903 F30
G1 Z-0.25 F30
G1 X13.2703 Y22.908 F30
G1 Z-0.75 F30
G1 X13.9745 Y23.9789 F30
G1 X13.1408 Y23.9789
G1 Z-0.25 F30
G1 X12.6408 Y23.9789 F30
G1 Z-0.75 F30
G1 X11.9026 Y23.9789 F30
G1 X12.2529 Y23.5973
G1 X12.4533 Y23.379
G2 X12.4863 Y23.2945 I-0.0921 J-0.0845
G2 X12.4858 Y23.2835 I-0.125 J0
G1 X12.3265 Y21.4729
G1 Z-0.85 F30
G1 X12.9955 Y22.4903 F30
G1 Z-0.25 F30
G1 X13.2703 Y22.908 F30
G1 Z-0.85 F30
G1 X13.9745 Y23.9789 F30
G1 X13.1408 Y23.9789
G1 Z-0.25 F30
G1 X12.6408 Y23.9789 F30
G1 Z-0.85 F30
G1 X11.9026 Y23.9789 F30
G1 X12.2529 Y23.5973
G1 X12.4533 Y23.379
G2 X12.4863 Y23.2945 I-0.0921 J-0.0845
G2 X12.4858 Y23.2835 I-0.125 J0
G1 X12.3265 Y21.4729

(profile 9)
G0 Z0.3
G0 X14.7881 Y18.2082
G1 Z-0.25 F30
G1 X14.2066 Y17.3239 F30
G1 X13.9318 Y16.9061
G1 X13.273 Y15.9043
G1 X14.5853 Y15.9043
G1 X14.6447 Y16.5795
G1 X14.6886 Y17.0776
G1 X14.7881 Y18.2082
G1 Z-0.5 F30
G1 X14.2066 Y17.3239 F30
G1 Z-0.25 F30
G1 X13.9318 Y16.9061 F30
G1 Z-0.5 F30
G1 X13.273 Y15.9043 F30
G1 X14.5853 Y15.9043
G1 X14.6447 Y16.5795
G1 Z-0.25 F30
G1 X14.6886 Y17.0776 F30
G1 Z-0.5 F30
G1 X14.7881 Y18.2082 F30
G1 Z-0.75 F30
G1 X14.2066 Y17.3239 F30
G1 Z-0.25 F30
G1 X13.9318 Y16.9061 F30
G1 Z-0.75 F30
G1 X13.273 Y15.9043 F30
G1 X14.5853 Y15.9043
G1 X14.6447 Y16.5795
G1 Z-0.25 F30
G1 X14.6886 Y17.0776 F30
G1 Z-0.75 F30
G1 X14.7881 Y18.2082 F30
G1 Z-0.85 F30
G1 X14.2066 Y17.3239 F30
G1 Z-0.25 F30
G1 X13.9318 Y16.9061 F30
G1 Z-0.85 F30
G1 X13.273 Y15.9043 F30
G1 X14.5853 Y15.9043
G1 X14.6447 Y16.5795
G1 Z-0.25 F30
G1 X14.6886 Y17.0776 F30
G1 Z-0.85 F30
G1 X14.7881 Y18.2082 F30

(profile 10)
G0 Z0.3
G0 X17.6259 Y15.6204
G1 Z-0.25 F30
G1 X17.8645 Y18.3305 F30
G1 X17.9083 Y18.8286
G1 X18.4808 Y25.3325
G1 X18.0598 Y25.7912
G1 X16.3876 Y24.2627
G1 X16.2958 Y23.2193
G1 X16.2519 Y22.7212
G1 X15.6256 Y15.6049
G1 X16.5305 Y14.6192
G1 X17.6259 Y15.6204
G1 Z-0.5 F30
G1 X17.8645 Y18.3305 F30
G1 Z-0.25 F30
G1 X17.9083 Y18.8286 F30
G1 Z-0.5 F30
G1 X18.4808 Y25.3325 F30
G1 X18.0598 Y25.7912
G1 X16.3876 Y24.2627
G1 X16.2958 Y23.2193
G1 Z-0.25 F30
G1 X16.2519 Y22.7212 F30
G1 Z-0.5 F30
G1 X15.6256 Y15.6049 F30
G1 X16.5305 Y14.6192
G1 X17.6259 Y15.6204
G1 Z-0.75 F30
G1 X17.8645 Y18.3305 F30
G1 Z-0.25 F30
G1 X17.9083 Y18.8286 F30
G1 Z-0.75 F30
G1 X18.4808 Y25.3325 F30
G1 X18.0598 Y25.7912
G1 X16.3876 Y24.2627
G1 X16.2958 Y23.2193
G1 Z-0.25 F30
G1 X16.2519 Y22.7212 F30
G1 Z-0.75 F30
G1 X15.6256 Y15.6049 F30
G1 X16.5305 Y14.6192
G1 X17.6259 Y15.6204
G1 Z-0.85 F30
G1 X17.8645 Y18.3305 F30
G1 Z-0.25 F30
G1 X17.9083 Y18.8286 F30
G1 Z-0.85 F30
G1 X18.4808 Y25.3325 F30
G1 X18.0598 Y25.7912
G1 X16.3876 Y24.2627
G1 X16.2958 Y23.2193
G1 Z-0.25 F30
G1 X16.2519 Y22.7212 F30
G1 Z-0.85 F30
G1 X15.6256 Y15.6049 F30
G1 X16.5305 Y14.6192
G1 X17.6259 Y15.6204

(profile 11)
G0 Z0.3
G0 X14.8645 Y14.9088
G1 Z-0.25 F30
G1 X14.154 Y14.9088 F30
G1 X13.654 Y14.9088
G1 X11.5286 Y14.9088
G1 X10.4335 Y13.9079
G1 X10.7611 Y13.5511
G1 X11.0992 Y13.1827
G1 X11.3382 Y12.9224
G1 X14.6741 Y12.9224
G1 X15.7693 Y13.9234
G1 X14.8645 Y14.9088
G1 Z-0.5 F30
G1 X14.154 Y14.9088 F30
G1 Z-0.25 F30
G1 X13.654 Y14.9088 F30
G1 Z-0.5 F30
G1 X11.5286 Y14.9088 F30
G1 X10.4335 Y13.9079
G1 X10.7611 Y13.5511
G1 Z-0.25 F30
G1 X11.0992 Y13.1827 F30
G1 Z-0.5 F30
G1 X11.3382 Y12.9224 F30
G1 X14.6741 Y12.9224
G1 X15.7693 Y13.9234
G1 X14.8645 Y14.9088
G1 Z-0.75 F30
G1 X14.154 Y14.9088 F30
G1 Z-0.25 F30
G1 X13.654 Y14.9088 F30
G1 Z-0.75 F30
G1 X11.5286 Y14.9088 F30
G1 X10.4335 Y13.9079
G1 X10.7611 Y13.5511
G1 Z-0.25 F30
G1 X11.0992 Y13.1827 F30
G1 Z-0.75 F30
G1 X11.3382 Y12.9224 F30
G1 X14.6741 Y12.9224
G1 X15.7693 Y13.9234
G1 X14.8645 Y14.9088
G1 Z-0.85 F30
G1 X14.154 Y14.9088 F30
G1 Z-0.25 F30
G1 X13.654 Y14.9088 F30
G1 Z-0.85 F30
G1 X11.5286 Y14.9088 F30
G1 X10.4335 Y13.9079
G1 X10.7611 Y13.5511
G1 Z-0.25 F30
G1 X11.0992 Y13.1827 F30
G1 Z-0.85 F30
G1 X11.3382 Y12.9224 F30
G1 X14.6741 Y12.9224
G1 X15.7693 Y13.9234
G1 X14.8645 Y14.9088

(profile 12)
G0 Z0.3
G0 X4.5882 Y12.9224
G1 Z-0.25 F30
G1 X5.1017 Y12.9224 F30
G1 X5.6017 Y12.9224
G1 X7.9241 Y12.9224
G1 X9.0192 Y13.9234
G1 X8.1146 Y14.9088
G1 X7.5764 Y14.9088
G1 X7.0764 Y14.9088
G1 X4.7787 Y14.9088
G1 X3.6836 Y13.9079
G1 X4.5882 Y12.9224
G1 Z-0.5 F30
G1 X5.1017 Y12.9224 F30
G1 Z-0.25 F30
G1 X5.6017 Y12.9224 F30
G1 Z-0.5 F30
G1 X7.9241 Y12.9224 F30
G1 X9.0192 Y13.9234
G1 X8.1146 Y14.9088
G1 X7.5764 Y14.9088
G1 Z-0.25 F30
G1 X7.0764 Y14.9088 F30
G1 Z-0.5 F30
G1 X4.7787 Y14.9088 F30
G1 X3.6836 Y13.9079
G1 X4.5882 Y12.9224
G1 Z-0.75 F30
G1 X5.1017 Y12.9224 F30
G1 Z-0.25 F30
G1 X5.6017 Y12.9224 F30
G1 Z-0.75 F30
G1 X7.9241 Y12.9224 F30
G1 X9.0192 Y13.9234
G1 X8.1146 Y14.9088
G1 X7.5764 Y14.9088
G1 Z-0.25 F30
G1 X7.0764 Y14.9088 F30
G1 Z-0.75 F30
G1 X4.7787 Y14.9088 F30
G1 X3.6836 Y13.9079
G1 X4.5882 Y12.9224
G1 Z-0.85 F30
G1 X5.1017 Y12.9224 F30
G1 Z-0.25 F30
G1 X5.6017 Y12.9224 F30
G1 Z-0.85 F30
G1 X7.9241 Y12.9224 F30
G1 X9.0192 Y13.9234
G1 X8.1146 Y14.9088
G1 X7.5764 Y14.9088
G1 Z-0.25 F30
G1 X7.0764 Y14.9088 F30
G1 Z-0.85 F30
G1 X4.7787 Y14.9088 F30
G1 X3.6836 Y13.9079
G1 X4.5882 Y12.9224

(profile 13)
G0 Z0.3
G0 X1.8268 Y12.2108
G1 Z-0.25 F30
G1 X1.692 Y10.6795 F30
G1 X1.6482 Y10.1815
G1 X0.9719 Y2.4987
G1 X1.393 Y2.0401
G1 X3.0652 Y3.5684
G1 X3.1909 Y4.997
G1 X3.2347 Y5.4951
G1 X3.8272 Y12.2263
G1 X2.9222 Y13.2121
G1 X1.8268 Y12.2108
G1 Z-0.5 F30
G1 X1.692 Y10.6795 F30
G1 Z-0.25 F30
G1 X1.6482 Y10.1815 F30
G1 Z-0.5 F30
G1 X0.9719 Y2.4987 F30
G1 X1.393 Y2.0401
G1 X3.0652 Y3.5684
G1 X3.1909 Y4.997
G1 Z-0.25 F30
G1 X3.2347 Y5.4951 F30
G1 Z-0.5 F30
G1 X3.8272 Y12.2263 F30
G1 X2.9222 Y13.2121
G1 X1.8268 Y12.2108
G1 Z-0.75 F30
G1 X1.692 Y10.6795 F30
G1 Z-0.25 F30
G1 X1.6482 Y10.1815 F30
G1 Z-0.75 F30
G1 X0.9719 Y2.4987 F30
G1 X1.393 Y2.0401
G1 X3.0652 Y3.5684
G1 X3.1909 Y4.997
G1 Z-0.25 F30
G1 X3.2347 Y5.4951 F30
G1 Z-0.75 F30
G1 X3.8272 Y12.2263 F30
G1 X2.9222 Y13.2121
G1 X1.8268 Y12.2108
G1 Z-0.85 F30
G1 X1.692 Y10.6795 F30
G1 Z-0.25 F30
G1 X1.6482 Y10.1815 F30
G1 Z-0.85 F30
G1 X0.9719 Y2.4987 F30
G1 X1.393 Y2.0401
G1 X3.0652 Y3.5684
G1 X3.1909 Y4.997
G1 Z-0.25 F30
G1 X3.2347 Y5.4951 F30
G1 Z-0.85 F30
G1 X3.8272 Y12.2263 F30
G1 X2.9222 Y13.2121
G1 X1.8268 Y12.2108

(profile 14)
G0 Z0.3
G0 X4.5334 Y9.623
G1 Z-0.25 F30
G1 X5.2869 Y10.7686 F30
G1 X5.5616 Y11.1864
G1 X6.0486 Y11.9269
G1 X4.7363 Y11.9269
G1 X4.6735 Y11.2136
G1 X4.6296 Y10.7155
G1 X4.5334 Y9.623
G1 Z-0.5 F30
G1 X5.2869 Y10.7686 F30
G1 Z-0.25 F30
G1 X5.5616 Y11.1864 F30
G1 Z-0.5 F30
G1 X6.0486 Y11.9269 F30
G1 X4.7363 Y11.9269
G1 X4.6735 Y11.2136
G1 Z-0.25 F30
G1 X4.6296 Y10.7155 F30
G1 Z-0.5 F30
G1 X4.5334 Y9.623 F30
G1 Z-0.75 F30
G1 X5.2869 Y10.7686 F30
G1 Z-0.25 F30
G1 X5.5616 Y11.1864 F30
G1 Z-0.75 F30
G1 X6.0486 Y11.9269 F30
G1 X4.7363 Y11.9269
G1 X4.6735 Y11.2136
G1 Z-0.25 F30
G1 X4.6296 Y10.7155 F30
G1 Z-0.75 F30
G1 X4.5334 Y9.623 F30
G1 Z-0.85 F30
G1 X5.2869 Y10.7686 F30
G1 Z-0.25 F30
G1 X5.5616 Y11.1864 F30
G1 Z-0.85 F30
G1 X6.0486 Y11.9269 F30
G1 X4.7363 Y11.9269
G1 X4.6735 Y11.2136
G1 Z-0.25 F30
G1 X4.6296 Y10.7155 F30
G1 Z-0.85 F30
G1 X4.5334 Y9.623 F30

(profile 15)
G0 Z0.3
G0 X4.2516 Y3.8524
G1 Z-0.25 F30
G1 X5.0425 Y5.055 F30
G1 Z-0.15 F30
G1 X5.3172 Y5.4728 F30
G1 Z-0.25 F30
G1 X7.2401 Y8.3967 F30
G1 X7.5509 Y11.9269
G1 X7.2753 Y11.9269
G1 X6.4259 Y10.6353
G1 Z-0.15 F30
G1 X6.1512 Y10.2175 F30
G1 Z-0.25 F30
G1 X4.4197 Y7.5846 F30
G1 X4.0912 Y3.8524
G1 X4.2516 Y3.8524
G1 Z-0.5 F30
G1 X5.0425 Y5.055 F30
G1 Z-0.15 F30
G1 X5.3172 Y5.4728 F30
G1 Z-0.5 F30
G1 X7.2401 Y8.3967 F30
G1 X7.5509 Y11.9269
G1 X7.2753 Y11.9269
G1 X6.4259 Y10.6353
G1 Z-0.15 F30
G1 X6.1512 Y10.2175 F30
G1 Z-0.5 F30
G1 X4.4197 Y7.5846 F30
G1 X4.0912 Y3.8524
G1 X4.2516 Y3.8524
G1 Z-0.75 F30
G1 X5.0425 Y5.055 F30
G1 Z-0.15 F30
G1 X5.3172 Y5.4728 F30
G1 Z-0.75 F30
G1 X7.2401 Y8.3967 F30
G1 X7.5509 Y11.9269
G1 X7.2753 Y11.9269
G1 X6.4259 Y10.6353
G1 Z-0.15 F30
G1 X6.1512 Y10.2175 F30
G1 Z-0.75 F30
G1 X4.4197 Y7.5846 F30
G1 X4.0912 Y3.8524
G1 X4.2516 Y3.8524

(profile 16)
G0 Z0.3
G0 X6.9951 Y6.3584
G1 Z-0.25 F30
G1 X6.4033 Y5.4584 F30
G1 X6.1285 Y5.0406
G1 X5.3471 Y3.8524
G1 X6.1262 Y3.8524
G1 X6.6262 Y3.8524
G1 X7.4189 Y3.8524
G1 X6.8682 Y4.4522
G2 X6.8352 Y4.5368 I0.0921 J0.0845
G2 X6.8357 Y4.5477 I0.125 J0
G1 X6.9951 Y6.3584
G1 Z-0.5 F30
G1 X6.4033 Y5.4584 F30
G1 Z-0.25 F30
G1 X6.1285 Y5.0406 F30
G1 Z-0.5 F30
G1 X5.3471 Y3.8524 F30
G1 X6.1262 Y3.8524
G1 Z-0.25 F30
G1 X6.6262 Y3.8524 F30
G1 Z-0.5 F30
G1 X7.4189 Y3.8524 F30
G1 X6.8682 Y4.4522
G2 X6.8352 Y4.5368 I0.0921 J0.0845
G2 X6.8357 Y4.5477 I0.125 J0
G1 X6.9951 Y6.3584
G1 Z-0.75 F30
G1 X6.4033 Y5.4584 F30
G1 Z-0.25 F30
G1 X6.1285 Y5.0406 F30
G1 Z-0.75 F30
G1 X5.3471 Y3.8524 F30
G1 X6.1262 Y3.8524
G1 Z-0.25 F30
G1 X6.6262 Y3.8524 F30
G1 Z-0.75 F30
G1 X7.4189 Y3.8524 F30
G1 X6.8682 Y4.4522
G2 X6.8352 Y4.5368 I0.0921 J0.0845
G2 X6.8357 Y4.5477 I0.125 J0
G1 X6.9951 Y6.3584
G1 Z-0.85 F30
G1 X6.4033 Y5.4584 F30
G1 Z-0.25 F30
G1 X6.1285 Y5.0406 F30
G1 Z-0.85 F30
G1 X5.3471 Y3.8524 F30
G1 X6.1262 Y3.8524
G1 Z-0.25 F30
G1 X6.6262 Y3.8524 F30
G1 Z-0.85 F30
G1 X7.4189 Y3.8524 F30
G1 X6.8682 Y4.4522
G2 X6.8352 Y4.5368 I0.0921 J0.0845
G2 X6.8357 Y4.5477 I0.125 J0
G1 X6.9951 Y6.3584

(profile 17)
G0 Z0.3
G0 X9.9328 Y4.905
G1 Z-0.25 F30
G1 X10.025 Y5.953 F30
G1 X10.0689 Y6.451
G1 X10.5772 Y12.2263
G1 X9.6723 Y13.2121
G1 X8.5768 Y12.2108
G1 X8.5042 Y11.3859
G1 X8.4604 Y10.8878
G1 X7.9324 Y4.8895
G1 X8.8374 Y3.9038
G1 X9.9328 Y4.905
G1 Z-0.5 F30
G1 X10.025 Y5.953 F30
G1 Z-0.25 F30
G1 X10.0689 Y6.451 F30
G1 Z-0.5 F30
G1 X10.5772 Y12.2263 F30
G1 X9.6723 Y13.2121
G1 X8.5768 Y12.2108
G1 X8.5042 Y11.3859
G1 Z-0.25 F30
G1 X8.4604 Y10.8878 F30
G1 Z-0.5 F30
G1 X7.9324 Y4.8895 F30
G1 X8.8374 Y3.9038
G1 X9.9328 Y4.905
G1 Z-0.75 F30
G1 X10.025 Y5.953 F30
G1 Z-0.25 F30
G1 X10.0689 Y6.451 F30
G1 Z-0.75 F30
G1 X10.5772 Y12.2263 F30
G1 X9.6723 Y13.2121
G1 X8.5768 Y12.2108
G1 X8.5042 Y11.3859
G1 Z-0.25 F30
G1 X8.4604 Y10.8878 F30
G1 Z-0.75 F30
G1 X7.9324 Y4.8895 F30
G1 X8.8374 Y3.9038
G1 X9.9328 Y4.905
G1 Z-0.85 F30
G1 X10.025 Y5.953 F30
G1 Z-0.25 F30
G1 X10.0689 Y6.451 F30
G1 Z-0.85 F30
G1 X10.5772 Y12.2263 F30
G1 X9.6723 Y13.2121
G1 X8.5768 Y12.2108
G1 X8.5042 Y11.3859
G1 Z-0.25 F30
G1 X8.4604 Y10.8878 F30
G1 Z-0.85 F30
G1 X7.9324 Y4.8895 F30
G1 X8.8374 Y3.9038
G1 X9.9328 Y4.905

(profile 18)
G0 Z0.3
G0 X12.2138 Y3.8525
G1 Z-0.25 F30
G1 X11.6675 Y4.9868 F30
G1 X11.4506 Y5.4372
G1 X10.9977 Y6.3775
G1 X10.8618 Y4.8348
G1 X10.8348 Y4.5259
G2 X10.7946 Y4.4446 I-0.1245 J0.0109
G1 X10.1468 Y3.8525
G1 X10.9399 Y3.8525
G1 X11.4399 Y3.8525
G1 X12.2138 Y3.8525
G1 Z-0.5 F30
G1 X11.6675 Y4.9868 F30
G1 Z-0.25 F30
G1 X11.4506 Y5.4372 F30
G1 Z-0.5 F30
G1 X10.9977 Y6.3775 F30
G1 X10.8618 Y4.8348
G1 X10.8348 Y4.5259
G2 X10.7946 Y4.4446 I-0.1245 J0.0109
G1 X10.1468 Y3.8525
G1 X10.9399 Y3.8525
G1 Z-0.25 F30
G1 X11.4399 Y3.8525 F30
G1 Z-0.5 F30
G1 X12.2138 Y3.8525 F30
G1 Z-0.75 F30
G1 X11.6675 Y4.9868 F30
G1 Z-0.25 F30
G1 X11.4506 Y5.4372 F30
G1 Z-0.75 F30
G1 X10.9977 Y6.3775 F30
G1 X10.8618 Y4.8348
G1 X10.8348 Y4.5259
G2 X10.7946 Y4.4446 I-0.1245 J0.0109
G1 X10.1468 Y3.8525
G1 X10.9399 Y3.8525
G1 Z-0.25 F30
G1 X11.4399 Y3.8525 F30
G1 Z-0.75 F30
G1 X12.2138 Y3.8525 F30
G1 Z-0.85 F30
G1 X11.6675 Y4.9868 F30
G1 Z-0.25 F30
G1 X11.4506 Y5.4372 F30
G1 Z-0.85 F30
G1 X10.9977 Y6.3775 F30
G1 X10.8618 Y4.8348
G1 X10.8348 Y4.5259
G2 X10.7946 Y4.4446 I-0.1245 J0.0109
G1 X10.1468 Y3.8525
G1 X10.9399 Y3.8525
G1 Z-0.25 F30
G1 X11.4399 Y3.8525 F30
G1 Z-0.85 F30
G1 X12.2138 Y3.8525 F30

(profile 19)
G0 Z0.3
G0 X11.2395 Y8.3777
G1 Z-0.25 F30
G1 X12.5138 Y5.7315 F30
G1 X12.7308 Y5.281
G1 X13.4188 Y3.8524
G1 X13.5902 Y3.8524
G1 X13.9203 Y7.6037
G1 X12.4997 Y10.5535
G1 X12.2828 Y11.0039
G1 X11.8383 Y11.9269
G1 X11.5518 Y11.9269
G1 X11.2395 Y8.3777
G1 Z-0.5 F30
G1 X12.5138 Y5.7315 F30
G1 Z-0.25 F30
G1 X12.7308 Y5.281 F30
G1 Z-0.5 F30
G1 X13.4188 Y3.8524 F30
G1 X13.5902 Y3.8524
G1 X13.9203 Y7.6037
G1 X12.4997 Y10.5535
G1 Z-0.25 F30
G1 X12.2828 Y11.0039 F30
G1 Z-0.5 F30
G1 X11.8383 Y11.9269 F30
G1 X11.5518 Y11.9269
G1 X11.2395 Y8.3777
G1 Z-0.75 F30
G1 X12.5138 Y5.7315 F30
G1 Z-0.25 F30
G1 X12.7308 Y5.281 F30
G1 Z-0.75 F30
G1 X13.4188 Y3.8524 F30
G1 X13.5902 Y3.8524
G1 X13.9203 Y7.6037
G1 X12.4997 Y10.5535
G1 Z-0.25 F30
G1 X12.2828 Y11.0039 F30
G1 Z-0.75 F30
G1 X11.8383 Y11.9269 F30
G1 X11.5518 Y11.9269
G1 X11.2395 Y8.3777
G1 Z-0.85 F30
G1 X12.5138 Y5.7315 F30
G1 Z-0.25 F30
G1 X12.7308 Y5.281 F30
G1 Z-0.85 F30
G1 X13.4188 Y3.8524 F30
G1 X13.5902 Y3.8524
G1 X13.9203 Y7.6037
G1 X12.4997 Y10.5535
G1 Z-0.25 F30
G1 X12.2828 Y11.0039 F30
G1 Z-0.85 F30
G1 X11.8383 Y11.9269 F30
G1 X11.5518 Y11.9269
G1 X11.2395 Y8.3777

(profile 20)
G0 Z0.3
G0 X12.912 Y11.9269
G1 Z-0.25 F30
G1 X13.3391 Y11.0401 F30
G1 X13.556 Y10.5896
G1 X14.0307 Y9.6039
G1 X14.1397 Y10.8413
G1 X14.1835 Y11.3394
G1 X14.2353 Y11.9269
G1 X12.912 Y11.9269
G1 Z-0.5 F30
G1 X13.3391 Y11.0401 F30
G1 Z-0.25 F30
G1 X13.556 Y10.5896 F30
G1 Z-0.5 F30
G1 X14.0307 Y9.6039 F30
G1 X14.1397 Y10.8413
G1 Z-0.25 F30
G1 X14.1835 Y11.3394 F30
G1 Z-0.5 F30
G1 X14.2353 Y11.9269 F30
G1 X12.912 Y11.9269
G1 Z-0.75 F30
G1 X13.3391 Y11.0401 F30
G1 Z-0.25 F30
G1 X13.556 Y10.5896 F30
G1 Z-0.75 F30
G1 X14.0307 Y9.6039 F30
G1 X14.1397 Y10.8413
G1 Z-0.25 F30
G1 X14.1835 Y11.3394 F30
G1 Z-0.75 F30
G1 X14.2353 Y11.9269 F30
G1 X12.912 Y11.9269
G1 Z-0.85 F30
G1 X13.3391 Y11.0401 F30
G1 Z-0.25 F30
G1 X13.556 Y10.5896 F30
G1 Z-0.85 F30
G1 X14.0307 Y9.6039 F30
G1 X14.1397 Y10.8413
G1 Z-0.25 F30
G1 X14.1835 Y11.3394 F30
G1 Z-0.85 F30
G1 X14.2353 Y11.9269 F30
G1 X12.912 Y11.9269

(profile 21)
G0 Z0.3
G0 X16.4724 Y2.5142
G1 Z-0.25 F30
G1 X16.6526 Y4.5622 F30
G1 X16.6965 Y5.0603
G1 X17.3273 Y12.2263
G1 X16.4223 Y13.2121
G1 X15.3268 Y12.2108
G1 X15.1748 Y10.4835
G1 X15.131 Y9.9854
G1 X14.5648 Y3.553
G1 X15.9537 Y2.0401
G1 X16.4724 Y2.5142
G1 Z-0.5 F30
G1 X16.6526 Y4.5622 F30
G1 Z-0.25 F30
G1 X16.6965 Y5.0603 F30
G1 Z-0.5 F30
G1 X17.3273 Y12.2263 F30
G1 X16.4223 Y13.2121
G1 X15.3268 Y12.2108
G1 X15.1748 Y10.4835
G1 Z-0.25 F30
G1 X15.131 Y9.9854 F30
G1 Z-0.5 F30
G1 X14.5648 Y3.553 F30
G1 X15.9537 Y2.0401
G1 X16.4724 Y2.5142
G1 Z-0.75 F30
G1 X16.6526 Y4.5622 F30
G1 Z-0.25 F30
G1 X16.6965 Y5.0603 F30
G1 Z-0.75 F30
G1 X17.3273 Y12.2263 F30
G1 X16.4223 Y13.2121
G1 X15.3268 Y12.2108
G1 X15.1748 Y10.4835
G1 Z-0.25 F30
G1 X15.131 Y9.9854 F30
G1 Z-0.75 F30
G1 X14.5648 Y3.553 F30
G1 X15.9537 Y2.0401
G1 X16.4724 Y2.5142
G1 Z-0.85 F30
G1 X16.6526 Y4.5622 F30
G1 Z-0.25 F30
G1 X16.6965 Y5.0603 F30
G1 Z-0.85 F30
G1 X17.3273 Y12.2263 F30
G1 X16.4223 Y13.2121
G1 X15.3268 Y12.2108
G1 X15.1748 Y10.4835
G1 Z-0.25 F30
G1 X15.131 Y9.9854 F30
G1 Z-0.85 F30
G1 X14.5648 Y3.553 F30
G1 X15.9537 Y2.0401
G1 X16.4724 Y2.5142

(profile 22)
G0 Z0.3
G0 X2.4668 Y0.8706
G1 Z-0.25 F30
G1 X4.1723 Y0.8706 F30
G1 X4.6723 Y0.8706
G1 X14.674 Y0.8706
G1 X15.1924 Y1.3445
G1 X13.8038 Y2.8571
G1 X12.6462 Y2.8571
G1 X12.1462 Y2.8571
G1 X3.7179 Y2.8571
G1 X2.046 Y1.329
G1 X2.4668 Y0.8706
G1 Z-0.5 F30
G1 X4.1723 Y0.8706 F30
G1 Z-0.25 F30
G1 X4.6723 Y0.8706 F30
G1 Z-0.5 F30
G1 X14.674 Y0.8706 F30
G1 X15.1924 Y1.3445
G1 X13.8038 Y2.8571
G1 X12.6462 Y2.8571
G1 Z-0.25 F30
G1 X12.1462 Y2.8571 F30
G1 Z-0.5 F30
G1 X3.7179 Y2.8571 F30
G1 X2.046 Y1.329
G1 X2.4668 Y0.8706
G1 Z-0.75 F30
G1 X4.1723 Y0.8706 F30
G1 Z-0.25 F30
G1 X4.6723 Y0.8706 F30
G1 Z-0.75 F30
G1 X14.674 Y0.8706 F30
G1 X15.1924 Y1.3445
G1 X13.8038 Y2.8571
G1 X12.6462 Y2.8571
G1 Z-0.25 F30
G1 X12.1462 Y2.8571 F30
G1 Z-0.75 F30
G1 X3.7179 Y2.8571 F30
G1 X2.046 Y1.329
G1 X2.4668 Y0.8706
G1 Z-0.85 F30
G1 X4.1723 Y0.8706 F30
G1 Z-0.25 F30
G1 X4.6723 Y0.8706 F30
G1 Z-0.85 F30
G1 X14.674 Y0.8706 F30
G1 X15.1924 Y1.3445
G1 X13.8038 Y2.8571
G1 X12.6462 Y2.8571
G1 Z-0.25 F30
G1 X12.1462 Y2.8571 F30
G1 Z-0.85 F30
G1 X3.7179 Y2.8571 F30
G1 X2.046 Y1.329
G1 X2.4668 Y0.8706

(profile 23)
G0 Z0.3
G0 X17.3516 Y27.9563
G1 Z-0.25 F30
G1 X10.7209 Y27.9563 F30
G1 X10.2209 Y27.9563
G1 X4.4196 Y27.9563
G3 X4.3353 Y27.9235 I0 J-0.125
G1 X4.0964 Y27.7051
G1 X3.4497 Y27.1141
G1 X2.873 Y26.5869
G1 X1.9874 Y25.7776
G3 X1.9472 Y25.6962 I0.0843 J-0.0923
G1 X1.9202 Y25.3874
G1 X1.4879 Y20.4758
G1 X1.4441 Y19.9777
G1 X1.0291 Y15.2631
G3 X1.0286 Y15.2521 I0.1245 J-0.011
G3 X1.0615 Y15.1676 I0.125 J0
G1 X2.2038 Y13.9234
G1 X0.834 Y12.6713
G3 X0.7938 Y12.59 I0.0843 J-0.0923
G1 X0.4004 Y8.1204
G1 X0.3565 Y7.6223
G1 X-0.1245 Y2.1569
G3 X-0.125 Y2.146 I0.1245 J-0.011
G3 X-0.0921 Y2.0614 I0.125 J0
G1 X0.1084 Y1.8431
G1 X1.1349 Y0.7249
G1 X1.878 Y-0.0845
G3 X1.9701 Y-0.125 I0.0921 J0.0845
G1 X2.2807 Y-0.125
G1 X7.8631 Y-0.125
G1 X8.3631 Y-0.125
G1 X14.9021 Y-0.125
G3 X14.9864 Y-0.0923 I0 J0.125
G1 X15.872 Y0.7171
G1 X17.3343 Y2.0537
G3 X17.3745 Y2.1351 I-0.0843 J0.0923
G1 X17.4015 Y2.4437
G1 X17.8338 Y7.3555
G1 X17.8777 Y7.8536
G1 X18.2926 Y12.5681
G3 X18.2931 Y12.579 I-0.1245 J0.011
G3 X18.2602 Y12.6636 I-0.125 J0
G1 X17.1179 Y13.9079
G1 X18.4877 Y15.1599
G3 X18.5279 Y15.2412 I-0.0843 J0.0923
G1 X18.9996 Y20.6003
G1 X19.0435 Y21.0984
G1 X19.4462 Y25.6743
G3 X19.4467 Y25.6853 I-0.1245 J0.011
G3 X19.4138 Y25.7698 I-0.125 J0
G1 X19.2134 Y25.9881
G1 X18.6707 Y26.5792
G1 X18.1868 Y27.1063
G1 X17.4437 Y27.9158
G3 X17.3516 Y27.9563 I-0.0921 J-0.0845
G1 Z-0.5 F30
G1 X10.7209 Y27.9563 F30
G1 Z-0.25 F30
G1 X10.2209 Y27.9563 F30
G1 Z-0.5 F30
G1 X4.4196 Y27.9563 F30
G3 X4.3353 Y27.9235 I0 J-0.125
G1 X4.0964 Y27.7051
G1 X3.4497 Y27.1141
G1 X2.873 Y26.5869
G1 X1.9874 Y25.7776
G3 X1.9472 Y25.6962 I0.0843 J-0.0923
G1 X1.9202 Y25.3874
G1 X1.4879 Y20.4758
G1 Z-0.25 F30
G1 X1.4441 Y19.9777 F30
G1 Z-0.5 F30
G1 X1.0291 Y15.2631 F30
G3 X1.0286 Y15.2521 I0.1245 J-0.011
G3 X1.0615 Y15.1676 I0.125 J0
G1 X2.2038 Y13.9234
G1 X0.834 Y12.6713
G3 X0.7938 Y12.59 I0.0843 J-0.0923
G1 X0.4004 Y8.1204
G1 Z-0.25 F30
G1 X0.3565 Y7.6223 F30
G1 Z-0.5 F30
G1 X-0.1245 Y2.1569 F30
G3 X-0.125 Y2.146 I0.1245 J-0.011
G3 X-0.0921 Y2.0614 I0.125 J0
G1 X0.1084 Y1.8431
G1 X1.1349 Y0.7249
G1 X1.878 Y-0.0845
G3 X1.9701 Y-0.125 I0.0921 J0.0845
G1 X2.2807 Y-0.125
G1 X7.8631 Y-0.125
G1 Z-0.25 F30
G1 X8.3631 Y-0.125 F30
G1 Z-0.5 F30
G1 X14.9021 Y-0.125 F30
G3 X14.9864 Y-0.0923 I0 J0.125
G1 X15.872 Y0.7171
G1 X17.3343 Y2.0537
G3 X17.3745 Y2.1351 I-0.0843 J0.0923
G1 X17.4015 Y2.4437
G1 X17.8338 Y7.3555
G1 Z-0.25 F30
G1 X17.8777 Y7.8536 F30
G1 Z-0.5 F30
G1 X18.2926 Y12.5681 F30
G3 X18.2931 Y12.579 I-0.1245 J0.011
G3 X18.2602 Y12.6636 I-0.125 J0
G1 X17.1179 Y13.9079
G1 X18.4877 Y15.1599
G3 X18.5279 Y15.2412 I-0.0843 J0.0923
G1 X18.9996 Y20.6003
G1 Z-0.25 F30
G1 X19.0435 Y21.0984 F30
G1 Z-0.5 F30
G1 X19.4462 Y25.6743 F30
G3 X19.4467 Y25.6853 I-0.1245 J0.011
G3 X19.4138 Y25.7698 I-0.125 J0
G1 X19.2134 Y25.9881
G1 X18.6707 Y26.5792
G1 X18.1868 Y27.1063
G1 X17.4437 Y27.9158
G3 X17.3516 Y27.9563 I-0.0921 J-0.0845
G1 Z-0.75 F30
G1 X10.7209 Y27.9563 F30
G1 Z-0.25 F30
G1 X10.2209 Y27.9563 F30
G1 Z-0.75 F30
G1 X4.4196 Y27.9563 F30
G3 X4.3353 Y27.9235 I0 J-0.125
G1 X4.0964 Y27.7051
G1 X3.4497 Y27.1141
G1 X2.873 Y26.5869
G1 X1.9874 Y25.7776
G3 X1.9472 Y25.6962 I0.0843 J-0.0923
G1 X1.9202 Y25.3874
G1 X1.4879 Y20.4758
G1 Z-0.25 F30
G1 X1.4441 Y19.9777 F30
G1 Z-0.75 F30
G1 X1.0291 Y15.2631 F30
G3 X1.0286 Y15.2521 I0.1245 J-0.011
G3 X1.0615 Y15.1676 I0.125 J0
G1 X2.2038 Y13.9234
G1 X0.834 Y12.6713
G3 X0.7938 Y12.59 I0.0843 J-0.0923
G1 X0.4004 Y8.1204
G1 Z-0.25 F30
G1 X0.3565 Y7.6223 F30
G1 Z-0.75 F30
G1 X-0.1245 Y2.1569 F30
G3 X-0.125 Y2.146 I0.1245 J-0.011
G3 X-0.0921 Y2.0614 I0.125 J0
G1 X0.1084 Y1.8431
G1 X1.1349 Y0.7249
G1 X1.878 Y-0.0845
G3 X1.9701 Y-0.125 I0.0921 J0.0845
G1 X2.2807 Y-0.125
G1 X7.8631 Y-0.125
G1 Z-0.25 F30
G1 X8.3631 Y-0.125 F30
G1 Z-0.75 F30
G1 X14.9021 Y-0.125 F30
G3 X14.9864 Y-0.0923 I0 J0.125
G1 X15.872 Y0.7171
G1 X17.3343 Y2.0537
G3 X17.3745 Y2.1351 I-0.0843 J0.0923
G1 X17.4015 Y2.4437
G1 X17.8338 Y7.3555
G1 Z-0.25 F30
G1 X17.8777 Y7.8536 F30
G1 Z-0.75 F30
G1 X18.2926 Y12.5681 F30
G3 X18.2931 Y12.579 I-0.1245 J0.011
G3 X18.2602 Y12.6636 I-0.125 J0
G1 X17.1179 Y13.9079
G1 X18.4877 Y15.1599
G3 X18.5279 Y15.2412 I-0.0843 J0.0923
G1 X18.9996 Y20.6003
G1 Z-0.25 F30
G1 X19.0435 Y21.0984 F30
G1 Z-0.75 F30
G1 X19.4462 Y25.6743 F30
G3 X19.4467 Y25.6853 I-0.1245 J0.011
G3 X19.4138 Y25.7698 I-0.125 J0
G1 X19.2134 Y25.9881
G1 X18.6707 Y26.5792
G1 X18.1868 Y27.1063
G1 X17.4437 Y27.9158
G3 X17.3516 Y27.9563 I-0.0921 J-0.0845
G1 Z-0.85 F30
G1 X10.7209 Y27.9563 F30
G1 Z-0.25 F30
G1 X10.2209 Y27.9563 F30
G1 Z-0.85 F30
G1 X4.4196 Y27.9563 F30
G3 X4.3353 Y27.9235 I0 J-0.125
G1 X4.0964 Y27.7051
G1 X3.4497 Y27.1141
G1 X2.873 Y26.5869
G1 X1.9874 Y25.7776
G3 X1.9472 Y25.6962 I0.0843 J-0.0923
G1 X1.9202 Y25.3874
G1 X1.4879 Y20.4758
G1 Z-0.25 F30
G1 X1.4441 Y19.9777 F30
G1 Z-0.85 F30
G1 X1.0291 Y15.2631 F30
G3 X1.0286 Y15.2521 I0.1245 J-0.011
G3 X1.0615 Y15.1676 I0.125 J0
G1 X2.2038 Y13.9234
G1 X0.834 Y12.6713
G3 X0.7938 Y12.59 I0.0843 J-0.0923
G1 X0.4004 Y8.1204
G1 Z-0.25 F30
G1 X0.3565 Y7.6223 F30
G1 Z-0.85 F30
G1 X-0.1245 Y2.1569 F30
G3 X-0.125 Y2.146 I0.1245 J-0.011
G3 X-0.0921 Y2.0614 I0.125 J0
G1 X0.1084 Y1.8431
G1 X1.1349 Y0.7249
G1 X1.878 Y-0.0845
G3 X1.9701 Y-0.125 I0.0921 J0.0845
G1 X2.2807 Y-0.125
G1 X7.8631 Y-0.125
G1 Z-0.25 F30
G1 X8.3631 Y-0.125 F30
G1 Z-0.85 F30
G1 X14.9021 Y-0.125 F30
G3 X14.9864 Y-0.0923 I0 J0.125
G1 X15.872 Y0.7171
G1 X17.3343 Y2.0537
G3 X17.3745 Y2.1351 I-0.0843 J0.0923
G1 X17.4015 Y2.4437
G1 X17.8338 Y7.3555
G1 Z-0.25 F30
G1 X17.8777 Y7.8536 F30
G1 Z-0.85 F30
G1 X18.2926 Y12.5681 F30
G3 X18.2931 Y12.579 I-0.1245 J0.011
G3 X18.2602 Y12.6636 I-0.125 J0
G1 X17.1179 Y13.9079
G1 X18.4877 Y15.1599
G3 X18.5279 Y15.2412 I-0.0843 J0.0923
G1 X18.9996 Y20.6003
G1 Z-0.25 F30
G1 X19.0435 Y21.0984 F30
G1 Z-0.85 F30
G1 X19.4462 Y25.6743 F30
G3 X19.4467 Y25.6853 I-0.1245 J0.011
G3 X19.4138 Y25.7698 I-0.125 J0
G1 X19.2134 Y25.9881
G1 X18.6707 Y26.5792
G1 X18.1868 Y27.1063
G1 X17.4437 Y27.9158
G3 X17.3516 Y27.9563 I-0.0921 J-0.0845

(profile 8)
G0 Z0.3
G0 X15.2012 Y23.9789
G1 Z-0.25 F30
G1 X14.5515 Y22.991 F30
G1 X14.2768 Y22.5733
G1 X12.2126 Y19.4345
G1 X11.9019 Y15.9043
G1 X12.1774 Y15.9043
G1 X12.8857 Y16.9812
G1 X13.1604 Y17.399
G1 X15.0332 Y20.2467
G1 X15.3617 Y23.9789
G1 X15.2012 Y23.9789
G1 Z-0.5 F30
G1 X14.5515 Y22.991 F30
G1 Z-0.25 F30
G1 X14.2768 Y22.5733 F30
G1 Z-0.5 F30
G1 X12.2126 Y19.4345 F30
G1 X11.9019 Y15.9043
G1 X12.1774 Y15.9043
G1 X12.8857 Y16.9812
G1 Z-0.25 F30
G1 X13.1604 Y17.399 F30
G1 Z-0.5 F30
G1 X15.0332 Y20.2467 F30
G1 X15.3617 Y23.9789
G1 X15.2012 Y23.9789
G1 Z-0.75 F30
G1 X14.5515 Y22.991 F30
G1 Z-0.25 F30
G1 X14.2768 Y22.5733 F30
G1 Z-0.75 F30
G1 X12.2126 Y19.4345 F30
G1 X11.9019 Y15.9043
G1 X12.1774 Y15.9043
G1 X12.8857 Y16.9812
G1 Z-0.25 F30
G1 X13.1604 Y17.399 F30
G1 Z-0.75 F30
G1 X15.0332 Y20.2467 F30
G1 X15.3617 Y23.9789
G1 X15.2012 Y23.9789
G1 Z-0.85 F30
G1 X14.5515 Y22.991 F30
G1 Z-0.25 F30
G1 X14.2768 Y22.5733 F30
G1 Z-0.85 F30
G1 X12.2126 Y19.4345 F30
G1 X11.9019 Y15.9043
G1 X12.1774 Y15.9043
G1 X12.8857 Y16.9812
G1 Z-0.25 F30
G1 X13.1604 Y17.399 F30
G1 Z-0.85 F30
G1 X15.0332 Y20.2467 F30
G1 X15.3617 Y23.9789
G1 X15.2012 Y23.9789
G0 Z0.3
M5
M30
