(Generated by PartKam Version 0.05)

G20 G90 G40

(follow path 2)
G0 Z0.3
T0 M6
G17
M3
G0 X4.7303 Y27.0858
G1 Z-0.1 F30
G1 X17.041 Y27.0858 F25
G1 X17.5836 Y26.4947
G1 X15.7835 Y24.8494
G1 X5.5941 Y24.8494
G1 X4.0836 Y26.4947
G1 X4.7303 Y27.0858
G0 Z0.3
G0 X3.5068 Y25.9676
G1 Z-0.1 F30
G1 X5.0174 Y24.3222 F25
G1 X4.2463 Y15.5609
G1 X3.0228 Y14.4427
G1 X1.9962 Y15.5609
G1 X2.8601 Y25.3765
G1 X3.5068 Y25.9676
G0 Z0.3
G0 X18.0675 Y25.9676
G1 Z-0.1 F30
G1 X18.6102 Y25.3765 F25
G1 X17.7462 Y15.5609
G1 X16.5228 Y14.4427
G1 X15.4963 Y15.5609
G1 X16.2674 Y24.3222
G1 X18.0675 Y25.9676
G0 Z0.3
G0 X5.7482 Y24.1039
G1 Z-0.1 F30
G1 X6.1125 Y24.1039 F25
G1 X8.3409 Y19.4769
G1 X8.0154 Y15.7793
G1 X7.536 Y15.7793
G1 X5.4049 Y20.2043
G1 X5.7482 Y24.1039
G0 Z0.3
G0 X10.6231 Y24.1039
G1 Z-0.1 F30
G1 X11.6497 Y22.9856 F25
G1 X10.9962 Y15.5609
G1 X9.7728 Y14.4427
G1 X8.7462 Y15.5609
G1 X9.3997 Y22.9856
G1 X10.6231 Y24.1039
G0 Z0.3
G0 X15.1338 Y24.1039
G1 Z-0.1 F30
G1 X15.4982 Y24.1039 F25
G1 X15.1549 Y20.2043
G1 X12.2448 Y15.7793
G1 X11.7654 Y15.7793
G1 X12.0909 Y19.4769
G1 X15.1338 Y24.1039
G0 Z0.3
G0 X4.7301 Y15.0338
G1 Z-0.1 F30
G1 X8.1695 Y15.0338 F25
G1 X9.196 Y13.9156
G1 X7.9726 Y12.7974
G1 X4.5333 Y12.7974
G1 X3.5068 Y13.9156
G1 X4.7301 Y15.0338
G0 Z0.3
G0 X11.4801 Y15.0338
G1 Z-0.1 F30
G1 X14.9195 Y15.0338 F25
G1 X15.9461 Y13.9156
G1 X14.7226 Y12.7974
G1 X11.2833 Y12.7974
G1 X10.2567 Y13.9156
G1 X11.4801 Y15.0338
G0 Z0.3
G0 X2.93 Y13.3885
G1 Z-0.1 F30
G1 X3.9566 Y12.2702 F25
G1 X3.1854 Y3.509
G1 X1.3852 Y1.8637
G1 X0.8426 Y2.4548
G1 X1.7066 Y12.2702
G1 X2.93 Y13.3885
G0 Z0.3
G0 X9.68 Y13.3885
G1 Z-0.1 F30
G1 X10.7066 Y12.2702 F25
G1 X10.053 Y4.8456
G1 X8.8296 Y3.7274
G1 X7.8031 Y4.8456
G1 X8.4565 Y12.2702
G1 X9.68 Y13.3885
G0 Z0.3
G0 X16.43 Y13.3885
G1 Z-0.1 F30
G1 X17.4566 Y12.2702 F25
G1 X16.5926 Y2.4548
G1 X15.9459 Y1.8637
G1 X14.4354 Y3.509
G1 X15.2066 Y12.2702
G1 X16.43 Y13.3885
G0 Z0.3
G0 X7.2079 Y12.0519
G1 Z-0.1 F30
G1 X7.6874 Y12.0519 F25
G1 X7.3619 Y8.3544
G1 X4.319 Y3.7274
G1 X3.9547 Y3.7274
G1 X4.2979 Y7.627
G1 X7.2079 Y12.0519
G0 Z0.3
G0 X11.4374 Y12.0519
G1 Z-0.1 F30
G1 X11.9168 Y12.0519 F25
G1 X14.0479 Y7.627
G1 X13.7047 Y3.7274
G1 X13.3403 Y3.7274
G1 X11.1119 Y8.3544
G1 X11.4374 Y12.0519
G0 Z0.3
G0 X3.6694 Y2.9821
G1 Z-0.1 F30
G1 X13.8587 Y2.9821 F25
G1 X15.3692 Y1.3367
G1 X14.7225 Y0.7456
G1 X2.4119 Y0.7456
G1 X1.8692 Y1.3367
G1 X3.6694 Y2.9821

(follow path 3)
G0 Z0.3
G0 X4.4196 Y27.8313
G1 Z-0.1 F30
G1 X4.1807 Y27.6129 F25
G1 X3.5341 Y27.0218
G1 X2.9573 Y26.4947
G1 X2.0717 Y25.6853
G1 X2.0448 Y25.3765
G1 X1.1536 Y15.2521
G1 X2.3806 Y13.9156
G1 X0.9183 Y12.579
G1 X0 Y2.146
G1 X0.2004 Y1.9276
G1 X1.227 Y0.8094
G1 X1.9701 Y0
G1 X2.2807 Y0
G1 X14.9021 Y0
G1 X15.7877 Y0.8094
G1 X17.25 Y2.146
G1 X17.277 Y2.4547
G1 X18.1681 Y12.579
G1 X16.9411 Y13.9156
G1 X18.4034 Y15.2521
G1 X19.3217 Y25.6853
G1 X19.1213 Y25.9036
G1 X18.5787 Y26.4947
G1 X18.0947 Y27.0218
G1 X17.3516 Y27.8313
G1 X4.4196 Y27.8313
G0 Z0.3
G0 X6.9088 Y24.1039
G1 Z-0.1 F30
G1 X9.4969 Y24.1039 F25
G1 X8.6113 Y23.2945
G1 X8.4085 Y20.9899
G1 X6.9088 Y24.1039
G0 Z0.3
G0 X11.6182 Y24.1039
G1 Z-0.1 F30
G1 X14.2063 Y24.1039 F25
G1 X12.1585 Y20.9899
G1 X12.3613 Y23.2945
G1 X12.1608 Y23.5128
G1 X11.6182 Y24.1039
G0 Z0.3
G0 X5.2061 Y18.6912
G1 Z-0.1 F30
G1 X6.6085 Y15.7793 F25
G1 X4.9499 Y15.7793
G1 X5.2061 Y18.6912
G0 Z0.3
G0 X14.9561 Y18.6912
G1 Z-0.1 F30
G1 X14.6998 Y15.7793 F25
G1 X13.0412 Y15.7793
G1 X14.9561 Y18.6912
G0 Z0.3
G0 X4.6218 Y12.0519
G1 Z-0.1 F30
G1 X6.2804 Y12.0519 F25
G1 X4.3654 Y9.14
G1 X4.6218 Y12.0519
G0 Z0.3
G0 X12.713 Y12.0519
G1 Z-0.1 F30
G1 X14.3717 Y12.0519 F25
G1 X14.1154 Y9.14
G1 X12.713 Y12.0519
G0 Z0.3
G0 X7.1631 Y6.8413
G1 Z-0.1 F30
G1 X6.9602 Y4.5368 F25
G1 X7.7034 Y3.7274
G1 X5.1153 Y3.7274
G1 X7.1631 Y6.8413
G0 Z0.3
G0 X10.9131 Y6.8413
G1 Z-0.1 F30
G1 X12.4128 Y3.7275 F25
G1 X9.8247 Y3.7275
G1 X10.7102 Y4.5369
G1 X10.7373 Y4.8457
G1 X10.9131 Y6.8413
G0 Z0.3
M5
M30
