(Generated by PartKam Version 0.05)

G20 G90 G40

(follow path 1)
G0 Z0.75
T0 M6
G17
M3
G0 X3.955 Y24.7881
G1 Z-0.15 F30
G1 X5.1924 Y26.0256 F25
G0 Z0.75
G0 X3.955 Y24.7881
G1 Z-0.3 F30
G1 X5.1924 Y26.0256 F25
G0 Z0.75
G0 X3.955 Y24.7881
G1 Z-0.45 F30
G1 X5.1924 Y26.0256 F25
G0 Z0.75
G0 X3.955 Y24.7881
G1 Z-0.6 F30
G1 X5.1924 Y26.0256 F25
G0 Z0.75
G0 X3.955 Y24.7881
G1 Z-0.75 F30
G1 X5.1924 Y26.0256 F25
G0 Z0.75
G0 X3.955 Y24.7881
G1 Z-0.85 F30
G1 X5.1924 Y26.0256 F25
G0 Z0.75
G0 X5.7482 Y23.8955
G1 Z-0.15 F30
G1 X7.4982 Y23.8955 F25
G0 Z0.75
G0 X5.7482 Y23.8955
G1 Z-0.3 F30
G1 X7.4982 Y23.8955 F25
G0 Z0.75
G0 X5.7482 Y23.8955
G1 Z-0.45 F30
G1 X7.4982 Y23.8955 F25
G0 Z0.75
G0 X5.7482 Y23.8955
G1 Z-0.6 F30
G1 X7.4982 Y23.8955 F25
G0 Z0.75
G0 X5.7482 Y23.8955
G1 Z-0.75 F30
G1 X7.4982 Y23.8955 F25
G0 Z0.75
G0 X5.7482 Y23.8955
G1 Z-0.85 F30
G1 X7.4982 Y23.8955 F25

(follow path 2)
G0 Z0.75
G0 X16.9588 Y26.4367
G1 Z-0.15 F30
G1 X18.1962 Y27.6741 F25
G0 Z0.75
G0 X16.9588 Y26.4367
G1 Z-0.3 F30
G1 X18.1962 Y27.6741 F25
G0 Z0.75
G0 X16.9588 Y26.4367
G1 Z-0.45 F30
G1 X18.1962 Y27.6741 F25
G0 Z0.75
G0 X16.9588 Y26.4367
G1 Z-0.6 F30
G1 X18.1962 Y27.6741 F25
G0 Z0.75
G0 X16.9588 Y26.4367
G1 Z-0.75 F30
G1 X18.1962 Y27.6741 F25
G0 Z0.75
G0 X16.9588 Y26.4367
G1 Z-0.85 F30
G1 X18.1962 Y27.6741 F25
G0 Z0.75
G0 X8.9148 Y23.8955
G1 Z-0.15 F30
G1 X10.6648 Y23.8955 F25
G0 Z0.75
G0 X8.9148 Y23.8955
G1 Z-0.3 F30
G1 X10.6648 Y23.8955 F25
G0 Z0.75
G0 X8.9148 Y23.8955
G1 Z-0.45 F30
G1 X10.6648 Y23.8955 F25
G0 Z0.75
G0 X8.9148 Y23.8955
G1 Z-0.6 F30
G1 X10.6648 Y23.8955 F25
G0 Z0.75
G0 X8.9148 Y23.8955
G1 Z-0.75 F30
G1 X10.6648 Y23.8955 F25
G0 Z0.75
G0 X8.9148 Y23.8955
G1 Z-0.85 F30
G1 X10.6648 Y23.8955 F25
G0 Z0.75
G0 X15.1338 Y23.8955
G1 Z-0.15 F30
G1 X16.8838 Y23.8955 F25
G0 Z0.75
G0 X15.1338 Y23.8955
G1 Z-0.3 F30
G1 X16.8838 Y23.8955 F25
G0 Z0.75
G0 X15.1338 Y23.8955
G1 Z-0.45 F30
G1 X16.8838 Y23.8955 F25
G0 Z0.75
G0 X15.1338 Y23.8955
G1 Z-0.6 F30
G1 X16.8838 Y23.8955 F25
G0 Z0.75
G0 X15.1338 Y23.8955
G1 Z-0.75 F30
G1 X16.8838 Y23.8955 F25
G0 Z0.75
G0 X15.1338 Y23.8955
G1 Z-0.85 F30
G1 X16.8838 Y23.8955 F25

(follow path 3)
G0 Z0.75
G0 X3.6999 Y16.0085
G1 Z-0.15 F30
G1 X5.4499 Y16.0085 F25
G0 Z0.75
G0 X3.6999 Y16.0085
G1 Z-0.3 F30
G1 X5.4499 Y16.0085 F25
G0 Z0.75
G0 X3.6999 Y16.0085
G1 Z-0.45 F30
G1 X5.4499 Y16.0085 F25
G0 Z0.75
G0 X3.6999 Y16.0085
G1 Z-0.6 F30
G1 X5.4499 Y16.0085 F25
G0 Z0.75
G0 X3.6999 Y16.0085
G1 Z-0.75 F30
G1 X5.4499 Y16.0085 F25
G0 Z0.75
G0 X3.6999 Y16.0085
G1 Z-0.85 F30
G1 X5.4499 Y16.0085 F25
G0 Z0.75
G0 X6.1299 Y16.0085
G1 Z-0.15 F30
G1 X7.8799 Y16.0085 F25
G0 Z0.75
G0 X6.1299 Y16.0085
G1 Z-0.3 F30
G1 X7.8799 Y16.0085 F25
G0 Z0.75
G0 X6.1299 Y16.0085
G1 Z-0.45 F30
G1 X7.8799 Y16.0085 F25
G0 Z0.75
G0 X6.1299 Y16.0085
G1 Z-0.6 F30
G1 X7.8799 Y16.0085 F25
G0 Z0.75
G0 X6.1299 Y16.0085
G1 Z-0.75 F30
G1 X7.8799 Y16.0085 F25
G0 Z0.75
G0 X6.1299 Y16.0085
G1 Z-0.85 F30
G1 X7.8799 Y16.0085 F25
G0 Z0.75
G0 X10.4948 Y16.0085
G1 Z-0.15 F30
G1 X12.2448 Y16.0085 F25
G0 Z0.75
G0 X10.4948 Y16.0085
G1 Z-0.3 F30
G1 X12.2448 Y16.0085 F25
G0 Z0.75
G0 X10.4948 Y16.0085
G1 Z-0.45 F30
G1 X12.2448 Y16.0085 F25
G0 Z0.75
G0 X10.4948 Y16.0085
G1 Z-0.6 F30
G1 X12.2448 Y16.0085 F25
G0 Z0.75
G0 X10.4948 Y16.0085
G1 Z-0.75 F30
G1 X12.2448 Y16.0085 F25
G0 Z0.75
G0 X10.4948 Y16.0085
G1 Z-0.85 F30
G1 X12.2448 Y16.0085 F25

(follow path 4)
G0 Z0.75
G0 X15.1256 Y14.118
G1 Z-0.15 F30
G1 X16.3631 Y15.3554 F25
G0 Z0.75
G0 X15.1256 Y14.118
G1 Z-0.3 F30
G1 X16.3631 Y15.3554 F25
G0 Z0.75
G0 X15.1256 Y14.118
G1 Z-0.45 F30
G1 X16.3631 Y15.3554 F25
G0 Z0.75
G0 X15.1256 Y14.118
G1 Z-0.6 F30
G1 X16.3631 Y15.3554 F25
G0 Z0.75
G0 X15.1256 Y14.118
G1 Z-0.75 F30
G1 X16.3631 Y15.3554 F25
G0 Z0.75
G0 X15.1256 Y14.118
G1 Z-0.85 F30
G1 X16.3631 Y15.3554 F25
G0 Z0.75
G0 X3.1361 Y12.4726
G1 Z-0.15 F30
G1 X4.3736 Y13.7101 F25
G0 Z0.75
G0 X3.1361 Y12.4726
G1 Z-0.3 F30
G1 X4.3736 Y13.7101 F25
G0 Z0.75
G0 X3.1361 Y12.4726
G1 Z-0.45 F30
G1 X4.3736 Y13.7101 F25
G0 Z0.75
G0 X3.1361 Y12.4726
G1 Z-0.6 F30
G1 X4.3736 Y13.7101 F25
G0 Z0.75
G0 X3.1361 Y12.4726
G1 Z-0.75 F30
G1 X4.3736 Y13.7101 F25
G0 Z0.75
G0 X3.1361 Y12.4726
G1 Z-0.85 F30
G1 X4.3736 Y13.7101 F25
G0 Z0.75
G0 X8.7169 Y13.9156
G1 Z-0.15 F30
G1 X10.7169 Y13.9156 F25
G0 Z0.75
G0 X8.7169 Y13.9156
G1 Z-0.3 F30
G1 X10.7169 Y13.9156 F25
G0 Z0.75
G0 X8.7169 Y13.9156
G1 Z-0.45 F30
G1 X10.7169 Y13.9156 F25
G0 Z0.75
G0 X8.7169 Y13.9156
G1 Z-0.6 F30
G1 X10.7169 Y13.9156 F25
G0 Z0.75
G0 X8.7169 Y13.9156
G1 Z-0.75 F30
G1 X10.7169 Y13.9156 F25
G0 Z0.75
G0 X8.7169 Y13.9156
G1 Z-0.85 F30
G1 X10.7169 Y13.9156 F25

(follow path 5)
G0 Z0.75
G0 X7.2079 Y11.8436
G1 Z-0.15 F30
G1 X8.9579 Y11.8436 F25
G0 Z0.75
G0 X7.2079 Y11.8436
G1 Z-0.3 F30
G1 X8.9579 Y11.8436 F25
G0 Z0.75
G0 X7.2079 Y11.8436
G1 Z-0.45 F30
G1 X8.9579 Y11.8436 F25
G0 Z0.75
G0 X7.2079 Y11.8436
G1 Z-0.6 F30
G1 X8.9579 Y11.8436 F25
G0 Z0.75
G0 X7.2079 Y11.8436
G1 Z-0.75 F30
G1 X8.9579 Y11.8436 F25
G0 Z0.75
G0 X7.2079 Y11.8436
G1 Z-0.85 F30
G1 X8.9579 Y11.8436 F25
G0 Z0.75
G0 X11.4374 Y11.8436
G1 Z-0.15 F30
G1 X13.1874 Y11.8436 F25
G0 Z0.75
G0 X11.4374 Y11.8436
G1 Z-0.3 F30
G1 X13.1874 Y11.8436 F25
G0 Z0.75
G0 X11.4374 Y11.8436
G1 Z-0.45 F30
G1 X13.1874 Y11.8436 F25
G0 Z0.75
G0 X11.4374 Y11.8436
G1 Z-0.6 F30
G1 X13.1874 Y11.8436 F25
G0 Z0.75
G0 X11.4374 Y11.8436
G1 Z-0.75 F30
G1 X13.1874 Y11.8436 F25
G0 Z0.75
G0 X11.4374 Y11.8436
G1 Z-0.85 F30
G1 X13.1874 Y11.8436 F25
G0 Z0.75
G0 X13.8717 Y11.8436
G1 Z-0.15 F30
G1 X15.6217 Y11.8436 F25
G0 Z0.75
G0 X13.8717 Y11.8436
G1 Z-0.3 F30
G1 X15.6217 Y11.8436 F25
G0 Z0.75
G0 X13.8717 Y11.8436
G1 Z-0.45 F30
G1 X15.6217 Y11.8436 F25
G0 Z0.75
G0 X13.8717 Y11.8436
G1 Z-0.6 F30
G1 X15.6217 Y11.8436 F25
G0 Z0.75
G0 X13.8717 Y11.8436
G1 Z-0.75 F30
G1 X15.6217 Y11.8436 F25
G0 Z0.75
G0 X13.8717 Y11.8436
G1 Z-0.85 F30
G1 X15.6217 Y11.8436 F25

(follow path 6)
G0 Z0.75
G0 X2.7277 Y3.9357
G1 Z-0.15 F30
G1 X4.319 Y3.9357 F25
G0 Z0.75
G0 X2.7277 Y3.9357
G1 Z-0.3 F30
G1 X4.319 Y3.9357 F25
G0 Z0.75
G0 X2.7277 Y3.9357
G1 Z-0.45 F30
G1 X4.319 Y3.9357 F25
G0 Z0.75
G0 X2.7277 Y3.9357
G1 Z-0.6 F30
G1 X4.319 Y3.9357 F25
G0 Z0.75
G0 X2.7277 Y3.9357
G1 Z-0.75 F30
G1 X4.319 Y3.9357 F25
G0 Z0.75
G0 X2.7277 Y3.9357
G1 Z-0.85 F30
G1 X4.319 Y3.9357 F25
G0 Z0.75
G0 X8.6421 Y3.9357
G1 Z-0.15 F30
G1 X10.3921 Y3.9357 F25
G0 Z0.75
G0 X8.6421 Y3.9357
G1 Z-0.3 F30
G1 X10.3921 Y3.9357 F25
G0 Z0.75
G0 X8.6421 Y3.9357
G1 Z-0.45 F30
G1 X10.3921 Y3.9357 F25
G0 Z0.75
G0 X8.6421 Y3.9357
G1 Z-0.6 F30
G1 X10.3921 Y3.9357 F25
G0 Z0.75
G0 X8.6421 Y3.9357
G1 Z-0.75 F30
G1 X10.3921 Y3.9357 F25
G0 Z0.75
G0 X8.6421 Y3.9357
G1 Z-0.85 F30
G1 X10.3921 Y3.9357 F25
G0 Z0.75
G0 X11.9547 Y3.9357
G1 Z-0.15 F30
G1 X13.7047 Y3.9357 F25
G0 Z0.75
G0 X11.9547 Y3.9357
G1 Z-0.3 F30
G1 X13.7047 Y3.9357 F25
G0 Z0.75
G0 X11.9547 Y3.9357
G1 Z-0.45 F30
G1 X13.7047 Y3.9357 F25
G0 Z0.75
G0 X11.9547 Y3.9357
G1 Z-0.6 F30
G1 X13.7047 Y3.9357 F25
G0 Z0.75
G0 X11.9547 Y3.9357
G1 Z-0.75 F30
G1 X13.7047 Y3.9357 F25
G0 Z0.75
G0 X11.9547 Y3.9357
G1 Z-0.85 F30
G1 X13.7047 Y3.9357 F25
G0 Z0.75
G0 X14.3068 Y1.8025
G1 Z-0.15 F30
G1 X15.5442 Y3.0399 F25
G0 Z0.75
G0 X14.3068 Y1.8025
G1 Z-0.3 F30
G1 X15.5442 Y3.0399 F25
G0 Z0.75
G0 X14.3068 Y1.8025
G1 Z-0.45 F30
G1 X15.5442 Y3.0399 F25
G0 Z0.75
G0 X14.3068 Y1.8025
G1 Z-0.6 F30
G1 X15.5442 Y3.0399 F25
G0 Z0.75
G0 X14.3068 Y1.8025
G1 Z-0.75 F30
G1 X15.5442 Y3.0399 F25
G0 Z0.75
G0 X14.3068 Y1.8025
G1 Z-0.85 F30
G1 X15.5442 Y3.0399 F25
G0 Z0.75
G0 X1.2566 Y0.1573
G1 Z-0.15 F30
G1 X2.4941 Y1.3947 F25
G0 Z0.75
G0 X1.2566 Y0.1573
G1 Z-0.3 F30
G1 X2.4941 Y1.3947 F25
G0 Z0.75
G0 X1.2566 Y0.1573
G1 Z-0.45 F30
G1 X2.4941 Y1.3947 F25
G0 Z0.75
G0 X1.2566 Y0.1573
G1 Z-0.6 F30
G1 X2.4941 Y1.3947 F25
G0 Z0.75
G0 X1.2566 Y0.1573
G1 Z-0.75 F30
G1 X2.4941 Y1.3947 F25
G0 Z0.75
G0 X1.2566 Y0.1573
G1 Z-0.85 F30
G1 X2.4941 Y1.3947 F25

(profile 7)
G0 Z0.75
G0 X12.3265 Y21.4729
G1 Z-0.15 F30
G1 X12.8711 Y22.3011 F25
G1 Z0 F30
G1 X13.1459 Y22.7189 F25
G1 Z-0.15 F30
G1 X13.9745 Y23.9789 F25
G1 X13.0471 Y23.9789
G1 Z0 F30
G1 X12.5471 Y23.9789 F25
G1 Z-0.15 F30
G1 X11.9026 Y23.9789 F25
G1 X12.2529 Y23.5973
G1 X12.4533 Y23.379
G2 X12.4863 Y23.2945 I-0.0921 J-0.0845
G2 X12.4858 Y23.2835 I-0.125 J0
G1 X12.3265 Y21.4729
G1 Z-0.3 F30
G1 X12.8711 Y22.3011 F25
G1 Z0 F30
G1 X13.1459 Y22.7189 F25
G1 Z-0.3 F30
G1 X13.9745 Y23.9789 F25
G1 X13.0471 Y23.9789
G1 Z0 F30
G1 X12.5471 Y23.9789 F25
G1 Z-0.3 F30
G1 X11.9026 Y23.9789 F25
G1 X12.2529 Y23.5973
G1 X12.4533 Y23.379
G2 X12.4863 Y23.2945 I-0.0921 J-0.0845
G2 X12.4858 Y23.2835 I-0.125 J0
G1 X12.3265 Y21.4729
G1 Z-0.45 F30
G1 X12.8711 Y22.3011 F25
G1 Z0 F30
G1 X13.1459 Y22.7189 F25
G1 Z-0.45 F30
G1 X13.9745 Y23.9789 F25
G1 X13.0471 Y23.9789
G1 Z0 F30
G1 X12.5471 Y23.9789 F25
G1 Z-0.45 F30
G1 X11.9026 Y23.9789 F25
G1 X12.2529 Y23.5973
G1 X12.4533 Y23.379
G2 X12.4863 Y23.2945 I-0.0921 J-0.0845
G2 X12.4858 Y23.2835 I-0.125 J0
G1 X12.3265 Y21.4729
G1 Z-0.6 F30
G1 X12.8711 Y22.3011 F25
G1 Z0 F30
G1 X13.1459 Y22.7189 F25
G1 Z-0.6 F30
G1 X13.9745 Y23.9789 F25
G1 X13.0471 Y23.9789
G1 Z0 F30
G1 X12.5471 Y23.9789 F25
G1 Z-0.6 F30
G1 X11.9026 Y23.9789 F25
G1 X12.2529 Y23.5973
G1 X12.4533 Y23.379
G2 X12.4863 Y23.2945 I-0.0921 J-0.0845
G2 X12.4858 Y23.2835 I-0.125 J0
G1 X12.3265 Y21.4729
G1 Z-0.75 F30
G1 X12.8711 Y22.3011 F25
G1 Z0 F30
G1 X13.1459 Y22.7189 F25
G1 Z-0.75 F30
G1 X13.9745 Y23.9789 F25
G1 X13.0471 Y23.9789
G1 Z0 F30
G1 X12.5471 Y23.9789 F25
G1 Z-0.75 F30
G1 X11.9026 Y23.9789 F25
G1 X12.2529 Y23.5973
G1 X12.4533 Y23.379
G2 X12.4863 Y23.2945 I-0.0921 J-0.0845
G2 X12.4858 Y23.2835 I-0.125 J0
G1 X12.3265 Y21.4729
G1 Z-0.85 F30
G1 X12.8711 Y22.3011 F25
G1 Z0 F30
G1 X13.1459 Y22.7189 F25
G1 Z-0.85 F30
G1 X13.9745 Y23.9789 F25
G1 X13.0471 Y23.9789
G1 Z0 F30
G1 X12.5471 Y23.9789 F25
G1 Z-0.85 F30
G1 X11.9026 Y23.9789 F25
G1 X12.2529 Y23.5973
G1 X12.4533 Y23.379
G2 X12.4863 Y23.2945 I-0.0921 J-0.0845
G2 X12.4858 Y23.2835 I-0.125 J0
G1 X12.3265 Y21.4729
G0 Z0.75
G0 X7.1077 Y23.9789
G1 Z-0.15 F30
G1 X7.6173 Y22.9208 F25
G1 Z0 F30
G1 X7.8342 Y22.4704 F25
G1 Z-0.15 F30
G1 X8.3238 Y21.4537 F25
G1 X8.4868 Y23.3054
G2 X8.527 Y23.3867 I0.1245 J-0.011
G1 X9.1748 Y23.9789
G1 X8.2354 Y23.9789
G1 Z0 F30
G1 X7.7354 Y23.9789 F25
G1 Z-0.15 F30
G1 X7.1077 Y23.9789 F25
G1 Z-0.3 F30
G1 X7.6173 Y22.9208 F25
G1 Z0 F30
G1 X7.8342 Y22.4704 F25
G1 Z-0.3 F30
G1 X8.3238 Y21.4537 F25
G1 X8.4868 Y23.3054
G2 X8.527 Y23.3867 I0.1245 J-0.011
G1 X9.1748 Y23.9789
G1 X8.2354 Y23.9789
G1 Z0 F30
G1 X7.7354 Y23.9789 F25
G1 Z-0.3 F30
G1 X7.1077 Y23.9789 F25
G1 Z-0.45 F30
G1 X7.6173 Y22.9208 F25
G1 Z0 F30
G1 X7.8342 Y22.4704 F25
G1 Z-0.45 F30
G1 X8.3238 Y21.4537 F25
G1 X8.4868 Y23.3054
G2 X8.527 Y23.3867 I0.1245 J-0.011
G1 X9.1748 Y23.9789
G1 X8.2354 Y23.9789
G1 Z0 F30
G1 X7.7354 Y23.9789 F25
G1 Z-0.45 F30
G1 X7.1077 Y23.9789 F25
G1 Z-0.6 F30
G1 X7.6173 Y22.9208 F25
G1 Z0 F30
G1 X7.8342 Y22.4704 F25
G1 Z-0.6 F30
G1 X8.3238 Y21.4537 F25
G1 X8.4868 Y23.3054
G2 X8.527 Y23.3867 I0.1245 J-0.011
G1 X9.1748 Y23.9789
G1 X8.2354 Y23.9789
G1 Z0 F30
G1 X7.7354 Y23.9789 F25
G1 Z-0.6 F30
G1 X7.1077 Y23.9789 F25
G1 Z-0.75 F30
G1 X7.6173 Y22.9208 F25
G1 Z0 F30
G1 X7.8342 Y22.4704 F25
G1 Z-0.75 F30
G1 X8.3238 Y21.4537 F25
G1 X8.4868 Y23.3054
G2 X8.527 Y23.3867 I0.1245 J-0.011
G1 X9.1748 Y23.9789
G1 X8.2354 Y23.9789
G1 Z0 F30
G1 X7.7354 Y23.9789 F25
G1 Z-0.75 F30
G1 X7.1077 Y23.9789 F25
G1 Z-0.85 F30
G1 X7.6173 Y22.9208 F25
G1 Z0 F30
G1 X7.8342 Y22.4704 F25
G1 Z-0.85 F30
G1 X8.3238 Y21.4537 F25
G1 X8.4868 Y23.3054
G2 X8.527 Y23.3867 I0.1245 J-0.011
G1 X9.1748 Y23.9789
G1 X8.2354 Y23.9789
G1 Z0 F30
G1 X7.7354 Y23.9789 F25
G1 Z-0.85 F30
G1 X7.1077 Y23.9789 F25

(profile 8)
G0 Z0.75
G0 X14.7881 Y18.2082
G1 Z-0.15 F30
G1 X13.8664 Y16.8066 F25
G1 Z0 F30
G1 X13.5916 Y16.3889 F25
G1 Z-0.15 F30
G1 X13.273 Y15.9043 F25
G1 X14.5853 Y15.9043
G1 X14.6733 Y16.9038
G1 Z0 F30
G1 X14.7171 Y17.4018 F25
G1 Z-0.15 F30
G1 X14.7881 Y18.2082 F25
G1 Z-0.3 F30
G1 X13.8664 Y16.8066 F25
G1 Z0 F30
G1 X13.5916 Y16.3889 F25
G1 Z-0.3 F30
G1 X13.273 Y15.9043 F25
G1 X14.5853 Y15.9043
G1 X14.6733 Y16.9038
G1 Z0 F30
G1 X14.7171 Y17.4018 F25
G1 Z-0.3 F30
G1 X14.7881 Y18.2082 F25
G1 Z-0.45 F30
G1 X13.8664 Y16.8066 F25
G1 Z0 F30
G1 X13.5916 Y16.3889 F25
G1 Z-0.45 F30
G1 X13.273 Y15.9043 F25
G1 X14.5853 Y15.9043
G1 X14.6733 Y16.9038
G1 Z0 F30
G1 X14.7171 Y17.4018 F25
G1 Z-0.45 F30
G1 X14.7881 Y18.2082 F25
G1 Z-0.6 F30
G1 X13.8664 Y16.8066 F25
G1 Z0 F30
G1 X13.5916 Y16.3889 F25
G1 Z-0.6 F30
G1 X13.273 Y15.9043 F25
G1 X14.5853 Y15.9043
G1 X14.6733 Y16.9038
G1 Z0 F30
G1 X14.7171 Y17.4018 F25
G1 Z-0.6 F30
G1 X14.7881 Y18.2082 F25
G1 Z-0.75 F30
G1 X13.8664 Y16.8066 F25
G1 Z0 F30
G1 X13.5916 Y16.3889 F25
G1 Z-0.75 F30
G1 X13.273 Y15.9043 F25
G1 X14.5853 Y15.9043
G1 X14.6733 Y16.9038
G1 Z0 F30
G1 X14.7171 Y17.4018 F25
G1 Z-0.75 F30
G1 X14.7881 Y18.2082 F25
G1 Z-0.85 F30
G1 X13.8664 Y16.8066 F25
G1 Z0 F30
G1 X13.5916 Y16.3889 F25
G1 Z-0.85 F30
G1 X13.273 Y15.9043 F25
G1 X14.5853 Y15.9043
G1 X14.6733 Y16.9038
G1 Z0 F30
G1 X14.7171 Y17.4018 F25
G1 Z-0.85 F30
G1 X14.7881 Y18.2082 F25
G0 Z0.75
G0 X6.4096 Y15.9043
G1 Z-0.15 F30
G1 X6.061 Y16.6282 F25
G1 Z0 F30
G1 X5.844 Y17.0787 F25
G1 Z-0.15 F30
G1 X5.2908 Y18.2273 F25
G1 X5.177 Y16.9341
G1 Z0 F30
G1 X5.1332 Y16.436 F25
G1 Z-0.15 F30
G1 X5.0864 Y15.9043 F25
G1 X6.4096 Y15.9043
G1 Z-0.3 F30
G1 X6.061 Y16.6282 F25
G1 Z0 F30
G1 X5.844 Y17.0787 F25
G1 Z-0.3 F30
G1 X5.2908 Y18.2273 F25
G1 X5.177 Y16.9341
G1 Z0 F30
G1 X5.1332 Y16.436 F25
G1 Z-0.3 F30
G1 X5.0864 Y15.9043 F25
G1 X6.4096 Y15.9043
G1 Z-0.45 F30
G1 X6.061 Y16.6282 F25
G1 Z0 F30
G1 X5.844 Y17.0787 F25
G1 Z-0.45 F30
G1 X5.2908 Y18.2273 F25
G1 X5.177 Y16.9341
G1 Z0 F30
G1 X5.1332 Y16.436 F25
G1 Z-0.45 F30
G1 X5.0864 Y15.9043 F25
G1 X6.4096 Y15.9043
G1 Z-0.6 F30
G1 X6.061 Y16.6282 F25
G1 Z0 F30
G1 X5.844 Y17.0787 F25
G1 Z-0.6 F30
G1 X5.2908 Y18.2273 F25
G1 X5.177 Y16.9341
G1 Z0 F30
G1 X5.1332 Y16.436 F25
G1 Z-0.6 F30
G1 X5.0864 Y15.9043 F25
G1 X6.4096 Y15.9043
G1 Z-0.75 F30
G1 X6.061 Y16.6282 F25
G1 Z0 F30
G1 X5.844 Y17.0787 F25
G1 Z-0.75 F30
G1 X5.2908 Y18.2273 F25
G1 X5.177 Y16.9341
G1 Z0 F30
G1 X5.1332 Y16.436 F25
G1 Z-0.75 F30
G1 X5.0864 Y15.9043 F25
G1 X6.4096 Y15.9043
G1 Z-0.85 F30
G1 X6.061 Y16.6282 F25
G1 Z0 F30
G1 X5.844 Y17.0787 F25
G1 Z-0.85 F30
G1 X5.2908 Y18.2273 F25
G1 X5.177 Y16.9341
G1 Z0 F30
G1 X5.1332 Y16.436 F25
G1 Z-0.85 F30
G1 X5.0864 Y15.9043 F25
G1 X6.4096 Y15.9043

(profile 9)
G0 Z0.75
G0 X4.5334 Y9.623
G1 Z-0.15 F30
G1 X6.0486 Y11.9269 F25
G1 X5.5456 Y11.9269
G1 Z0 F30
G1 X5.0456 Y11.9269 F25
G1 Z-0.15 F30
G1 X4.7363 Y11.9269 F25
G1 X4.6578 Y11.0355
G1 Z0 F30
G1 X4.614 Y10.5375 F25
G1 Z-0.15 F30
G1 X4.5334 Y9.623 F25
G1 Z-0.3 F30
G1 X6.0486 Y11.9269 F25
G1 X5.5456 Y11.9269
G1 Z0 F30
G1 X5.0456 Y11.9269 F25
G1 Z-0.3 F30
G1 X4.7363 Y11.9269 F25
G1 X4.6578 Y11.0355
G1 Z0 F30
G1 X4.614 Y10.5375 F25
G1 Z-0.3 F30
G1 X4.5334 Y9.623 F25
G1 Z-0.45 F30
G1 X6.0486 Y11.9269 F25
G1 X5.5456 Y11.9269
G1 Z0 F30
G1 X5.0456 Y11.9269 F25
G1 Z-0.45 F30
G1 X4.7363 Y11.9269 F25
G1 X4.6578 Y11.0355
G1 Z0 F30
G1 X4.614 Y10.5375 F25
G1 Z-0.45 F30
G1 X4.5334 Y9.623 F25
G1 Z-0.6 F30
G1 X6.0486 Y11.9269 F25
G1 X5.5456 Y11.9269
G1 Z0 F30
G1 X5.0456 Y11.9269 F25
G1 Z-0.6 F30
G1 X4.7363 Y11.9269 F25
G1 X4.6578 Y11.0355
G1 Z0 F30
G1 X4.614 Y10.5375 F25
G1 Z-0.6 F30
G1 X4.5334 Y9.623 F25
G1 Z-0.75 F30
G1 X6.0486 Y11.9269 F25
G1 X5.5456 Y11.9269
G1 Z0 F30
G1 X5.0456 Y11.9269 F25
G1 Z-0.75 F30
G1 X4.7363 Y11.9269 F25
G1 X4.6578 Y11.0355
G1 Z0 F30
G1 X4.614 Y10.5375 F25
G1 Z-0.75 F30
G1 X4.5334 Y9.623 F25
G1 Z-0.85 F30
G1 X6.0486 Y11.9269 F25
G1 X5.5456 Y11.9269
G1 Z0 F30
G1 X5.0456 Y11.9269 F25
G1 Z-0.85 F30
G1 X4.7363 Y11.9269 F25
G1 X4.6578 Y11.0355
G1 Z0 F30
G1 X4.614 Y10.5375 F25
G1 Z-0.85 F30
G1 X4.5334 Y9.623 F25
G0 Z0.75
G0 X12.912 Y11.9269
G1 Z-0.15 F30
G1 X13.3472 Y11.0233 F25
G1 Z0 F30
G1 X13.5641 Y10.5728 F25
G1 Z-0.15 F30
G1 X14.0307 Y9.6039 F25
G1 X14.1554 Y11.02
G1 Z0 F30
G1 X14.1993 Y11.518 F25
G1 Z-0.15 F30
G1 X14.2353 Y11.9269 F25
G1 X12.912 Y11.9269
G1 Z-0.3 F30
G1 X13.3472 Y11.0233 F25
G1 Z0 F30
G1 X13.5641 Y10.5728 F25
G1 Z-0.3 F30
G1 X14.0307 Y9.6039 F25
G1 X14.1554 Y11.02
G1 Z0 F30
G1 X14.1993 Y11.518 F25
G1 Z-0.3 F30
G1 X14.2353 Y11.9269 F25
G1 X12.912 Y11.9269
G1 Z-0.45 F30
G1 X13.3472 Y11.0233 F25
G1 Z0 F30
G1 X13.5641 Y10.5728 F25
G1 Z-0.45 F30
G1 X14.0307 Y9.6039 F25
G1 X14.1554 Y11.02
G1 Z0 F30
G1 X14.1993 Y11.518 F25
G1 Z-0.45 F30
G1 X14.2353 Y11.9269 F25
G1 X12.912 Y11.9269
G1 Z-0.6 F30
G1 X13.3472 Y11.0233 F25
G1 Z0 F30
G1 X13.5641 Y10.5728 F25
G1 Z-0.6 F30
G1 X14.0307 Y9.6039 F25
G1 X14.1554 Y11.02
G1 Z0 F30
G1 X14.1993 Y11.518 F25
G1 Z-0.6 F30
G1 X14.2353 Y11.9269 F25
G1 X12.912 Y11.9269
G1 Z-0.75 F30
G1 X13.3472 Y11.0233 F25
G1 Z0 F30
G1 X13.5641 Y10.5728 F25
G1 Z-0.75 F30
G1 X14.0307 Y9.6039 F25
G1 X14.1554 Y11.02
G1 Z0 F30
G1 X14.1993 Y11.518 F25
G1 Z-0.75 F30
G1 X14.2353 Y11.9269 F25
G1 X12.912 Y11.9269
G1 Z-0.85 F30
G1 X13.3472 Y11.0233 F25
G1 Z0 F30
G1 X13.5641 Y10.5728 F25
G1 Z-0.85 F30
G1 X14.0307 Y9.6039 F25
G1 X14.1554 Y11.02
G1 Z0 F30
G1 X14.1993 Y11.518 F25
G1 Z-0.85 F30
G1 X14.2353 Y11.9269 F25
G1 X12.912 Y11.9269

(profile 10)
G0 Z0.75
G0 X6.9951 Y6.3584
G1 Z-0.15 F30
G1 X6.4547 Y5.5366 F25
G1 Z0 F30
G1 X6.18 Y5.1189 F25
G1 Z-0.15 F30
G1 X5.3471 Y3.8524 F25
G1 X6.3478 Y3.8524
G1 Z0 F30
G1 X6.8478 Y3.8524 F25
G1 Z-0.15 F30
G1 X7.4189 Y3.8524 F25
G1 X6.8682 Y4.4522
G2 X6.8352 Y4.5368 I0.0921 J0.0845
G2 X6.8357 Y4.5477 I0.125 J0
G1 X6.9951 Y6.3584
G1 Z-0.3 F30
G1 X6.4547 Y5.5366 F25
G1 Z0 F30
G1 X6.18 Y5.1189 F25
G1 Z-0.3 F30
G1 X5.3471 Y3.8524 F25
G1 X6.3478 Y3.8524
G1 Z0 F30
G1 X6.8478 Y3.8524 F25
G1 Z-0.3 F30
G1 X7.4189 Y3.8524 F25
G1 X6.8682 Y4.4522
G2 X6.8352 Y4.5368 I0.0921 J0.0845
G2 X6.8357 Y4.5477 I0.125 J0
G1 X6.9951 Y6.3584
G1 Z-0.45 F30
G1 X6.4547 Y5.5366 F25
G1 Z0 F30
G1 X6.18 Y5.1189 F25
G1 Z-0.45 F30
G1 X5.3471 Y3.8524 F25
G1 X6.3478 Y3.8524
G1 Z0 F30
G1 X6.8478 Y3.8524 F25
G1 Z-0.45 F30
G1 X7.4189 Y3.8524 F25
G1 X6.8682 Y4.4522
G2 X6.8352 Y4.5368 I0.0921 J0.0845
G2 X6.8357 Y4.5477 I0.125 J0
G1 X6.9951 Y6.3584
G1 Z-0.6 F30
G1 X6.4547 Y5.5366 F25
G1 Z0 F30
G1 X6.18 Y5.1189 F25
G1 Z-0.6 F30
G1 X5.3471 Y3.8524 F25
G1 X6.3478 Y3.8524
G1 Z0 F30
G1 X6.8478 Y3.8524 F25
G1 Z-0.6 F30
G1 X7.4189 Y3.8524 F25
G1 X6.8682 Y4.4522
G2 X6.8352 Y4.5368 I0.0921 J0.0845
G2 X6.8357 Y4.5477 I0.125 J0
G1 X6.9951 Y6.3584
G1 Z-0.75 F30
G1 X6.4547 Y5.5366 F25
G1 Z0 F30
G1 X6.18 Y5.1189 F25
G1 Z-0.75 F30
G1 X5.3471 Y3.8524 F25
G1 X6.3478 Y3.8524
G1 Z0 F30
G1 X6.8478 Y3.8524 F25
G1 Z-0.75 F30
G1 X7.4189 Y3.8524 F25
G1 X6.8682 Y4.4522
G2 X6.8352 Y4.5368 I0.0921 J0.0845
G2 X6.8357 Y4.5477 I0.125 J0
G1 X6.9951 Y6.3584
G1 Z-0.85 F30
G1 X6.4547 Y5.5366 F25
G1 Z0 F30
G1 X6.18 Y5.1189 F25
G1 Z-0.85 F30
G1 X5.3471 Y3.8524 F25
G1 X6.3478 Y3.8524
G1 Z0 F30
G1 X6.8478 Y3.8524 F25
G1 Z-0.85 F30
G1 X7.4189 Y3.8524 F25
G1 X6.8682 Y4.4522
G2 X6.8352 Y4.5368 I0.0921 J0.0845
G2 X6.8357 Y4.5477 I0.125 J0
G1 X6.9951 Y6.3584
G0 Z0.75
G0 X12.2138 Y3.8525
G1 Z-0.15 F30
G1 X11.5707 Y5.1879 F25
G1 Z0 F30
G1 X11.3537 Y5.6384 F25
G1 Z-0.15 F30
G1 X10.9977 Y6.3775 F25
G1 X10.8618 Y4.8348
G1 X10.8348 Y4.5259
G2 X10.7946 Y4.4446 I-0.1245 J0.0109
G1 X10.1468 Y3.8525
G1 X10.9245 Y3.8525
G1 Z0 F30
G1 X11.4245 Y3.8525 F25
G1 Z-0.15 F30
G1 X12.2138 Y3.8525 F25
G1 Z-0.3 F30
G1 X11.5707 Y5.1879 F25
G1 Z0 F30
G1 X11.3537 Y5.6384 F25
G1 Z-0.3 F30
G1 X10.9977 Y6.3775 F25
G1 X10.8618 Y4.8348
G1 X10.8348 Y4.5259
G2 X10.7946 Y4.4446 I-0.1245 J0.0109
G1 X10.1468 Y3.8525
G1 X10.9245 Y3.8525
G1 Z0 F30
G1 X11.4245 Y3.8525 F25
G1 Z-0.3 F30
G1 X12.2138 Y3.8525 F25
G1 Z-0.45 F30
G1 X11.5707 Y5.1879 F25
G1 Z0 F30
G1 X11.3537 Y5.6384 F25
G1 Z-0.45 F30
G1 X10.9977 Y6.3775 F25
G1 X10.8618 Y4.8348
G1 X10.8348 Y4.5259
G2 X10.7946 Y4.4446 I-0.1245 J0.0109
G1 X10.1468 Y3.8525
G1 X10.9245 Y3.8525
G1 Z0 F30
G1 X11.4245 Y3.8525 F25
G1 Z-0.45 F30
G1 X12.2138 Y3.8525 F25
G1 Z-0.6 F30
G1 X11.5707 Y5.1879 F25
G1 Z0 F30
G1 X11.3537 Y5.6384 F25
G1 Z-0.6 F30
G1 X10.9977 Y6.3775 F25
G1 X10.8618 Y4.8348
G1 X10.8348 Y4.5259
G2 X10.7946 Y4.4446 I-0.1245 J0.0109
G1 X10.1468 Y3.8525
G1 X10.9245 Y3.8525
G1 Z0 F30
G1 X11.4245 Y3.8525 F25
G1 Z-0.6 F30
G1 X12.2138 Y3.8525 F25
G1 Z-0.75 F30
G1 X11.5707 Y5.1879 F25
G1 Z0 F30
G1 X11.3537 Y5.6384 F25
G1 Z-0.75 F30
G1 X10.9977 Y6.3775 F25
G1 X10.8618 Y4.8348
G1 X10.8348 Y4.5259
G2 X10.7946 Y4.4446 I-0.1245 J0.0109
G1 X10.1468 Y3.8525
G1 X10.9245 Y3.8525
G1 Z0 F30
G1 X11.4245 Y3.8525 F25
G1 Z-0.75 F30
G1 X12.2138 Y3.8525 F25
G1 Z-0.85 F30
G1 X11.5707 Y5.1879 F25
G1 Z0 F30
G1 X11.3537 Y5.6384 F25
G1 Z-0.85 F30
G1 X10.9977 Y6.3775 F25
G1 X10.8618 Y4.8348
G1 X10.8348 Y4.5259
G2 X10.7946 Y4.4446 I-0.1245 J0.0109
G1 X10.1468 Y3.8525
G1 X10.9245 Y3.8525
G1 Z0 F30
G1 X11.4245 Y3.8525 F25
G1 Z-0.85 F30
G1 X12.2138 Y3.8525 F25

(profile 11)
G0 Z0.75
G0 X17.3516 Y27.9563
G1 Z-0.15 F30
G1 X11.8677 Y27.9563 F25
G1 Z0 F30
G1 X11.3677 Y27.9563 F25
G1 Z-0.15 F30
G1 X4.4196 Y27.9563 F25
G3 X4.3353 Y27.9235 I0 J-0.125
G1 X4.0964 Y27.7051
G1 X3.4497 Y27.1141
G1 X2.873 Y26.5869
G1 X1.9874 Y25.7776
G3 X1.9472 Y25.6962 I0.0843 J-0.0923
G1 X1.9202 Y25.3874
G1 X1.4802 Y20.3879
G1 Z0 F30
G1 X1.4363 Y19.8898 F25
G1 Z-0.15 F30
G1 X1.0291 Y15.2631 F25
G3 X1.0286 Y15.2521 I0.1245 J-0.011
G3 X1.0615 Y15.1676 I0.125 J0
G1 X2.2038 Y13.9234
G1 X0.834 Y12.6713
G3 X0.7938 Y12.59 I0.0843 J-0.0923
G1 X0.258 Y6.5032
G1 Z0 F30
G1 X0.2142 Y6.0051 F25
G1 Z-0.15 F30
G1 X-0.1245 Y2.1569 F25
G3 X-0.125 Y2.146 I0.1245 J-0.011
G3 X-0.0921 Y2.0614 I0.125 J0
G1 X0.1084 Y1.8431
G1 X1.1349 Y0.7249
G1 X1.878 Y-0.0845
G3 X1.9701 Y-0.125 I0.0921 J0.0845
G1 X2.2807 Y-0.125
G1 X7.8631 Y-0.125
G1 Z0 F30
G1 X8.3631 Y-0.125 F25
G1 Z-0.15 F30
G1 X14.9021 Y-0.125 F25
G3 X14.9864 Y-0.0923 I0 J0.125
G1 X15.872 Y0.7171
G1 X17.3343 Y2.0537
G3 X17.3745 Y2.1351 I-0.0843 J0.0923
G1 X17.4015 Y2.4437
G1 X17.6714 Y5.5102
G1 Z0 F30
G1 X17.7152 Y6.0082 F25
G1 Z-0.15 F30
G1 X18.2926 Y12.5681 F25
G3 X18.2931 Y12.579 I-0.1245 J0.011
G3 X18.2602 Y12.6636 I-0.125 J0
G1 X17.1179 Y13.9079
G1 X18.4877 Y15.1599
G3 X18.5279 Y15.2412 I-0.0843 J0.0923
G1 X18.9244 Y19.7463
G1 Z0 F30
G1 X18.9683 Y20.2444 F25
G1 Z-0.15 F30
G1 X19.4462 Y25.6743 F25
G3 X19.4467 Y25.6853 I-0.1245 J0.011
G3 X19.4138 Y25.7698 I-0.125 J0
G1 X19.2134 Y25.9881
G1 X18.6707 Y26.5792
G1 X18.1868 Y27.1063
G1 X17.4437 Y27.9158
G3 X17.3516 Y27.9563 I-0.0921 J-0.0845
G1 Z-0.3 F30
G1 X11.8677 Y27.9563 F25
G1 Z0 F30
G1 X11.3677 Y27.9563 F25
G1 Z-0.3 F30
G1 X4.4196 Y27.9563 F25
G3 X4.3353 Y27.9235 I0 J-0.125
G1 X4.0964 Y27.7051
G1 X3.4497 Y27.1141
G1 X2.873 Y26.5869
G1 X1.9874 Y25.7776
G3 X1.9472 Y25.6962 I0.0843 J-0.0923
G1 X1.9202 Y25.3874
G1 X1.4802 Y20.3879
G1 Z0 F30
G1 X1.4363 Y19.8898 F25
G1 Z-0.3 F30
G1 X1.0291 Y15.2631 F25
G3 X1.0286 Y15.2521 I0.1245 J-0.011
G3 X1.0615 Y15.1676 I0.125 J0
G1 X2.2038 Y13.9234
G1 X0.834 Y12.6713
G3 X0.7938 Y12.59 I0.0843 J-0.0923
G1 X0.258 Y6.5032
G1 Z0 F30
G1 X0.2142 Y6.0051 F25
G1 Z-0.3 F30
G1 X-0.1245 Y2.1569 F25
G3 X-0.125 Y2.146 I0.1245 J-0.011
G3 X-0.0921 Y2.0614 I0.125 J0
G1 X0.1084 Y1.8431
G1 X1.1349 Y0.7249
G1 X1.878 Y-0.0845
G3 X1.9701 Y-0.125 I0.0921 J0.0845
G1 X2.2807 Y-0.125
G1 X7.8631 Y-0.125
G1 Z0 F30
G1 X8.3631 Y-0.125 F25
G1 Z-0.3 F30
G1 X14.9021 Y-0.125 F25
G3 X14.9864 Y-0.0923 I0 J0.125
G1 X15.872 Y0.7171
G1 X17.3343 Y2.0537
G3 X17.3745 Y2.1351 I-0.0843 J0.0923
G1 X17.4015 Y2.4437
G1 X17.6714 Y5.5102
G1 Z0 F30
G1 X17.7152 Y6.0082 F25
G1 Z-0.3 F30
G1 X18.2926 Y12.5681 F25
G3 X18.2931 Y12.579 I-0.1245 J0.011
G3 X18.2602 Y12.6636 I-0.125 J0
G1 X17.1179 Y13.9079
G1 X18.4877 Y15.1599
G3 X18.5279 Y15.2412 I-0.0843 J0.0923
G1 X18.9244 Y19.7463
G1 Z0 F30
G1 X18.9683 Y20.2444 F25
G1 Z-0.3 F30
G1 X19.4462 Y25.6743 F25
G3 X19.4467 Y25.6853 I-0.1245 J0.011
G3 X19.4138 Y25.7698 I-0.125 J0
G1 X19.2134 Y25.9881
G1 X18.6707 Y26.5792
G1 X18.1868 Y27.1063
G1 X17.4437 Y27.9158
G3 X17.3516 Y27.9563 I-0.0921 J-0.0845
G1 Z-0.45 F30
G1 X11.8677 Y27.9563 F25
G1 Z0 F30
G1 X11.3677 Y27.9563 F25
G1 Z-0.45 F30
G1 X4.4196 Y27.9563 F25
G3 X4.3353 Y27.9235 I0 J-0.125
G1 X4.0964 Y27.7051
G1 X3.4497 Y27.1141
G1 X2.873 Y26.5869
G1 X1.9874 Y25.7776
G3 X1.9472 Y25.6962 I0.0843 J-0.0923
G1 X1.9202 Y25.3874
G1 X1.4802 Y20.3879
G1 Z0 F30
G1 X1.4363 Y19.8898 F25
G1 Z-0.45 F30
G1 X1.0291 Y15.2631 F25
G3 X1.0286 Y15.2521 I0.1245 J-0.011
G3 X1.0615 Y15.1676 I0.125 J0
G1 X2.2038 Y13.9234
G1 X0.834 Y12.6713
G3 X0.7938 Y12.59 I0.0843 J-0.0923
G1 X0.258 Y6.5032
G1 Z0 F30
G1 X0.2142 Y6.0051 F25
G1 Z-0.45 F30
G1 X-0.1245 Y2.1569 F25
G3 X-0.125 Y2.146 I0.1245 J-0.011
G3 X-0.0921 Y2.0614 I0.125 J0
G1 X0.1084 Y1.8431
G1 X1.1349 Y0.7249
G1 X1.878 Y-0.0845
G3 X1.9701 Y-0.125 I0.0921 J0.0845
G1 X2.2807 Y-0.125
G1 X7.8631 Y-0.125
G1 Z0 F30
G1 X8.3631 Y-0.125 F25
G1 Z-0.45 F30
G1 X14.9021 Y-0.125 F25
G3 X14.9864 Y-0.0923 I0 J0.125
G1 X15.872 Y0.7171
G1 X17.3343 Y2.0537
G3 X17.3745 Y2.1351 I-0.0843 J0.0923
G1 X17.4015 Y2.4437
G1 X17.6714 Y5.5102
G1 Z0 F30
G1 X17.7152 Y6.0082 F25
G1 Z-0.45 F30
G1 X18.2926 Y12.5681 F25
G3 X18.2931 Y12.579 I-0.1245 J0.011
G3 X18.2602 Y12.6636 I-0.125 J0
G1 X17.1179 Y13.9079
G1 X18.4877 Y15.1599
G3 X18.5279 Y15.2412 I-0.0843 J0.0923
G1 X18.9244 Y19.7463
G1 Z0 F30
G1 X18.9683 Y20.2444 F25
G1 Z-0.45 F30
G1 X19.4462 Y25.6743 F25
G3 X19.4467 Y25.6853 I-0.1245 J0.011
G3 X19.4138 Y25.7698 I-0.125 J0
G1 X19.2134 Y25.9881
G1 X18.6707 Y26.5792
G1 X18.1868 Y27.1063
G1 X17.4437 Y27.9158
G3 X17.3516 Y27.9563 I-0.0921 J-0.0845
G1 Z-0.6 F30
G1 X11.8677 Y27.9563 F25
G1 Z0 F30
G1 X11.3677 Y27.9563 F25
G1 Z-0.6 F30
G1 X4.4196 Y27.9563 F25
G3 X4.3353 Y27.9235 I0 J-0.125
G1 X4.0964 Y27.7051
G1 X3.4497 Y27.1141
G1 X2.873 Y26.5869
G1 X1.9874 Y25.7776
G3 X1.9472 Y25.6962 I0.0843 J-0.0923
G1 X1.9202 Y25.3874
G1 X1.4802 Y20.3879
G1 Z0 F30
G1 X1.4363 Y19.8898 F25
G1 Z-0.6 F30
G1 X1.0291 Y15.2631 F25
G3 X1.0286 Y15.2521 I0.1245 J-0.011
G3 X1.0615 Y15.1676 I0.125 J0
G1 X2.2038 Y13.9234
G1 X0.834 Y12.6713
G3 X0.7938 Y12.59 I0.0843 J-0.0923
G1 X0.258 Y6.5032
G1 Z0 F30
G1 X0.2142 Y6.0051 F25
G1 Z-0.6 F30
G1 X-0.1245 Y2.1569 F25
G3 X-0.125 Y2.146 I0.1245 J-0.011
G3 X-0.0921 Y2.0614 I0.125 J0
G1 X0.1084 Y1.8431
G1 X1.1349 Y0.7249
G1 X1.878 Y-0.0845
G3 X1.9701 Y-0.125 I0.0921 J0.0845
G1 X2.2807 Y-0.125
G1 X7.8631 Y-0.125
G1 Z0 F30
G1 X8.3631 Y-0.125 F25
G1 Z-0.6 F30
G1 X14.9021 Y-0.125 F25
G3 X14.9864 Y-0.0923 I0 J0.125
G1 X15.872 Y0.7171
G1 X17.3343 Y2.0537
G3 X17.3745 Y2.1351 I-0.0843 J0.0923
G1 X17.4015 Y2.4437
G1 X17.6714 Y5.5102
G1 Z0 F30
G1 X17.7152 Y6.0082 F25
G1 Z-0.6 F30
G1 X18.2926 Y12.5681 F25
G3 X18.2931 Y12.579 I-0.1245 J0.011
G3 X18.2602 Y12.6636 I-0.125 J0
G1 X17.1179 Y13.9079
G1 X18.4877 Y15.1599
G3 X18.5279 Y15.2412 I-0.0843 J0.0923
G1 X18.9244 Y19.7463
G1 Z0 F30
G1 X18.9683 Y20.2444 F25
G1 Z-0.6 F30
G1 X19.4462 Y25.6743 F25
G3 X19.4467 Y25.6853 I-0.1245 J0.011
G3 X19.4138 Y25.7698 I-0.125 J0
G1 X19.2134 Y25.9881
G1 X18.6707 Y26.5792
G1 X18.1868 Y27.1063
G1 X17.4437 Y27.9158
G3 X17.3516 Y27.9563 I-0.0921 J-0.0845
G1 Z-0.75 F30
G1 X11.8677 Y27.9563 F25
G1 Z0 F30
G1 X11.3677 Y27.9563 F25
G1 Z-0.75 F30
G1 X4.4196 Y27.9563 F25
G3 X4.3353 Y27.9235 I0 J-0.125
G1 X4.0964 Y27.7051
G1 X3.4497 Y27.1141
G1 X2.873 Y26.5869
G1 X1.9874 Y25.7776
G3 X1.9472 Y25.6962 I0.0843 J-0.0923
G1 X1.9202 Y25.3874
G1 X1.4802 Y20.3879
G1 Z0 F30
G1 X1.4363 Y19.8898 F25
G1 Z-0.75 F30
G1 X1.0291 Y15.2631 F25
G3 X1.0286 Y15.2521 I0.1245 J-0.011
G3 X1.0615 Y15.1676 I0.125 J0
G1 X2.2038 Y13.9234
G1 X0.834 Y12.6713
G3 X0.7938 Y12.59 I0.0843 J-0.0923
G1 X0.258 Y6.5032
G1 Z0 F30
G1 X0.2142 Y6.0051 F25
G1 Z-0.75 F30
G1 X-0.1245 Y2.1569 F25
G3 X-0.125 Y2.146 I0.1245 J-0.011
G3 X-0.0921 Y2.0614 I0.125 J0
G1 X0.1084 Y1.8431
G1 X1.1349 Y0.7249
G1 X1.878 Y-0.0845
G3 X1.9701 Y-0.125 I0.0921 J0.0845
G1 X2.2807 Y-0.125
G1 X7.8631 Y-0.125
G1 Z0 F30
G1 X8.3631 Y-0.125 F25
G1 Z-0.75 F30
G1 X14.9021 Y-0.125 F25
G3 X14.9864 Y-0.0923 I0 J0.125
G1 X15.872 Y0.7171
G1 X17.3343 Y2.0537
G3 X17.3745 Y2.1351 I-0.0843 J0.0923
G1 X17.4015 Y2.4437
G1 X17.6714 Y5.5102
G1 Z0 F30
G1 X17.7152 Y6.0082 F25
G1 Z-0.75 F30
G1 X18.2926 Y12.5681 F25
G3 X18.2931 Y12.579 I-0.1245 J0.011
G3 X18.2602 Y12.6636 I-0.125 J0
G1 X17.1179 Y13.9079
G1 X18.4877 Y15.1599
G3 X18.5279 Y15.2412 I-0.0843 J0.0923
G1 X18.9244 Y19.7463
G1 Z0 F30
G1 X18.9683 Y20.2444 F25
G1 Z-0.75 F30
G1 X19.4462 Y25.6743 F25
G3 X19.4467 Y25.6853 I-0.1245 J0.011
G3 X19.4138 Y25.7698 I-0.125 J0
G1 X19.2134 Y25.9881
G1 X18.6707 Y26.5792
G1 X18.1868 Y27.1063
G1 X17.4437 Y27.9158
G3 X17.3516 Y27.9563 I-0.0921 J-0.0845
G1 Z-0.85 F30
G1 X11.8677 Y27.9563 F25
G1 Z0 F30
G1 X11.3677 Y27.9563 F25
G1 Z-0.85 F30
G1 X4.4196 Y27.9563 F25
G3 X4.3353 Y27.9235 I0 J-0.125
G1 X4.0964 Y27.7051
G1 X3.4497 Y27.1141
G1 X2.873 Y26.5869
G1 X1.9874 Y25.7776
G3 X1.9472 Y25.6962 I0.0843 J-0.0923
G1 X1.9202 Y25.3874
G1 X1.4802 Y20.3879
G1 Z0 F30
G1 X1.4363 Y19.8898 F25
G1 Z-0.85 F30
G1 X1.0291 Y15.2631 F25
G3 X1.0286 Y15.2521 I0.1245 J-0.011
G3 X1.0615 Y15.1676 I0.125 J0
G1 X2.2038 Y13.9234
G1 X0.834 Y12.6713
G3 X0.7938 Y12.59 I0.0843 J-0.0923
G1 X0.258 Y6.5032
G1 Z0 F30
G1 X0.2142 Y6.0051 F25
G1 Z-0.85 F30
G1 X-0.1245 Y2.1569 F25
G3 X-0.125 Y2.146 I0.1245 J-0.011
G3 X-0.0921 Y2.0614 I0.125 J0
G1 X0.1084 Y1.8431
G1 X1.1349 Y0.7249
G1 X1.878 Y-0.0845
G3 X1.9701 Y-0.125 I0.0921 J0.0845
G1 X2.2807 Y-0.125
G1 X7.8631 Y-0.125
G1 Z0 F30
G1 X8.3631 Y-0.125 F25
G1 Z-0.85 F30
G1 X14.9021 Y-0.125 F25
G3 X14.9864 Y-0.0923 I0 J0.125
G1 X15.872 Y0.7171
G1 X17.3343 Y2.0537
G3 X17.3745 Y2.1351 I-0.0843 J0.0923
G1 X17.4015 Y2.4437
G1 X17.6714 Y5.5102
G1 Z0 F30
G1 X17.7152 Y6.0082 F25
G1 Z-0.85 F30
G1 X18.2926 Y12.5681 F25
G3 X18.2931 Y12.579 I-0.1245 J0.011
G3 X18.2602 Y12.6636 I-0.125 J0
G1 X17.1179 Y13.9079
G1 X18.4877 Y15.1599
G3 X18.5279 Y15.2412 I-0.0843 J0.0923
G1 X18.9244 Y19.7463
G1 Z0 F30
G1 X18.9683 Y20.2444 F25
G1 Z-0.85 F30
G1 X19.4462 Y25.6743 F25
G3 X19.4467 Y25.6853 I-0.1245 J0.011
G3 X19.4138 Y25.7698 I-0.125 J0
G1 X19.2134 Y25.9881
G1 X18.6707 Y26.5792
G1 X18.1868 Y27.1063
G1 X17.4437 Y27.9158
G3 X17.3516 Y27.9563 I-0.0921 J-0.0845
G0 Z0.75
M5
M30
