(Generated by PartKam Version 0.05)

G20 G90 G40

(A)
G0 Z0.5
T0 M6
G17
M3
G0 X-5.4426 Y24.8903
G1 Z-0.05 F30
G1 X-11.2268 Y24.8903 F60
G1 X-11.7268 Y24.8903
G1 X-17.6499 Y24.8903
G1 X-18.1683 Y24.4165
G1 X-17.7161 Y23.9239
G1 X-17.3779 Y23.5556
G1 X-16.7797 Y22.9039
G1 X-6.6938 Y22.9039
G1 X-6.005 Y23.5334
G1 X-5.6359 Y23.8708
G1 X-5.0219 Y24.432
G1 X-5.4426 Y24.8903
G1 Z-0.1 F30
G1 X-11.2268 Y24.8903 F60
G1 X-11.7268 Y24.8903
G1 X-17.6499 Y24.8903
G1 X-18.1683 Y24.4165
G1 X-17.7161 Y23.9239
G1 X-17.3779 Y23.5556
G1 X-16.7797 Y22.9039
G1 X-6.6938 Y22.9039
G1 X-6.005 Y23.5334
G1 X-5.6359 Y23.8708
G1 X-5.0219 Y24.432
G1 X-5.4426 Y24.8903
G1 Z-0.15 F30
G1 X-11.2268 Y24.8903 F60
G1 X-11.7268 Y24.8903
G1 X-17.6499 Y24.8903
G1 X-18.1683 Y24.4165
G1 X-17.7161 Y23.9239
G1 X-17.3779 Y23.5556
G1 X-16.7797 Y22.9039
G1 X-6.6938 Y22.9039
G1 X-6.005 Y23.5334
G1 X-5.6359 Y23.8708
G1 X-5.0219 Y24.432
G1 X-5.4426 Y24.8903
G1 Z-0.2 F30
G1 X-11.2268 Y24.8903 F60
G1 X-11.7268 Y24.8903
G1 X-17.6499 Y24.8903
G1 X-18.1683 Y24.4165
G1 X-17.7161 Y23.9239
G1 X-17.3779 Y23.5556
G1 X-16.7797 Y22.9039
G1 X-6.6938 Y22.9039
G1 X-6.005 Y23.5334
G1 X-5.6359 Y23.8708
G1 X-5.0219 Y24.432
G1 X-5.4426 Y24.8903
G1 Z-0.25 F30
G1 X-11.2268 Y24.8903 F60
G1 X-11.7268 Y24.8903
G1 X-17.6499 Y24.8903
G1 X-18.1683 Y24.4165
G1 X-17.7161 Y23.9239
G1 X-17.3779 Y23.5556
G1 X-16.7797 Y22.9039
G1 X-6.6938 Y22.9039
G1 X-6.005 Y23.5334
G1 X-5.6359 Y23.8708
G1 X-5.0219 Y24.432
G1 X-5.4426 Y24.8903
G1 Z-0.3 F30
G1 X-11.2268 Y24.8903 F60
G1 Z-0.25 F30
G1 X-11.7268 Y24.8903 F60
G1 Z-0.3 F30
G1 X-17.6499 Y24.8903 F60
G1 X-18.1683 Y24.4165
G1 X-17.7161 Y23.9239
G1 Z-0.25 F30
G1 X-17.3779 Y23.5556 F60
G1 Z-0.3 F30
G1 X-16.7797 Y22.9039 F60
G1 X-6.6938 Y22.9039
G1 X-6.005 Y23.5334
G1 Z-0.25 F30
G1 X-5.6359 Y23.8708 F60
G1 Z-0.3 F30
G1 X-5.0219 Y24.432 F60
G1 X-5.4426 Y24.8903
G1 Z-0.35 F30
G1 X-11.2268 Y24.8903 F60
G1 Z-0.25 F30
G1 X-11.7268 Y24.8903 F60
G1 Z-0.35 F30
G1 X-17.6499 Y24.8903 F60
G1 X-18.1683 Y24.4165
G1 X-17.7161 Y23.9239
G1 Z-0.25 F30
G1 X-17.3779 Y23.5556 F60
G1 Z-0.35 F30
G1 X-16.7797 Y22.9039 F60
G1 X-6.6938 Y22.9039
G1 X-6.005 Y23.5334
G1 Z-0.25 F30
G1 X-5.6359 Y23.8708 F60
G1 Z-0.35 F30
G1 X-5.0219 Y24.432 F60
G1 X-5.4426 Y24.8903
G1 Z-0.4 F30
G1 X-11.2268 Y24.8903 F60
G1 Z-0.25 F30
G1 X-11.7268 Y24.8903 F60
G1 Z-0.4 F30
G1 X-17.6499 Y24.8903 F60
G1 X-18.1683 Y24.4165
G1 X-17.7161 Y23.9239
G1 Z-0.25 F30
G1 X-17.3779 Y23.5556 F60
G1 Z-0.4 F30
G1 X-16.7797 Y22.9039 F60
G1 X-6.6938 Y22.9039
G1 X-6.005 Y23.5334
G1 Z-0.25 F30
G1 X-5.6359 Y23.8708 F60
G1 Z-0.4 F30
G1 X-5.0219 Y24.432 F60
G1 X-5.4426 Y24.8903
G1 Z-0.45 F30
G1 X-11.2268 Y24.8903 F60
G1 Z-0.25 F30
G1 X-11.7268 Y24.8903 F60
G1 Z-0.45 F30
G1 X-17.6499 Y24.8903 F60
G1 X-18.1683 Y24.4165
G1 X-17.7161 Y23.9239
G1 Z-0.25 F30
G1 X-17.3779 Y23.5556 F60
G1 Z-0.45 F30
G1 X-16.7797 Y22.9039 F60
G1 X-6.6938 Y22.9039
G1 X-6.005 Y23.5334
G1 Z-0.25 F30
G1 X-5.6359 Y23.8708 F60
G1 Z-0.45 F30
G1 X-5.0219 Y24.432 F60
G1 X-5.4426 Y24.8903
G1 Z-0.5 F30
G1 X-11.2268 Y24.8903 F60
G1 Z-0.25 F30
G1 X-11.7268 Y24.8903 F60
G1 Z-0.5 F30
G1 X-17.6499 Y24.8903 F60
G1 X-18.1683 Y24.4165
G1 X-17.7161 Y23.9239
G1 Z-0.25 F30
G1 X-17.3779 Y23.5556 F60
G1 Z-0.5 F30
G1 X-16.7797 Y22.9039 F60
G1 X-6.6938 Y22.9039
G1 X-6.005 Y23.5334
G1 Z-0.25 F30
G1 X-5.6359 Y23.8708 F60
G1 Z-0.5 F30
G1 X-5.0219 Y24.432 F60
G1 X-5.4426 Y24.8903
G1 Z-0.55 F30
G1 X-11.2268 Y24.8903 F60
G1 Z-0.25 F30
G1 X-11.7268 Y24.8903 F60
G1 Z-0.55 F30
G1 X-17.6499 Y24.8903 F60
G1 X-18.1683 Y24.4165
G1 X-17.7161 Y23.9239
G1 Z-0.25 F30
G1 X-17.3779 Y23.5556 F60
G1 Z-0.55 F30
G1 X-16.7797 Y22.9039 F60
G1 X-6.6938 Y22.9039
G1 X-6.005 Y23.5334
G1 Z-0.25 F30
G1 X-5.6359 Y23.8708 F60
G1 Z-0.55 F30
G1 X-5.0219 Y24.432 F60
G1 X-5.4426 Y24.8903
G1 Z-0.6 F30
G1 X-11.2268 Y24.8903 F60
G1 Z-0.25 F30
G1 X-11.7268 Y24.8903 F60
G1 Z-0.6 F30
G1 X-17.6499 Y24.8903 F60
G1 X-18.1683 Y24.4165
G1 X-17.7161 Y23.9239
G1 Z-0.25 F30
G1 X-17.3779 Y23.5556 F60
G1 Z-0.6 F30
G1 X-16.7797 Y22.9039 F60
G1 X-6.6938 Y22.9039
G1 X-6.005 Y23.5334
G1 Z-0.25 F30
G1 X-5.6359 Y23.8708 F60
G1 Z-0.6 F30
G1 X-5.0219 Y24.432 F60
G1 X-5.4426 Y24.8903
G1 Z-0.65 F30
G1 X-11.2268 Y24.8903 F60
G1 Z-0.25 F30
G1 X-11.7268 Y24.8903 F60
G1 Z-0.65 F30
G1 X-17.6499 Y24.8903 F60
G1 X-18.1683 Y24.4165
G1 X-17.7161 Y23.9239
G1 Z-0.25 F30
G1 X-17.3779 Y23.5556 F60
G1 Z-0.65 F30
G1 X-16.7797 Y22.9039 F60
G1 X-6.6938 Y22.9039
G1 X-6.005 Y23.5334
G1 Z-0.25 F30
G1 X-5.6359 Y23.8708 F60
G1 Z-0.65 F30
G1 X-5.0219 Y24.432 F60
G1 X-5.4426 Y24.8903
G1 Z-0.7 F30
G1 X-11.2268 Y24.8903 F60
G1 Z-0.25 F30
G1 X-11.7268 Y24.8903 F60
G1 Z-0.7 F30
G1 X-17.6499 Y24.8903 F60
G1 X-18.1683 Y24.4165
G1 X-17.7161 Y23.9239
G1 Z-0.25 F30
G1 X-17.3779 Y23.5556 F60
G1 Z-0.7 F30
G1 X-16.7797 Y22.9039 F60
G1 X-6.6938 Y22.9039
G1 X-6.005 Y23.5334
G1 Z-0.25 F30
G1 X-5.6359 Y23.8708 F60
G1 Z-0.7 F30
G1 X-5.0219 Y24.432 F60
G1 X-5.4426 Y24.8903
G1 Z-0.75 F30
G1 X-11.2268 Y24.8903 F60
G1 Z-0.25 F30
G1 X-11.7268 Y24.8903 F60
G1 Z-0.75 F30
G1 X-17.6499 Y24.8903 F60
G1 X-18.1683 Y24.4165
G1 X-17.7161 Y23.9239
G1 Z-0.25 F30
G1 X-17.3779 Y23.5556 F60
G1 Z-0.75 F30
G1 X-16.7797 Y22.9039 F60
G1 X-6.6938 Y22.9039
G1 X-6.005 Y23.5334
G1 Z-0.25 F30
G1 X-5.6359 Y23.8708 F60
G1 Z-0.75 F30
G1 X-5.0219 Y24.432 F60
G1 X-5.4426 Y24.8903

(profile 2)
G0 Z0.5
G0 X-19.962 Y-1.1997
G1 Z-0.05 F30
G1 X-14.4013 Y-1.1997 F60
G1 X-13.9013 Y-1.1997
G1 X-7.7547 Y-1.1997
G1 X-7.2363 Y-0.7258
G1 X-7.7263 Y-0.1921
G1 X-8.0645 Y0.1762
G1 X-8.6249 Y0.7867
G1 X-12.9951 Y0.7867
G1 X-13.4951 Y0.7867
G1 X-18.7108 Y0.7867
G1 X-19.5027 Y0.063
G1 X-19.8718 Y-0.2743
G1 X-20.3827 Y-0.7414
G1 X-19.962 Y-1.1997
G1 Z-0.1 F30
G1 X-14.4013 Y-1.1997 F60
G1 X-13.9013 Y-1.1997
G1 X-7.7547 Y-1.1997
G1 X-7.2363 Y-0.7258
G1 X-7.7263 Y-0.1921
G1 X-8.0645 Y0.1762
G1 X-8.6249 Y0.7867
G1 X-12.9951 Y0.7867
G1 X-13.4951 Y0.7867
G1 X-18.7108 Y0.7867
G1 X-19.5027 Y0.063
G1 X-19.8718 Y-0.2743
G1 X-20.3827 Y-0.7414
G1 X-19.962 Y-1.1997
G1 Z-0.15 F30
G1 X-14.4013 Y-1.1997 F60
G1 X-13.9013 Y-1.1997
G1 X-7.7547 Y-1.1997
G1 X-7.2363 Y-0.7258
G1 X-7.7263 Y-0.1921
G1 X-8.0645 Y0.1762
G1 X-8.6249 Y0.7867
G1 X-12.9951 Y0.7867
G1 X-13.4951 Y0.7867
G1 X-18.7108 Y0.7867
G1 X-19.5027 Y0.063
G1 X-19.8718 Y-0.2743
G1 X-20.3827 Y-0.7414
G1 X-19.962 Y-1.1997
G1 Z-0.2 F30
G1 X-14.4013 Y-1.1997 F60
G1 X-13.9013 Y-1.1997
G1 X-7.7547 Y-1.1997
G1 X-7.2363 Y-0.7258
G1 X-7.7263 Y-0.1921
G1 X-8.0645 Y0.1762
G1 X-8.6249 Y0.7867
G1 X-12.9951 Y0.7867
G1 X-13.4951 Y0.7867
G1 X-18.7108 Y0.7867
G1 X-19.5027 Y0.063
G1 X-19.8718 Y-0.2743
G1 X-20.3827 Y-0.7414
G1 X-19.962 Y-1.1997
G1 Z-0.25 F30
G1 X-14.4013 Y-1.1997 F60
G1 X-13.9013 Y-1.1997
G1 X-7.7547 Y-1.1997
G1 X-7.2363 Y-0.7258
G1 X-7.7263 Y-0.1921
G1 X-8.0645 Y0.1762
G1 X-8.6249 Y0.7867
G1 X-12.9951 Y0.7867
G1 X-13.4951 Y0.7867
G1 X-18.7108 Y0.7867
G1 X-19.5027 Y0.063
G1 X-19.8718 Y-0.2743
G1 X-20.3827 Y-0.7414
G1 X-19.962 Y-1.1997
G1 Z-0.3 F30
G1 X-14.4013 Y-1.1997 F60
G1 Z-0.25 F30
G1 X-13.9013 Y-1.1997 F60
G1 Z-0.3 F30
G1 X-7.7547 Y-1.1997 F60
G1 X-7.2363 Y-0.7258
G1 X-7.7263 Y-0.1921
G1 Z-0.25 F30
G1 X-8.0645 Y0.1762 F60
G1 Z-0.3 F30
G1 X-8.6249 Y0.7867 F60
G1 X-12.9951 Y0.7867
G1 Z-0.25 F30
G1 X-13.4951 Y0.7867 F60
G1 Z-0.3 F30
G1 X-18.7108 Y0.7867 F60
G1 X-19.5027 Y0.063
G1 Z-0.25 F30
G1 X-19.8718 Y-0.2743 F60
G1 Z-0.3 F30
G1 X-20.3827 Y-0.7414 F60
G1 X-19.962 Y-1.1997
G1 Z-0.35 F30
G1 X-14.4013 Y-1.1997 F60
G1 Z-0.25 F30
G1 X-13.9013 Y-1.1997 F60
G1 Z-0.35 F30
G1 X-7.7547 Y-1.1997 F60
G1 X-7.2363 Y-0.7258
G1 X-7.7263 Y-0.1921
G1 Z-0.25 F30
G1 X-8.0645 Y0.1762 F60
G1 Z-0.35 F30
G1 X-8.6249 Y0.7867 F60
G1 X-12.9951 Y0.7867
G1 Z-0.25 F30
G1 X-13.4951 Y0.7867 F60
G1 Z-0.35 F30
G1 X-18.7108 Y0.7867 F60
G1 X-19.5027 Y0.063
G1 Z-0.25 F30
G1 X-19.8718 Y-0.2743 F60
G1 Z-0.35 F30
G1 X-20.3827 Y-0.7414 F60
G1 X-19.962 Y-1.1997
G1 Z-0.4 F30
G1 X-14.4013 Y-1.1997 F60
G1 Z-0.25 F30
G1 X-13.9013 Y-1.1997 F60
G1 Z-0.4 F30
G1 X-7.7547 Y-1.1997 F60
G1 X-7.2363 Y-0.7258
G1 X-7.7263 Y-0.1921
G1 Z-0.25 F30
G1 X-8.0645 Y0.1762 F60
G1 Z-0.4 F30
G1 X-8.6249 Y0.7867 F60
G1 X-12.9951 Y0.7867
G1 Z-0.25 F30
G1 X-13.4951 Y0.7867 F60
G1 Z-0.4 F30
G1 X-18.7108 Y0.7867 F60
G1 X-19.5027 Y0.063
G1 Z-0.25 F30
G1 X-19.8718 Y-0.2743 F60
G1 Z-0.4 F30
G1 X-20.3827 Y-0.7414 F60
G1 X-19.962 Y-1.1997
G1 Z-0.45 F30
G1 X-14.4013 Y-1.1997 F60
G1 Z-0.25 F30
G1 X-13.9013 Y-1.1997 F60
G1 Z-0.45 F30
G1 X-7.7547 Y-1.1997 F60
G1 X-7.2363 Y-0.7258
G1 X-7.7263 Y-0.1921
G1 Z-0.25 F30
G1 X-8.0645 Y0.1762 F60
G1 Z-0.45 F30
G1 X-8.6249 Y0.7867 F60
G1 X-12.9951 Y0.7867
G1 Z-0.25 F30
G1 X-13.4951 Y0.7867 F60
G1 Z-0.45 F30
G1 X-18.7108 Y0.7867 F60
G1 X-19.5027 Y0.063
G1 Z-0.25 F30
G1 X-19.8718 Y-0.2743 F60
G1 Z-0.45 F30
G1 X-20.3827 Y-0.7414 F60
G1 X-19.962 Y-1.1997
G1 Z-0.5 F30
G1 X-14.4013 Y-1.1997 F60
G1 Z-0.25 F30
G1 X-13.9013 Y-1.1997 F60
G1 Z-0.5 F30
G1 X-7.7547 Y-1.1997 F60
G1 X-7.2363 Y-0.7258
G1 X-7.7263 Y-0.1921
G1 Z-0.25 F30
G1 X-8.0645 Y0.1762 F60
G1 Z-0.5 F30
G1 X-8.6249 Y0.7867 F60
G1 X-12.9951 Y0.7867
G1 Z-0.25 F30
G1 X-13.4951 Y0.7867 F60
G1 Z-0.5 F30
G1 X-18.7108 Y0.7867 F60
G1 X-19.5027 Y0.063
G1 Z-0.25 F30
G1 X-19.8718 Y-0.2743 F60
G1 Z-0.5 F30
G1 X-20.3827 Y-0.7414 F60
G1 X-19.962 Y-1.1997
G1 Z-0.55 F30
G1 X-14.4013 Y-1.1997 F60
G1 Z-0.25 F30
G1 X-13.9013 Y-1.1997 F60
G1 Z-0.55 F30
G1 X-7.7547 Y-1.1997 F60
G1 X-7.2363 Y-0.7258
G1 X-7.7263 Y-0.1921
G1 Z-0.25 F30
G1 X-8.0645 Y0.1762 F60
G1 Z-0.55 F30
G1 X-8.6249 Y0.7867 F60
G1 X-12.9951 Y0.7867
G1 Z-0.25 F30
G1 X-13.4951 Y0.7867 F60
G1 Z-0.55 F30
G1 X-18.7108 Y0.7867 F60
G1 X-19.5027 Y0.063
G1 Z-0.25 F30
G1 X-19.8718 Y-0.2743 F60
G1 Z-0.55 F30
G1 X-20.3827 Y-0.7414 F60
G1 X-19.962 Y-1.1997
G1 Z-0.6 F30
G1 X-14.4013 Y-1.1997 F60
G1 Z-0.25 F30
G1 X-13.9013 Y-1.1997 F60
G1 Z-0.6 F30
G1 X-7.7547 Y-1.1997 F60
G1 X-7.2363 Y-0.7258
G1 X-7.7263 Y-0.1921
G1 Z-0.25 F30
G1 X-8.0645 Y0.1762 F60
G1 Z-0.6 F30
G1 X-8.6249 Y0.7867 F60
G1 X-12.9951 Y0.7867
G1 Z-0.25 F30
G1 X-13.4951 Y0.7867 F60
G1 Z-0.6 F30
G1 X-18.7108 Y0.7867 F60
G1 X-19.5027 Y0.063
G1 Z-0.25 F30
G1 X-19.8718 Y-0.2743 F60
G1 Z-0.6 F30
G1 X-20.3827 Y-0.7414 F60
G1 X-19.962 Y-1.1997
G1 Z-0.65 F30
G1 X-14.4013 Y-1.1997 F60
G1 Z-0.25 F30
G1 X-13.9013 Y-1.1997 F60
G1 Z-0.65 F30
G1 X-7.7547 Y-1.1997 F60
G1 X-7.2363 Y-0.7258
G1 X-7.7263 Y-0.1921
G1 Z-0.25 F30
G1 X-8.0645 Y0.1762 F60
G1 Z-0.65 F30
G1 X-8.6249 Y0.7867 F60
G1 X-12.9951 Y0.7867
G1 Z-0.25 F30
G1 X-13.4951 Y0.7867 F60
G1 Z-0.65 F30
G1 X-18.7108 Y0.7867 F60
G1 X-19.5027 Y0.063
G1 Z-0.25 F30
G1 X-19.8718 Y-0.2743 F60
G1 Z-0.65 F30
G1 X-20.3827 Y-0.7414 F60
G1 X-19.962 Y-1.1997
G1 Z-0.7 F30
G1 X-14.4013 Y-1.1997 F60
G1 Z-0.25 F30
G1 X-13.9013 Y-1.1997 F60
G1 Z-0.7 F30
G1 X-7.7547 Y-1.1997 F60
G1 X-7.2363 Y-0.7258
G1 X-7.7263 Y-0.1921
G1 Z-0.25 F30
G1 X-8.0645 Y0.1762 F60
G1 Z-0.7 F30
G1 X-8.6249 Y0.7867 F60
G1 X-12.9951 Y0.7867
G1 Z-0.25 F30
G1 X-13.4951 Y0.7867 F60
G1 Z-0.7 F30
G1 X-18.7108 Y0.7867 F60
G1 X-19.5027 Y0.063
G1 Z-0.25 F30
G1 X-19.8718 Y-0.2743 F60
G1 Z-0.7 F30
G1 X-20.3827 Y-0.7414 F60
G1 X-19.962 Y-1.1997
G1 Z-0.75 F30
G1 X-14.4013 Y-1.1997 F60
G1 Z-0.25 F30
G1 X-13.9013 Y-1.1997 F60
G1 Z-0.75 F30
G1 X-7.7547 Y-1.1997 F60
G1 X-7.2363 Y-0.7258
G1 X-7.7263 Y-0.1921
G1 Z-0.25 F30
G1 X-8.0645 Y0.1762 F60
G1 Z-0.75 F30
G1 X-8.6249 Y0.7867 F60
G1 X-12.9951 Y0.7867
G1 Z-0.25 F30
G1 X-13.4951 Y0.7867 F60
G1 Z-0.75 F30
G1 X-18.7108 Y0.7867 F60
G1 X-19.5027 Y0.063
G1 Z-0.25 F30
G1 X-19.8718 Y-0.2743 F60
G1 Z-0.75 F30
G1 X-20.3827 Y-0.7414 F60
G1 X-19.962 Y-1.1997
G0 Z0.5
G0 X-4.8028 Y13.5499
G1 Z-0.05 F30
G1 X-4.4266 Y17.8238 F60
G1 X-4.3827 Y18.3219
G1 X-3.9479 Y23.2621
G1 X-4.3689 Y23.7207
G1 X-5.0316 Y23.1149
G1 X-5.4007 Y22.7776
G1 X-6.0411 Y22.1923
G1 X-6.3574 Y18.5986
G1 X-6.4012 Y18.1006
G1 X-6.8031 Y13.5344
G1 X-5.8982 Y12.5487
G1 X-4.8028 Y13.5499
G1 Z-0.1 F30
G1 X-4.4266 Y17.8238 F60
G1 X-4.3827 Y18.3219
G1 X-3.9479 Y23.2621
G1 X-4.3689 Y23.7207
G1 X-5.0316 Y23.1149
G1 X-5.4007 Y22.7776
G1 X-6.0411 Y22.1923
G1 X-6.3574 Y18.5986
G1 X-6.4012 Y18.1006
G1 X-6.8031 Y13.5344
G1 X-5.8982 Y12.5487
G1 X-4.8028 Y13.5499
G1 Z-0.15 F30
G1 X-4.4266 Y17.8238 F60
G1 X-4.3827 Y18.3219
G1 X-3.9479 Y23.2621
G1 X-4.3689 Y23.7207
G1 X-5.0316 Y23.1149
G1 X-5.4007 Y22.7776
G1 X-6.0411 Y22.1923
G1 X-6.3574 Y18.5986
G1 X-6.4012 Y18.1006
G1 X-6.8031 Y13.5344
G1 X-5.8982 Y12.5487
G1 X-4.8028 Y13.5499
G1 Z-0.2 F30
G1 X-4.4266 Y17.8238 F60
G1 X-4.3827 Y18.3219
G1 X-3.9479 Y23.2621
G1 X-4.3689 Y23.7207
G1 X-5.0316 Y23.1149
G1 X-5.4007 Y22.7776
G1 X-6.0411 Y22.1923
G1 X-6.3574 Y18.5986
G1 X-6.4012 Y18.1006
G1 X-6.8031 Y13.5344
G1 X-5.8982 Y12.5487
G1 X-4.8028 Y13.5499
G1 Z-0.25 F30
G1 X-4.4266 Y17.8238 F60
G1 X-4.3827 Y18.3219
G1 X-3.9479 Y23.2621
G1 X-4.3689 Y23.7207
G1 X-5.0316 Y23.1149
G1 X-5.4007 Y22.7776
G1 X-6.0411 Y22.1923
G1 X-6.3574 Y18.5986
G1 X-6.4012 Y18.1006
G1 X-6.8031 Y13.5344
G1 X-5.8982 Y12.5487
G1 X-4.8028 Y13.5499
G1 Z-0.3 F30
G1 X-4.4266 Y17.8238 F60
G1 Z-0.25 F30
G1 X-4.3827 Y18.3219 F60
G1 Z-0.3 F30
G1 X-3.9479 Y23.2621 F60
G1 X-4.3689 Y23.7207
G1 X-5.0316 Y23.1149
G1 Z-0.25 F30
G1 X-5.4007 Y22.7776 F60
G1 Z-0.3 F30
G1 X-6.0411 Y22.1923 F60
G1 X-6.3574 Y18.5986
G1 Z-0.25 F30
G1 X-6.4012 Y18.1006 F60
G1 Z-0.3 F30
G1 X-6.8031 Y13.5344 F60
G1 X-5.8982 Y12.5487
G1 X-4.8028 Y13.5499
G1 Z-0.35 F30
G1 X-4.4266 Y17.8238 F60
G1 Z-0.25 F30
G1 X-4.3827 Y18.3219 F60
G1 Z-0.35 F30
G1 X-3.9479 Y23.2621 F60
G1 X-4.3689 Y23.7207
G1 X-5.0316 Y23.1149
G1 Z-0.25 F30
G1 X-5.4007 Y22.7776 F60
G1 Z-0.35 F30
G1 X-6.0411 Y22.1923 F60
G1 X-6.3574 Y18.5986
G1 Z-0.25 F30
G1 X-6.4012 Y18.1006 F60
G1 Z-0.35 F30
G1 X-6.8031 Y13.5344 F60
G1 X-5.8982 Y12.5487
G1 X-4.8028 Y13.5499
G1 Z-0.4 F30
G1 X-4.4266 Y17.8238 F60
G1 Z-0.25 F30
G1 X-4.3827 Y18.3219 F60
G1 Z-0.4 F30
G1 X-3.9479 Y23.2621 F60
G1 X-4.3689 Y23.7207
G1 X-5.0316 Y23.1149
G1 Z-0.25 F30
G1 X-5.4007 Y22.7776 F60
G1 Z-0.4 F30
G1 X-6.0411 Y22.1923 F60
G1 X-6.3574 Y18.5986
G1 Z-0.25 F30
G1 X-6.4012 Y18.1006 F60
G1 Z-0.4 F30
G1 X-6.8031 Y13.5344 F60
G1 X-5.8982 Y12.5487
G1 X-4.8028 Y13.5499
G1 Z-0.45 F30
G1 X-4.4266 Y17.8238 F60
G1 Z-0.25 F30
G1 X-4.3827 Y18.3219 F60
G1 Z-0.45 F30
G1 X-3.9479 Y23.2621 F60
G1 X-4.3689 Y23.7207
G1 X-5.0316 Y23.1149
G1 Z-0.25 F30
G1 X-5.4007 Y22.7776 F60
G1 Z-0.45 F30
G1 X-6.0411 Y22.1923 F60
G1 X-6.3574 Y18.5986
G1 Z-0.25 F30
G1 X-6.4012 Y18.1006 F60
G1 Z-0.45 F30
G1 X-6.8031 Y13.5344 F60
G1 X-5.8982 Y12.5487
G1 X-4.8028 Y13.5499
G1 Z-0.5 F30
G1 X-4.4266 Y17.8238 F60
G1 Z-0.25 F30
G1 X-4.3827 Y18.3219 F60
G1 Z-0.5 F30
G1 X-3.9479 Y23.2621 F60
G1 X-4.3689 Y23.7207
G1 X-5.0316 Y23.1149
G1 Z-0.25 F30
G1 X-5.4007 Y22.7776 F60
G1 Z-0.5 F30
G1 X-6.0411 Y22.1923 F60
G1 X-6.3574 Y18.5986
G1 Z-0.25 F30
G1 X-6.4012 Y18.1006 F60
G1 Z-0.5 F30
G1 X-6.8031 Y13.5344 F60
G1 X-5.8982 Y12.5487
G1 X-4.8028 Y13.5499
G1 Z-0.55 F30
G1 X-4.4266 Y17.8238 F60
G1 Z-0.25 F30
G1 X-4.3827 Y18.3219 F60
G1 Z-0.55 F30
G1 X-3.9479 Y23.2621 F60
G1 X-4.3689 Y23.7207
G1 X-5.0316 Y23.1149
G1 Z-0.25 F30
G1 X-5.4007 Y22.7776 F60
G1 Z-0.55 F30
G1 X-6.0411 Y22.1923 F60
G1 X-6.3574 Y18.5986
G1 Z-0.25 F30
G1 X-6.4012 Y18.1006 F60
G1 Z-0.55 F30
G1 X-6.8031 Y13.5344 F60
G1 X-5.8982 Y12.5487
G1 X-4.8028 Y13.5499
G1 Z-0.6 F30
G1 X-4.4266 Y17.8238 F60
G1 Z-0.25 F30
G1 X-4.3827 Y18.3219 F60
G1 Z-0.6 F30
G1 X-3.9479 Y23.2621 F60
G1 X-4.3689 Y23.7207
G1 X-5.0316 Y23.1149
G1 Z-0.25 F30
G1 X-5.4007 Y22.7776 F60
G1 Z-0.6 F30
G1 X-6.0411 Y22.1923 F60
G1 X-6.3574 Y18.5986
G1 Z-0.25 F30
G1 X-6.4012 Y18.1006 F60
G1 Z-0.6 F30
G1 X-6.8031 Y13.5344 F60
G1 X-5.8982 Y12.5487
G1 X-4.8028 Y13.5499
G1 Z-0.65 F30
G1 X-4.4266 Y17.8238 F60
G1 Z-0.25 F30
G1 X-4.3827 Y18.3219 F60
G1 Z-0.65 F30
G1 X-3.9479 Y23.2621 F60
G1 X-4.3689 Y23.7207
G1 X-5.0316 Y23.1149
G1 Z-0.25 F30
G1 X-5.4007 Y22.7776 F60
G1 Z-0.65 F30
G1 X-6.0411 Y22.1923 F60
G1 X-6.3574 Y18.5986
G1 Z-0.25 F30
G1 X-6.4012 Y18.1006 F60
G1 Z-0.65 F30
G1 X-6.8031 Y13.5344 F60
G1 X-5.8982 Y12.5487
G1 X-4.8028 Y13.5499
G1 Z-0.7 F30
G1 X-4.4266 Y17.8238 F60
G1 Z-0.25 F30
G1 X-4.3827 Y18.3219 F60
G1 Z-0.7 F30
G1 X-3.9479 Y23.2621 F60
G1 X-4.3689 Y23.7207
G1 X-5.0316 Y23.1149
G1 Z-0.25 F30
G1 X-5.4007 Y22.7776 F60
G1 Z-0.7 F30
G1 X-6.0411 Y22.1923 F60
G1 X-6.3574 Y18.5986
G1 Z-0.25 F30
G1 X-6.4012 Y18.1006 F60
G1 Z-0.7 F30
G1 X-6.8031 Y13.5344 F60
G1 X-5.8982 Y12.5487
G1 X-4.8028 Y13.5499
G1 Z-0.75 F30
G1 X-4.4266 Y17.8238 F60
G1 Z-0.25 F30
G1 X-4.3827 Y18.3219 F60
G1 Z-0.75 F30
G1 X-3.9479 Y23.2621 F60
G1 X-4.3689 Y23.7207
G1 X-5.0316 Y23.1149
G1 Z-0.25 F30
G1 X-5.4007 Y22.7776 F60
G1 Z-0.75 F30
G1 X-6.0411 Y22.1923 F60
G1 X-6.3574 Y18.5986
G1 Z-0.25 F30
G1 X-6.4012 Y18.1006 F60
G1 Z-0.75 F30
G1 X-6.8031 Y13.5344 F60
G1 X-5.8982 Y12.5487
G1 X-4.8028 Y13.5499
G0 Z0.5
G0 X-19.4483 Y23.2466
G1 Z-0.05 F30
G1 X-19.8867 Y18.2658 F60
G1 X-19.9305 Y17.7678
G1 X-20.3031 Y13.5344
G1 X-20.1339 Y13.35
G1 X-19.7957 Y12.9817
G1 X-19.3982 Y12.5487
G1 X-18.3027 Y13.5499
G1 X-17.5407 Y22.2078
G1 X-18.1312 Y22.851
G1 X-18.4693 Y23.2194
G1 X-18.9296 Y23.7207
G1 X-19.4483 Y23.2466
G1 Z-0.1 F30
G1 X-19.8867 Y18.2658 F60
G1 X-19.9305 Y17.7678
G1 X-20.3031 Y13.5344
G1 X-20.1339 Y13.35
G1 X-19.7957 Y12.9817
G1 X-19.3982 Y12.5487
G1 X-18.3027 Y13.5499
G1 X-17.5407 Y22.2078
G1 X-18.1312 Y22.851
G1 X-18.4693 Y23.2194
G1 X-18.9296 Y23.7207
G1 X-19.4483 Y23.2466
G1 Z-0.15 F30
G1 X-19.8867 Y18.2658 F60
G1 X-19.9305 Y17.7678
G1 X-20.3031 Y13.5344
G1 X-20.1339 Y13.35
G1 X-19.7957 Y12.9817
G1 X-19.3982 Y12.5487
G1 X-18.3027 Y13.5499
G1 X-17.5407 Y22.2078
G1 X-18.1312 Y22.851
G1 X-18.4693 Y23.2194
G1 X-18.9296 Y23.7207
G1 X-19.4483 Y23.2466
G1 Z-0.2 F30
G1 X-19.8867 Y18.2658 F60
G1 X-19.9305 Y17.7678
G1 X-20.3031 Y13.5344
G1 X-20.1339 Y13.35
G1 X-19.7957 Y12.9817
G1 X-19.3982 Y12.5487
G1 X-18.3027 Y13.5499
G1 X-17.5407 Y22.2078
G1 X-18.1312 Y22.851
G1 X-18.4693 Y23.2194
G1 X-18.9296 Y23.7207
G1 X-19.4483 Y23.2466
G1 Z-0.25 F30
G1 X-19.8867 Y18.2658 F60
G1 X-19.9305 Y17.7678
G1 X-20.3031 Y13.5344
G1 X-20.1339 Y13.35
G1 X-19.7957 Y12.9817
G1 X-19.3982 Y12.5487
G1 X-18.3027 Y13.5499
G1 X-17.5407 Y22.2078
G1 X-18.1312 Y22.851
G1 X-18.4693 Y23.2194
G1 X-18.9296 Y23.7207
G1 X-19.4483 Y23.2466
G1 Z-0.3 F30
G1 X-19.8867 Y18.2658 F60
G1 Z-0.25 F30
G1 X-19.9305 Y17.7678 F60
G1 Z-0.3 F30
G1 X-20.3031 Y13.5344 F60
G1 X-20.1339 Y13.35
G1 Z-0.25 F30
G1 X-19.7957 Y12.9817 F60
G1 Z-0.3 F30
G1 X-19.3982 Y12.5487 F60
G1 X-18.3027 Y13.5499
G1 X-17.5407 Y22.2078
G1 X-18.1312 Y22.851
G1 Z-0.25 F30
G1 X-18.4693 Y23.2194 F60
G1 Z-0.3 F30
G1 X-18.9296 Y23.7207 F60
G1 X-19.4483 Y23.2466
G1 Z-0.35 F30
G1 X-19.8867 Y18.2658 F60
G1 Z-0.25 F30
G1 X-19.9305 Y17.7678 F60
G1 Z-0.35 F30
G1 X-20.3031 Y13.5344 F60
G1 X-20.1339 Y13.35
G1 Z-0.25 F30
G1 X-19.7957 Y12.9817 F60
G1 Z-0.35 F30
G1 X-19.3982 Y12.5487 F60
G1 X-18.3027 Y13.5499
G1 X-17.5407 Y22.2078
G1 X-18.1312 Y22.851
G1 Z-0.25 F30
G1 X-18.4693 Y23.2194 F60
G1 Z-0.35 F30
G1 X-18.9296 Y23.7207 F60
G1 X-19.4483 Y23.2466
G1 Z-0.4 F30
G1 X-19.8867 Y18.2658 F60
G1 Z-0.25 F30
G1 X-19.9305 Y17.7678 F60
G1 Z-0.4 F30
G1 X-20.3031 Y13.5344 F60
G1 X-20.1339 Y13.35
G1 Z-0.25 F30
G1 X-19.7957 Y12.9817 F60
G1 Z-0.4 F30
G1 X-19.3982 Y12.5487 F60
G1 X-18.3027 Y13.5499
G1 X-17.5407 Y22.2078
G1 X-18.1312 Y22.851
G1 Z-0.25 F30
G1 X-18.4693 Y23.2194 F60
G1 Z-0.4 F30
G1 X-18.9296 Y23.7207 F60
G1 X-19.4483 Y23.2466
G1 Z-0.45 F30
G1 X-19.8867 Y18.2658 F60
G1 Z-0.25 F30
G1 X-19.9305 Y17.7678 F60
G1 Z-0.45 F30
G1 X-20.3031 Y13.5344 F60
G1 X-20.1339 Y13.35
G1 Z-0.25 F30
G1 X-19.7957 Y12.9817 F60
G1 Z-0.45 F30
G1 X-19.3982 Y12.5487 F60
G1 X-18.3027 Y13.5499
G1 X-17.5407 Y22.2078
G1 X-18.1312 Y22.851
G1 Z-0.25 F30
G1 X-18.4693 Y23.2194 F60
G1 Z-0.45 F30
G1 X-18.9296 Y23.7207 F60
G1 X-19.4483 Y23.2466
G1 Z-0.5 F30
G1 X-19.8867 Y18.2658 F60
G1 Z-0.25 F30
G1 X-19.9305 Y17.7678 F60
G1 Z-0.5 F30
G1 X-20.3031 Y13.5344 F60
G1 X-20.1339 Y13.35
G1 Z-0.25 F30
G1 X-19.7957 Y12.9817 F60
G1 Z-0.5 F30
G1 X-19.3982 Y12.5487 F60
G1 X-18.3027 Y13.5499
G1 X-17.5407 Y22.2078
G1 X-18.1312 Y22.851
G1 Z-0.25 F30
G1 X-18.4693 Y23.2194 F60
G1 Z-0.5 F30
G1 X-18.9296 Y23.7207 F60
G1 X-19.4483 Y23.2466
G1 Z-0.55 F30
G1 X-19.8867 Y18.2658 F60
G1 Z-0.25 F30
G1 X-19.9305 Y17.7678 F60
G1 Z-0.55 F30
G1 X-20.3031 Y13.5344 F60
G1 X-20.1339 Y13.35
G1 Z-0.25 F30
G1 X-19.7957 Y12.9817 F60
G1 Z-0.55 F30
G1 X-19.3982 Y12.5487 F60
G1 X-18.3027 Y13.5499
G1 X-17.5407 Y22.2078
G1 X-18.1312 Y22.851
G1 Z-0.25 F30
G1 X-18.4693 Y23.2194 F60
G1 Z-0.55 F30
G1 X-18.9296 Y23.7207 F60
G1 X-19.4483 Y23.2466
G1 Z-0.6 F30
G1 X-19.8867 Y18.2658 F60
G1 Z-0.25 F30
G1 X-19.9305 Y17.7678 F60
G1 Z-0.6 F30
G1 X-20.3031 Y13.5344 F60
G1 X-20.1339 Y13.35
G1 Z-0.25 F30
G1 X-19.7957 Y12.9817 F60
G1 Z-0.6 F30
G1 X-19.3982 Y12.5487 F60
G1 X-18.3027 Y13.5499
G1 X-17.5407 Y22.2078
G1 X-18.1312 Y22.851
G1 Z-0.25 F30
G1 X-18.4693 Y23.2194 F60
G1 Z-0.6 F30
G1 X-18.9296 Y23.7207 F60
G1 X-19.4483 Y23.2466
G1 Z-0.65 F30
G1 X-19.8867 Y18.2658 F60
G1 Z-0.25 F30
G1 X-19.9305 Y17.7678 F60
G1 Z-0.65 F30
G1 X-20.3031 Y13.5344 F60
G1 X-20.1339 Y13.35
G1 Z-0.25 F30
G1 X-19.7957 Y12.9817 F60
G1 Z-0.65 F30
G1 X-19.3982 Y12.5487 F60
G1 X-18.3027 Y13.5499
G1 X-17.5407 Y22.2078
G1 X-18.1312 Y22.851
G1 Z-0.25 F30
G1 X-18.4693 Y23.2194 F60
G1 Z-0.65 F30
G1 X-18.9296 Y23.7207 F60
G1 X-19.4483 Y23.2466
G1 Z-0.7 F30
G1 X-19.8867 Y18.2658 F60
G1 Z-0.25 F30
G1 X-19.9305 Y17.7678 F60
G1 Z-0.7 F30
G1 X-20.3031 Y13.5344 F60
G1 X-20.1339 Y13.35
G1 Z-0.25 F30
G1 X-19.7957 Y12.9817 F60
G1 Z-0.7 F30
G1 X-19.3982 Y12.5487 F60
G1 X-18.3027 Y13.5499
G1 X-17.5407 Y22.2078
G1 X-18.1312 Y22.851
G1 Z-0.25 F30
G1 X-18.4693 Y23.2194 F60
G1 Z-0.7 F30
G1 X-18.9296 Y23.7207 F60
G1 X-19.4483 Y23.2466
G1 Z-0.75 F30
G1 X-19.8867 Y18.2658 F60
G1 Z-0.25 F30
G1 X-19.9305 Y17.7678 F60
G1 Z-0.75 F30
G1 X-20.3031 Y13.5344 F60
G1 X-20.1339 Y13.35
G1 Z-0.25 F30
G1 X-19.7957 Y12.9817 F60
G1 Z-0.75 F30
G1 X-19.3982 Y12.5487 F60
G1 X-18.3027 Y13.5499
G1 X-17.5407 Y22.2078
G1 X-18.1312 Y22.851
G1 Z-0.25 F30
G1 X-18.4693 Y23.2194 F60
G1 Z-0.75 F30
G1 X-18.9296 Y23.7207 F60
G1 X-19.4483 Y23.2466
G0 Z0.5
G0 X-5.9564 Y0.4438
G1 Z-0.05 F30
G1 X-5.5179 Y5.4245 F60
G1 X-5.4741 Y5.9226
G1 X-5.1015 Y10.1559
G1 X-5.3888 Y10.4689
G1 X-5.7269 Y10.8373
G1 X-6.0064 Y11.1417
G1 X-7.1019 Y10.1404
G1 X-7.4582 Y6.0921
G1 X-7.502 Y5.5941
G1 X-7.864 Y1.4825
G1 X-7.3872 Y0.9632
G1 X-7.0491 Y0.5949
G1 X-6.475 Y-0.0303
G1 X-5.9564 Y0.4438
G1 Z-0.1 F30
G1 X-5.5179 Y5.4245 F60
G1 X-5.4741 Y5.9226
G1 X-5.1015 Y10.1559
G1 X-5.3888 Y10.4689
G1 X-5.7269 Y10.8373
G1 X-6.0064 Y11.1417
G1 X-7.1019 Y10.1404
G1 X-7.4582 Y6.0921
G1 X-7.502 Y5.5941
G1 X-7.864 Y1.4825
G1 X-7.3872 Y0.9632
G1 X-7.0491 Y0.5949
G1 X-6.475 Y-0.0303
G1 X-5.9564 Y0.4438
G1 Z-0.15 F30
G1 X-5.5179 Y5.4245 F60
G1 X-5.4741 Y5.9226
G1 X-5.1015 Y10.1559
G1 X-5.3888 Y10.4689
G1 X-5.7269 Y10.8373
G1 X-6.0064 Y11.1417
G1 X-7.1019 Y10.1404
G1 X-7.4582 Y6.0921
G1 X-7.502 Y5.5941
G1 X-7.864 Y1.4825
G1 X-7.3872 Y0.9632
G1 X-7.0491 Y0.5949
G1 X-6.475 Y-0.0303
G1 X-5.9564 Y0.4438
G1 Z-0.2 F30
G1 X-5.5179 Y5.4245 F60
G1 X-5.4741 Y5.9226
G1 X-5.1015 Y10.1559
G1 X-5.3888 Y10.4689
G1 X-5.7269 Y10.8373
G1 X-6.0064 Y11.1417
G1 X-7.1019 Y10.1404
G1 X-7.4582 Y6.0921
G1 X-7.502 Y5.5941
G1 X-7.864 Y1.4825
G1 X-7.3872 Y0.9632
G1 X-7.0491 Y0.5949
G1 X-6.475 Y-0.0303
G1 X-5.9564 Y0.4438
G1 Z-0.25 F30
G1 X-5.5179 Y5.4245 F60
G1 X-5.4741 Y5.9226
G1 X-5.1015 Y10.1559
G1 X-5.3888 Y10.4689
G1 X-5.7269 Y10.8373
G1 X-6.0064 Y11.1417
G1 X-7.1019 Y10.1404
G1 X-7.4582 Y6.0921
G1 X-7.502 Y5.5941
G1 X-7.864 Y1.4825
G1 X-7.3872 Y0.9632
G1 X-7.0491 Y0.5949
G1 X-6.475 Y-0.0303
G1 X-5.9564 Y0.4438
G1 Z-0.3 F30
G1 X-5.5179 Y5.4245 F60
G1 Z-0.25 F30
G1 X-5.4741 Y5.9226 F60
G1 Z-0.3 F30
G1 X-5.1015 Y10.1559 F60
G1 X-5.3888 Y10.4689
G1 Z-0.25 F30
G1 X-5.7269 Y10.8373 F60
G1 Z-0.3 F30
G1 X-6.0064 Y11.1417 F60
G1 X-7.1019 Y10.1404
G1 X-7.4582 Y6.0921
G1 Z-0.25 F30
G1 X-7.502 Y5.5941 F60
G1 Z-0.3 F30
G1 X-7.864 Y1.4825 F60
G1 X-7.3872 Y0.9632
G1 Z-0.25 F30
G1 X-7.0491 Y0.5949 F60
G1 Z-0.3 F30
G1 X-6.475 Y-0.0303 F60
G1 X-5.9564 Y0.4438
G1 Z-0.35 F30
G1 X-5.5179 Y5.4245 F60
G1 Z-0.25 F30
G1 X-5.4741 Y5.9226 F60
G1 Z-0.35 F30
G1 X-5.1015 Y10.1559 F60
G1 X-5.3888 Y10.4689
G1 Z-0.25 F30
G1 X-5.7269 Y10.8373 F60
G1 Z-0.35 F30
G1 X-6.0064 Y11.1417 F60
G1 X-7.1019 Y10.1404
G1 X-7.4582 Y6.0921
G1 Z-0.25 F30
G1 X-7.502 Y5.5941 F60
G1 Z-0.35 F30
G1 X-7.864 Y1.4825 F60
G1 X-7.3872 Y0.9632
G1 Z-0.25 F30
G1 X-7.0491 Y0.5949 F60
G1 Z-0.35 F30
G1 X-6.475 Y-0.0303 F60
G1 X-5.9564 Y0.4438
G1 Z-0.4 F30
G1 X-5.5179 Y5.4245 F60
G1 Z-0.25 F30
G1 X-5.4741 Y5.9226 F60
G1 Z-0.4 F30
G1 X-5.1015 Y10.1559 F60
G1 X-5.3888 Y10.4689
G1 Z-0.25 F30
G1 X-5.7269 Y10.8373 F60
G1 Z-0.4 F30
G1 X-6.0064 Y11.1417 F60
G1 X-7.1019 Y10.1404
G1 X-7.4582 Y6.0921
G1 Z-0.25 F30
G1 X-7.502 Y5.5941 F60
G1 Z-0.4 F30
G1 X-7.864 Y1.4825 F60
G1 X-7.3872 Y0.9632
G1 Z-0.25 F30
G1 X-7.0491 Y0.5949 F60
G1 Z-0.4 F30
G1 X-6.475 Y-0.0303 F60
G1 X-5.9564 Y0.4438
G1 Z-0.45 F30
G1 X-5.5179 Y5.4245 F60
G1 Z-0.25 F30
G1 X-5.4741 Y5.9226 F60
G1 Z-0.45 F30
G1 X-5.1015 Y10.1559 F60
G1 X-5.3888 Y10.4689
G1 Z-0.25 F30
G1 X-5.7269 Y10.8373 F60
G1 Z-0.45 F30
G1 X-6.0064 Y11.1417 F60
G1 X-7.1019 Y10.1404
G1 X-7.4582 Y6.0921
G1 Z-0.25 F30
G1 X-7.502 Y5.5941 F60
G1 Z-0.45 F30
G1 X-7.864 Y1.4825 F60
G1 X-7.3872 Y0.9632
G1 Z-0.25 F30
G1 X-7.0491 Y0.5949 F60
G1 Z-0.45 F30
G1 X-6.475 Y-0.0303 F60
G1 X-5.9564 Y0.4438
G1 Z-0.5 F30
G1 X-5.5179 Y5.4245 F60
G1 Z-0.25 F30
G1 X-5.4741 Y5.9226 F60
G1 Z-0.5 F30
G1 X-5.1015 Y10.1559 F60
G1 X-5.3888 Y10.4689
G1 Z-0.25 F30
G1 X-5.7269 Y10.8373 F60
G1 Z-0.5 F30
G1 X-6.0064 Y11.1417 F60
G1 X-7.1019 Y10.1404
G1 X-7.4582 Y6.0921
G1 Z-0.25 F30
G1 X-7.502 Y5.5941 F60
G1 Z-0.5 F30
G1 X-7.864 Y1.4825 F60
G1 X-7.3872 Y0.9632
G1 Z-0.25 F30
G1 X-7.0491 Y0.5949 F60
G1 Z-0.5 F30
G1 X-6.475 Y-0.0303 F60
G1 X-5.9564 Y0.4438
G1 Z-0.55 F30
G1 X-5.5179 Y5.4245 F60
G1 Z-0.25 F30
G1 X-5.4741 Y5.9226 F60
G1 Z-0.55 F30
G1 X-5.1015 Y10.1559 F60
G1 X-5.3888 Y10.4689
G1 Z-0.25 F30
G1 X-5.7269 Y10.8373 F60
G1 Z-0.55 F30
G1 X-6.0064 Y11.1417 F60
G1 X-7.1019 Y10.1404
G1 X-7.4582 Y6.0921
G1 Z-0.25 F30
G1 X-7.502 Y5.5941 F60
G1 Z-0.55 F30
G1 X-7.864 Y1.4825 F60
G1 X-7.3872 Y0.9632
G1 Z-0.25 F30
G1 X-7.0491 Y0.5949 F60
G1 Z-0.55 F30
G1 X-6.475 Y-0.0303 F60
G1 X-5.9564 Y0.4438
G1 Z-0.6 F30
G1 X-5.5179 Y5.4245 F60
G1 Z-0.25 F30
G1 X-5.4741 Y5.9226 F60
G1 Z-0.6 F30
G1 X-5.1015 Y10.1559 F60
G1 X-5.3888 Y10.4689
G1 Z-0.25 F30
G1 X-5.7269 Y10.8373 F60
G1 Z-0.6 F30
G1 X-6.0064 Y11.1417 F60
G1 X-7.1019 Y10.1404
G1 X-7.4582 Y6.0921
G1 Z-0.25 F30
G1 X-7.502 Y5.5941 F60
G1 Z-0.6 F30
G1 X-7.864 Y1.4825 F60
G1 X-7.3872 Y0.9632
G1 Z-0.25 F30
G1 X-7.0491 Y0.5949 F60
G1 Z-0.6 F30
G1 X-6.475 Y-0.0303 F60
G1 X-5.9564 Y0.4438
G1 Z-0.65 F30
G1 X-5.5179 Y5.4245 F60
G1 Z-0.25 F30
G1 X-5.4741 Y5.9226 F60
G1 Z-0.65 F30
G1 X-5.1015 Y10.1559 F60
G1 X-5.3888 Y10.4689
G1 Z-0.25 F30
G1 X-5.7269 Y10.8373 F60
G1 Z-0.65 F30
G1 X-6.0064 Y11.1417 F60
G1 X-7.1019 Y10.1404
G1 X-7.4582 Y6.0921
G1 Z-0.25 F30
G1 X-7.502 Y5.5941 F60
G1 Z-0.65 F30
G1 X-7.864 Y1.4825 F60
G1 X-7.3872 Y0.9632
G1 Z-0.25 F30
G1 X-7.0491 Y0.5949 F60
G1 Z-0.65 F30
G1 X-6.475 Y-0.0303 F60
G1 X-5.9564 Y0.4438
G1 Z-0.7 F30
G1 X-5.5179 Y5.4245 F60
G1 Z-0.25 F30
G1 X-5.4741 Y5.9226 F60
G1 Z-0.7 F30
G1 X-5.1015 Y10.1559 F60
G1 X-5.3888 Y10.4689
G1 Z-0.25 F30
G1 X-5.7269 Y10.8373 F60
G1 Z-0.7 F30
G1 X-6.0064 Y11.1417 F60
G1 X-7.1019 Y10.1404
G1 X-7.4582 Y6.0921
G1 Z-0.25 F30
G1 X-7.502 Y5.5941 F60
G1 Z-0.7 F30
G1 X-7.864 Y1.4825 F60
G1 X-7.3872 Y0.9632
G1 Z-0.25 F30
G1 X-7.0491 Y0.5949 F60
G1 Z-0.7 F30
G1 X-6.475 Y-0.0303 F60
G1 X-5.9564 Y0.4438
G1 Z-0.75 F30
G1 X-5.5179 Y5.4245 F60
G1 Z-0.25 F30
G1 X-5.4741 Y5.9226 F60
G1 Z-0.75 F30
G1 X-5.1015 Y10.1559 F60
G1 X-5.3888 Y10.4689
G1 Z-0.25 F30
G1 X-5.7269 Y10.8373 F60
G1 Z-0.75 F30
G1 X-6.0064 Y11.1417 F60
G1 X-7.1019 Y10.1404
G1 X-7.4582 Y6.0921
G1 Z-0.25 F30
G1 X-7.502 Y5.5941 F60
G1 Z-0.75 F30
G1 X-7.864 Y1.4825 F60
G1 X-7.3872 Y0.9632
G1 Z-0.25 F30
G1 X-7.0491 Y0.5949 F60
G1 Z-0.75 F30
G1 X-6.475 Y-0.0303 F60
G1 X-5.9564 Y0.4438
G0 Z0.5
G0 X-20.6019 Y10.1404
G1 Z-0.05 F30
G1 X-20.9844 Y5.7943 F60
G1 X-21.0283 Y5.2962
G1 X-21.4568 Y0.4283
G1 X-21.0357 Y-0.0303
G1 X-19.3636 Y1.498
G1 X-18.9922 Y5.7174
G1 X-18.9483 Y6.2154
G1 X-18.6015 Y10.1559
G1 X-19.5064 Y11.1417
G1 X-19.7043 Y10.9609
G1 X-20.0734 Y10.6235
G1 X-20.6019 Y10.1404
G1 Z-0.1 F30
G1 X-20.9844 Y5.7943 F60
G1 X-21.0283 Y5.2962
G1 X-21.4568 Y0.4283
G1 X-21.0357 Y-0.0303
G1 X-19.3636 Y1.498
G1 X-18.9922 Y5.7174
G1 X-18.9483 Y6.2154
G1 X-18.6015 Y10.1559
G1 X-19.5064 Y11.1417
G1 X-19.7043 Y10.9609
G1 X-20.0734 Y10.6235
G1 X-20.6019 Y10.1404
G1 Z-0.15 F30
G1 X-20.9844 Y5.7943 F60
G1 X-21.0283 Y5.2962
G1 X-21.4568 Y0.4283
G1 X-21.0357 Y-0.0303
G1 X-19.3636 Y1.498
G1 X-18.9922 Y5.7174
G1 X-18.9483 Y6.2154
G1 X-18.6015 Y10.1559
G1 X-19.5064 Y11.1417
G1 X-19.7043 Y10.9609
G1 X-20.0734 Y10.6235
G1 X-20.6019 Y10.1404
G1 Z-0.2 F30
G1 X-20.9844 Y5.7943 F60
G1 X-21.0283 Y5.2962
G1 X-21.4568 Y0.4283
G1 X-21.0357 Y-0.0303
G1 X-19.3636 Y1.498
G1 X-18.9922 Y5.7174
G1 X-18.9483 Y6.2154
G1 X-18.6015 Y10.1559
G1 X-19.5064 Y11.1417
G1 X-19.7043 Y10.9609
G1 X-20.0734 Y10.6235
G1 X-20.6019 Y10.1404
G1 Z-0.25 F30
G1 X-20.9844 Y5.7943 F60
G1 X-21.0283 Y5.2962
G1 X-21.4568 Y0.4283
G1 X-21.0357 Y-0.0303
G1 X-19.3636 Y1.498
G1 X-18.9922 Y5.7174
G1 X-18.9483 Y6.2154
G1 X-18.6015 Y10.1559
G1 X-19.5064 Y11.1417
G1 X-19.7043 Y10.9609
G1 X-20.0734 Y10.6235
G1 X-20.6019 Y10.1404
G1 Z-0.3 F30
G1 X-20.9844 Y5.7943 F60
G1 Z-0.25 F30
G1 X-21.0283 Y5.2962 F60
G1 Z-0.3 F30
G1 X-21.4568 Y0.4283 F60
G1 X-21.0357 Y-0.0303
G1 X-19.3636 Y1.498
G1 X-18.9922 Y5.7174
G1 Z-0.25 F30
G1 X-18.9483 Y6.2154 F60
G1 Z-0.3 F30
G1 X-18.6015 Y10.1559 F60
G1 X-19.5064 Y11.1417
G1 X-19.7043 Y10.9609
G1 Z-0.25 F30
G1 X-20.0734 Y10.6235 F60
G1 Z-0.3 F30
G1 X-20.6019 Y10.1404 F60
G1 Z-0.35 F30
G1 X-20.9844 Y5.7943 F60
G1 Z-0.25 F30
G1 X-21.0283 Y5.2962 F60
G1 Z-0.35 F30
G1 X-21.4568 Y0.4283 F60
G1 X-21.0357 Y-0.0303
G1 X-19.3636 Y1.498
G1 X-18.9922 Y5.7174
G1 Z-0.25 F30
G1 X-18.9483 Y6.2154 F60
G1 Z-0.35 F30
G1 X-18.6015 Y10.1559 F60
G1 X-19.5064 Y11.1417
G1 X-19.7043 Y10.9609
G1 Z-0.25 F30
G1 X-20.0734 Y10.6235 F60
G1 Z-0.35 F30
G1 X-20.6019 Y10.1404 F60
G1 Z-0.4 F30
G1 X-20.9844 Y5.7943 F60
G1 Z-0.25 F30
G1 X-21.0283 Y5.2962 F60
G1 Z-0.4 F30
G1 X-21.4568 Y0.4283 F60
G1 X-21.0357 Y-0.0303
G1 X-19.3636 Y1.498
G1 X-18.9922 Y5.7174
G1 Z-0.25 F30
G1 X-18.9483 Y6.2154 F60
G1 Z-0.4 F30
G1 X-18.6015 Y10.1559 F60
G1 X-19.5064 Y11.1417
G1 X-19.7043 Y10.9609
G1 Z-0.25 F30
G1 X-20.0734 Y10.6235 F60
G1 Z-0.4 F30
G1 X-20.6019 Y10.1404 F60
G1 Z-0.45 F30
G1 X-20.9844 Y5.7943 F60
G1 Z-0.25 F30
G1 X-21.0283 Y5.2962 F60
G1 Z-0.45 F30
G1 X-21.4568 Y0.4283 F60
G1 X-21.0357 Y-0.0303
G1 X-19.3636 Y1.498
G1 X-18.9922 Y5.7174
G1 Z-0.25 F30
G1 X-18.9483 Y6.2154 F60
G1 Z-0.45 F30
G1 X-18.6015 Y10.1559 F60
G1 X-19.5064 Y11.1417
G1 X-19.7043 Y10.9609
G1 Z-0.25 F30
G1 X-20.0734 Y10.6235 F60
G1 Z-0.45 F30
G1 X-20.6019 Y10.1404 F60
G1 Z-0.5 F30
G1 X-20.9844 Y5.7943 F60
G1 Z-0.25 F30
G1 X-21.0283 Y5.2962 F60
G1 Z-0.5 F30
G1 X-21.4568 Y0.4283 F60
G1 X-21.0357 Y-0.0303
G1 X-19.3636 Y1.498
G1 X-18.9922 Y5.7174
G1 Z-0.25 F30
G1 X-18.9483 Y6.2154 F60
G1 Z-0.5 F30
G1 X-18.6015 Y10.1559 F60
G1 X-19.5064 Y11.1417
G1 X-19.7043 Y10.9609
G1 Z-0.25 F30
G1 X-20.0734 Y10.6235 F60
G1 Z-0.5 F30
G1 X-20.6019 Y10.1404 F60
G1 Z-0.55 F30
G1 X-20.9844 Y5.7943 F60
G1 Z-0.25 F30
G1 X-21.0283 Y5.2962 F60
G1 Z-0.55 F30
G1 X-21.4568 Y0.4283 F60
G1 X-21.0357 Y-0.0303
G1 X-19.3636 Y1.498
G1 X-18.9922 Y5.7174
G1 Z-0.25 F30
G1 X-18.9483 Y6.2154 F60
G1 Z-0.55 F30
G1 X-18.6015 Y10.1559 F60
G1 X-19.5064 Y11.1417
G1 X-19.7043 Y10.9609
G1 Z-0.25 F30
G1 X-20.0734 Y10.6235 F60
G1 Z-0.55 F30
G1 X-20.6019 Y10.1404 F60
G1 Z-0.6 F30
G1 X-20.9844 Y5.7943 F60
G1 Z-0.25 F30
G1 X-21.0283 Y5.2962 F60
G1 Z-0.6 F30
G1 X-21.4568 Y0.4283 F60
G1 X-21.0357 Y-0.0303
G1 X-19.3636 Y1.498
G1 X-18.9922 Y5.7174
G1 Z-0.25 F30
G1 X-18.9483 Y6.2154 F60
G1 Z-0.6 F30
G1 X-18.6015 Y10.1559 F60
G1 X-19.5064 Y11.1417
G1 X-19.7043 Y10.9609
G1 Z-0.25 F30
G1 X-20.0734 Y10.6235 F60
G1 Z-0.6 F30
G1 X-20.6019 Y10.1404 F60
G1 Z-0.65 F30
G1 X-20.9844 Y5.7943 F60
G1 Z-0.25 F30
G1 X-21.0283 Y5.2962 F60
G1 Z-0.65 F30
G1 X-21.4568 Y0.4283 F60
G1 X-21.0357 Y-0.0303
G1 X-19.3636 Y1.498
G1 X-18.9922 Y5.7174
G1 Z-0.25 F30
G1 X-18.9483 Y6.2154 F60
G1 Z-0.65 F30
G1 X-18.6015 Y10.1559 F60
G1 X-19.5064 Y11.1417
G1 X-19.7043 Y10.9609
G1 Z-0.25 F30
G1 X-20.0734 Y10.6235 F60
G1 Z-0.65 F30
G1 X-20.6019 Y10.1404 F60
G1 Z-0.7 F30
G1 X-20.9844 Y5.7943 F60
G1 Z-0.25 F30
G1 X-21.0283 Y5.2962 F60
G1 Z-0.7 F30
G1 X-21.4568 Y0.4283 F60
G1 X-21.0357 Y-0.0303
G1 X-19.3636 Y1.498
G1 X-18.9922 Y5.7174
G1 Z-0.25 F30
G1 X-18.9483 Y6.2154 F60
G1 Z-0.7 F30
G1 X-18.6015 Y10.1559 F60
G1 X-19.5064 Y11.1417
G1 X-19.7043 Y10.9609
G1 Z-0.25 F30
G1 X-20.0734 Y10.6235 F60
G1 Z-0.7 F30
G1 X-20.6019 Y10.1404 F60
G1 Z-0.75 F30
G1 X-20.9844 Y5.7943 F60
G1 Z-0.25 F30
G1 X-21.0283 Y5.2962 F60
G1 Z-0.75 F30
G1 X-21.4568 Y0.4283 F60
G1 X-21.0357 Y-0.0303
G1 X-19.3636 Y1.498
G1 X-18.9922 Y5.7174
G1 Z-0.25 F30
G1 X-18.9483 Y6.2154 F60
G1 Z-0.75 F30
G1 X-18.6015 Y10.1559 F60
G1 X-19.5064 Y11.1417
G1 X-19.7043 Y10.9609
G1 Z-0.25 F30
G1 X-20.0734 Y10.6235 F60
G1 Z-0.75 F30
G1 X-20.6019 Y10.1404 F60
G0 Z0.5
G0 X-12.9087 Y20.8558
G1 Z-0.05 F30
G1 X-13.2222 Y17.2949 F60
G1 X-13.266 Y16.7968
G1 X-13.5532 Y13.5344
G1 X-12.6481 Y12.5487
G1 X-12.428 Y12.75
G1 X-12.0589 Y13.0873
G1 X-11.5528 Y13.55
G1 X-11.2393 Y17.1109
G1 X-11.1955 Y17.6089
G1 X-10.9083 Y20.8713
G1 X-11.8133 Y21.8571
G1 X-12.1236 Y21.5735
G1 X-12.4926 Y21.2361
G1 X-12.9087 Y20.8558
G1 Z-0.1 F30
G1 X-13.2222 Y17.2949 F60
G1 X-13.266 Y16.7968
G1 X-13.5532 Y13.5344
G1 X-12.6481 Y12.5487
G1 X-12.428 Y12.75
G1 X-12.0589 Y13.0873
G1 X-11.5528 Y13.55
G1 X-11.2393 Y17.1109
G1 X-11.1955 Y17.6089
G1 X-10.9083 Y20.8713
G1 X-11.8133 Y21.8571
G1 X-12.1236 Y21.5735
G1 X-12.4926 Y21.2361
G1 X-12.9087 Y20.8558
G1 Z-0.15 F30
G1 X-13.2222 Y17.2949 F60
G1 X-13.266 Y16.7968
G1 X-13.5532 Y13.5344
G1 X-12.6481 Y12.5487
G1 X-12.428 Y12.75
G1 X-12.0589 Y13.0873
G1 X-11.5528 Y13.55
G1 X-11.2393 Y17.1109
G1 X-11.1955 Y17.6089
G1 X-10.9083 Y20.8713
G1 X-11.8133 Y21.8571
G1 X-12.1236 Y21.5735
G1 X-12.4926 Y21.2361
G1 X-12.9087 Y20.8558
G1 Z-0.2 F30
G1 X-13.2222 Y17.2949 F60
G1 X-13.266 Y16.7968
G1 X-13.5532 Y13.5344
G1 X-12.6481 Y12.5487
G1 X-12.428 Y12.75
G1 X-12.0589 Y13.0873
G1 X-11.5528 Y13.55
G1 X-11.2393 Y17.1109
G1 X-11.1955 Y17.6089
G1 X-10.9083 Y20.8713
G1 X-11.8133 Y21.8571
G1 X-12.1236 Y21.5735
G1 X-12.4926 Y21.2361
G1 X-12.9087 Y20.8558
G1 Z-0.25 F30
G1 X-13.2222 Y17.2949 F60
G1 X-13.266 Y16.7968
G1 X-13.5532 Y13.5344
G1 X-12.6481 Y12.5487
G1 X-12.428 Y12.75
G1 X-12.0589 Y13.0873
G1 X-11.5528 Y13.55
G1 X-11.2393 Y17.1109
G1 X-11.1955 Y17.6089
G1 X-10.9083 Y20.8713
G1 X-11.8133 Y21.8571
G1 X-12.1236 Y21.5735
G1 X-12.4926 Y21.2361
G1 X-12.9087 Y20.8558
G1 Z-0.3 F30
G1 X-13.2222 Y17.2949 F60
G1 Z-0.25 F30
G1 X-13.266 Y16.7968 F60
G1 Z-0.3 F30
G1 X-13.5532 Y13.5344 F60
G1 X-12.6481 Y12.5487
G1 X-12.428 Y12.75
G1 Z-0.25 F30
G1 X-12.0589 Y13.0873 F60
G1 Z-0.3 F30
G1 X-11.5528 Y13.55 F60
G1 X-11.2393 Y17.1109
G1 Z-0.25 F30
G1 X-11.1955 Y17.6089 F60
G1 Z-0.3 F30
G1 X-10.9083 Y20.8713 F60
G1 X-11.8133 Y21.8571
G1 X-12.1236 Y21.5735
G1 Z-0.25 F30
G1 X-12.4926 Y21.2361 F60
G1 Z-0.3 F30
G1 X-12.9087 Y20.8558 F60
G1 Z-0.35 F30
G1 X-13.2222 Y17.2949 F60
G1 Z-0.25 F30
G1 X-13.266 Y16.7968 F60
G1 Z-0.35 F30
G1 X-13.5532 Y13.5344 F60
G1 X-12.6481 Y12.5487
G1 X-12.428 Y12.75
G1 Z-0.25 F30
G1 X-12.0589 Y13.0873 F60
G1 Z-0.35 F30
G1 X-11.5528 Y13.55 F60
G1 X-11.2393 Y17.1109
G1 Z-0.25 F30
G1 X-11.1955 Y17.6089 F60
G1 Z-0.35 F30
G1 X-10.9083 Y20.8713 F60
G1 X-11.8133 Y21.8571
G1 X-12.1236 Y21.5735
G1 Z-0.25 F30
G1 X-12.4926 Y21.2361 F60
G1 Z-0.35 F30
G1 X-12.9087 Y20.8558 F60
G1 Z-0.4 F30
G1 X-13.2222 Y17.2949 F60
G1 Z-0.25 F30
G1 X-13.266 Y16.7968 F60
G1 Z-0.4 F30
G1 X-13.5532 Y13.5344 F60
G1 X-12.6481 Y12.5487
G1 X-12.428 Y12.75
G1 Z-0.25 F30
G1 X-12.0589 Y13.0873 F60
G1 Z-0.4 F30
G1 X-11.5528 Y13.55 F60
G1 X-11.2393 Y17.1109
G1 Z-0.25 F30
G1 X-11.1955 Y17.6089 F60
G1 Z-0.4 F30
G1 X-10.9083 Y20.8713 F60
G1 X-11.8133 Y21.8571
G1 X-12.1236 Y21.5735
G1 Z-0.25 F30
G1 X-12.4926 Y21.2361 F60
G1 Z-0.4 F30
G1 X-12.9087 Y20.8558 F60
G1 Z-0.45 F30
G1 X-13.2222 Y17.2949 F60
G1 Z-0.25 F30
G1 X-13.266 Y16.7968 F60
G1 Z-0.45 F30
G1 X-13.5532 Y13.5344 F60
G1 X-12.6481 Y12.5487
G1 X-12.428 Y12.75
G1 Z-0.25 F30
G1 X-12.0589 Y13.0873 F60
G1 Z-0.45 F30
G1 X-11.5528 Y13.55 F60
G1 X-11.2393 Y17.1109
G1 Z-0.25 F30
G1 X-11.1955 Y17.6089 F60
G1 Z-0.45 F30
G1 X-10.9083 Y20.8713 F60
G1 X-11.8133 Y21.8571
G1 X-12.1236 Y21.5735
G1 Z-0.25 F30
G1 X-12.4926 Y21.2361 F60
G1 Z-0.45 F30
G1 X-12.9087 Y20.8558 F60
G1 Z-0.5 F30
G1 X-13.2222 Y17.2949 F60
G1 Z-0.25 F30
G1 X-13.266 Y16.7968 F60
G1 Z-0.5 F30
G1 X-13.5532 Y13.5344 F60
G1 X-12.6481 Y12.5487
G1 X-12.428 Y12.75
G1 Z-0.25 F30
G1 X-12.0589 Y13.0873 F60
G1 Z-0.5 F30
G1 X-11.5528 Y13.55 F60
G1 X-11.2393 Y17.1109
G1 Z-0.25 F30
G1 X-11.1955 Y17.6089 F60
G1 Z-0.5 F30
G1 X-10.9083 Y20.8713 F60
G1 X-11.8133 Y21.8571
G1 X-12.1236 Y21.5735
G1 Z-0.25 F30
G1 X-12.4926 Y21.2361 F60
G1 Z-0.5 F30
G1 X-12.9087 Y20.8558 F60
G1 Z-0.55 F30
G1 X-13.2222 Y17.2949 F60
G1 Z-0.25 F30
G1 X-13.266 Y16.7968 F60
G1 Z-0.55 F30
G1 X-13.5532 Y13.5344 F60
G1 X-12.6481 Y12.5487
G1 X-12.428 Y12.75
G1 Z-0.25 F30
G1 X-12.0589 Y13.0873 F60
G1 Z-0.55 F30
G1 X-11.5528 Y13.55 F60
G1 X-11.2393 Y17.1109
G1 Z-0.25 F30
G1 X-11.1955 Y17.6089 F60
G1 Z-0.55 F30
G1 X-10.9083 Y20.8713 F60
G1 X-11.8133 Y21.8571
G1 X-12.1236 Y21.5735
G1 Z-0.25 F30
G1 X-12.4926 Y21.2361 F60
G1 Z-0.55 F30
G1 X-12.9087 Y20.8558 F60
G1 Z-0.6 F30
G1 X-13.2222 Y17.2949 F60
G1 Z-0.25 F30
G1 X-13.266 Y16.7968 F60
G1 Z-0.6 F30
G1 X-13.5532 Y13.5344 F60
G1 X-12.6481 Y12.5487
G1 X-12.428 Y12.75
G1 Z-0.25 F30
G1 X-12.0589 Y13.0873 F60
G1 Z-0.6 F30
G1 X-11.5528 Y13.55 F60
G1 X-11.2393 Y17.1109
G1 Z-0.25 F30
G1 X-11.1955 Y17.6089 F60
G1 Z-0.6 F30
G1 X-10.9083 Y20.8713 F60
G1 X-11.8133 Y21.8571
G1 X-12.1236 Y21.5735
G1 Z-0.25 F30
G1 X-12.4926 Y21.2361 F60
G1 Z-0.6 F30
G1 X-12.9087 Y20.8558 F60
G1 Z-0.65 F30
G1 X-13.2222 Y17.2949 F60
G1 Z-0.25 F30
G1 X-13.266 Y16.7968 F60
G1 Z-0.65 F30
G1 X-13.5532 Y13.5344 F60
G1 X-12.6481 Y12.5487
G1 X-12.428 Y12.75
G1 Z-0.25 F30
G1 X-12.0589 Y13.0873 F60
G1 Z-0.65 F30
G1 X-11.5528 Y13.55 F60
G1 X-11.2393 Y17.1109
G1 Z-0.25 F30
G1 X-11.1955 Y17.6089 F60
G1 Z-0.65 F30
G1 X-10.9083 Y20.8713 F60
G1 X-11.8133 Y21.8571
G1 X-12.1236 Y21.5735
G1 Z-0.25 F30
G1 X-12.4926 Y21.2361 F60
G1 Z-0.65 F30
G1 X-12.9087 Y20.8558 F60
G1 Z-0.7 F30
G1 X-13.2222 Y17.2949 F60
G1 Z-0.25 F30
G1 X-13.266 Y16.7968 F60
G1 Z-0.7 F30
G1 X-13.5532 Y13.5344 F60
G1 X-12.6481 Y12.5487
G1 X-12.428 Y12.75
G1 Z-0.25 F30
G1 X-12.0589 Y13.0873 F60
G1 Z-0.7 F30
G1 X-11.5528 Y13.55 F60
G1 X-11.2393 Y17.1109
G1 Z-0.25 F30
G1 X-11.1955 Y17.6089 F60
G1 Z-0.7 F30
G1 X-10.9083 Y20.8713 F60
G1 X-11.8133 Y21.8571
G1 X-12.1236 Y21.5735
G1 Z-0.25 F30
G1 X-12.4926 Y21.2361 F60
G1 Z-0.7 F30
G1 X-12.9087 Y20.8558 F60
G1 Z-0.75 F30
G1 X-13.2222 Y17.2949 F60
G1 Z-0.25 F30
G1 X-13.266 Y16.7968 F60
G1 Z-0.75 F30
G1 X-13.5532 Y13.5344 F60
G1 X-12.6481 Y12.5487
G1 X-12.428 Y12.75
G1 Z-0.25 F30
G1 X-12.0589 Y13.0873 F60
G1 Z-0.75 F30
G1 X-11.5528 Y13.55 F60
G1 X-11.2393 Y17.1109
G1 Z-0.25 F30
G1 X-11.1955 Y17.6089 F60
G1 Z-0.75 F30
G1 X-10.9083 Y20.8713 F60
G1 X-11.8133 Y21.8571
G1 X-12.1236 Y21.5735
G1 Z-0.25 F30
G1 X-12.4926 Y21.2361 F60
G1 Z-0.75 F30
G1 X-12.9087 Y20.8558 F60
G0 Z0.5
G0 X-13.8519 Y10.1405
G1 Z-0.05 F30
G1 X-14.2277 Y5.8704 F60
G1 X-14.2716 Y5.3723
G1 X-14.4963 Y2.8192
G1 X-13.5913 Y1.8335
G1 X-13.236 Y2.1582
G1 X-12.867 Y2.4956
G1 X-12.496 Y2.8347
G1 X-12.0726 Y7.6444
G1 X-12.0287 Y8.1425
G1 X-11.8515 Y10.156
G1 X-12.7564 Y11.1417
G1 X-13.0667 Y10.8581
G1 X-13.4358 Y10.5208
G1 X-13.8519 Y10.1405
G1 Z-0.1 F30
G1 X-14.2277 Y5.8704 F60
G1 X-14.2716 Y5.3723
G1 X-14.4963 Y2.8192
G1 X-13.5913 Y1.8335
G1 X-13.236 Y2.1582
G1 X-12.867 Y2.4956
G1 X-12.496 Y2.8347
G1 X-12.0726 Y7.6444
G1 X-12.0287 Y8.1425
G1 X-11.8515 Y10.156
G1 X-12.7564 Y11.1417
G1 X-13.0667 Y10.8581
G1 X-13.4358 Y10.5208
G1 X-13.8519 Y10.1405
G1 Z-0.15 F30
G1 X-14.2277 Y5.8704 F60
G1 X-14.2716 Y5.3723
G1 X-14.4963 Y2.8192
G1 X-13.5913 Y1.8335
G1 X-13.236 Y2.1582
G1 X-12.867 Y2.4956
G1 X-12.496 Y2.8347
G1 X-12.0726 Y7.6444
G1 X-12.0287 Y8.1425
G1 X-11.8515 Y10.156
G1 X-12.7564 Y11.1417
G1 X-13.0667 Y10.8581
G1 X-13.4358 Y10.5208
G1 X-13.8519 Y10.1405
G1 Z-0.2 F30
G1 X-14.2277 Y5.8704 F60
G1 X-14.2716 Y5.3723
G1 X-14.4963 Y2.8192
G1 X-13.5913 Y1.8335
G1 X-13.236 Y2.1582
G1 X-12.867 Y2.4956
G1 X-12.496 Y2.8347
G1 X-12.0726 Y7.6444
G1 X-12.0287 Y8.1425
G1 X-11.8515 Y10.156
G1 X-12.7564 Y11.1417
G1 X-13.0667 Y10.8581
G1 X-13.4358 Y10.5208
G1 X-13.8519 Y10.1405
G1 Z-0.25 F30
G1 X-14.2277 Y5.8704 F60
G1 X-14.2716 Y5.3723
G1 X-14.4963 Y2.8192
G1 X-13.5913 Y1.8335
G1 X-13.236 Y2.1582
G1 X-12.867 Y2.4956
G1 X-12.496 Y2.8347
G1 X-12.0726 Y7.6444
G1 X-12.0287 Y8.1425
G1 X-11.8515 Y10.156
G1 X-12.7564 Y11.1417
G1 X-13.0667 Y10.8581
G1 X-13.4358 Y10.5208
G1 X-13.8519 Y10.1405
G1 Z-0.3 F30
G1 X-14.2277 Y5.8704 F60
G1 Z-0.25 F30
G1 X-14.2716 Y5.3723 F60
G1 Z-0.3 F30
G1 X-14.4963 Y2.8192 F60
G1 X-13.5913 Y1.8335
G1 X-13.236 Y2.1582
G1 Z-0.25 F30
G1 X-12.867 Y2.4956 F60
G1 Z-0.3 F30
G1 X-12.496 Y2.8347 F60
G1 X-12.0726 Y7.6444
G1 Z-0.25 F30
G1 X-12.0287 Y8.1425 F60
G1 Z-0.3 F30
G1 X-11.8515 Y10.156 F60
G1 X-12.7564 Y11.1417
G1 X-13.0667 Y10.8581
G1 Z-0.25 F30
G1 X-13.4358 Y10.5208 F60
G1 Z-0.3 F30
G1 X-13.8519 Y10.1405 F60
G1 Z-0.35 F30
G1 X-14.2277 Y5.8704 F60
G1 Z-0.25 F30
G1 X-14.2716 Y5.3723 F60
G1 Z-0.35 F30
G1 X-14.4963 Y2.8192 F60
G1 X-13.5913 Y1.8335
G1 X-13.236 Y2.1582
G1 Z-0.25 F30
G1 X-12.867 Y2.4956 F60
G1 Z-0.35 F30
G1 X-12.496 Y2.8347 F60
G1 X-12.0726 Y7.6444
G1 Z-0.25 F30
G1 X-12.0287 Y8.1425 F60
G1 Z-0.35 F30
G1 X-11.8515 Y10.156 F60
G1 X-12.7564 Y11.1417
G1 X-13.0667 Y10.8581
G1 Z-0.25 F30
G1 X-13.4358 Y10.5208 F60
G1 Z-0.35 F30
G1 X-13.8519 Y10.1405 F60
G1 Z-0.4 F30
G1 X-14.2277 Y5.8704 F60
G1 Z-0.25 F30
G1 X-14.2716 Y5.3723 F60
G1 Z-0.4 F30
G1 X-14.4963 Y2.8192 F60
G1 X-13.5913 Y1.8335
G1 X-13.236 Y2.1582
G1 Z-0.25 F30
G1 X-12.867 Y2.4956 F60
G1 Z-0.4 F30
G1 X-12.496 Y2.8347 F60
G1 X-12.0726 Y7.6444
G1 Z-0.25 F30
G1 X-12.0287 Y8.1425 F60
G1 Z-0.4 F30
G1 X-11.8515 Y10.156 F60
G1 X-12.7564 Y11.1417
G1 X-13.0667 Y10.8581
G1 Z-0.25 F30
G1 X-13.4358 Y10.5208 F60
G1 Z-0.4 F30
G1 X-13.8519 Y10.1405 F60
G1 Z-0.45 F30
G1 X-14.2277 Y5.8704 F60
G1 Z-0.25 F30
G1 X-14.2716 Y5.3723 F60
G1 Z-0.45 F30
G1 X-14.4963 Y2.8192 F60
G1 X-13.5913 Y1.8335
G1 X-13.236 Y2.1582
G1 Z-0.25 F30
G1 X-12.867 Y2.4956 F60
G1 Z-0.45 F30
G1 X-12.496 Y2.8347 F60
G1 X-12.0726 Y7.6444
G1 Z-0.25 F30
G1 X-12.0287 Y8.1425 F60
G1 Z-0.45 F30
G1 X-11.8515 Y10.156 F60
G1 X-12.7564 Y11.1417
G1 X-13.0667 Y10.8581
G1 Z-0.25 F30
G1 X-13.4358 Y10.5208 F60
G1 Z-0.45 F30
G1 X-13.8519 Y10.1405 F60
G1 Z-0.5 F30
G1 X-14.2277 Y5.8704 F60
G1 Z-0.25 F30
G1 X-14.2716 Y5.3723 F60
G1 Z-0.5 F30
G1 X-14.4963 Y2.8192 F60
G1 X-13.5913 Y1.8335
G1 X-13.236 Y2.1582
G1 Z-0.25 F30
G1 X-12.867 Y2.4956 F60
G1 Z-0.5 F30
G1 X-12.496 Y2.8347 F60
G1 X-12.0726 Y7.6444
G1 Z-0.25 F30
G1 X-12.0287 Y8.1425 F60
G1 Z-0.5 F30
G1 X-11.8515 Y10.156 F60
G1 X-12.7564 Y11.1417
G1 X-13.0667 Y10.8581
G1 Z-0.25 F30
G1 X-13.4358 Y10.5208 F60
G1 Z-0.5 F30
G1 X-13.8519 Y10.1405 F60
G1 Z-0.55 F30
G1 X-14.2277 Y5.8704 F60
G1 Z-0.25 F30
G1 X-14.2716 Y5.3723 F60
G1 Z-0.55 F30
G1 X-14.4963 Y2.8192 F60
G1 X-13.5913 Y1.8335
G1 X-13.236 Y2.1582
G1 Z-0.25 F30
G1 X-12.867 Y2.4956 F60
G1 Z-0.55 F30
G1 X-12.496 Y2.8347 F60
G1 X-12.0726 Y7.6444
G1 Z-0.25 F30
G1 X-12.0287 Y8.1425 F60
G1 Z-0.55 F30
G1 X-11.8515 Y10.156 F60
G1 X-12.7564 Y11.1417
G1 X-13.0667 Y10.8581
G1 Z-0.25 F30
G1 X-13.4358 Y10.5208 F60
G1 Z-0.55 F30
G1 X-13.8519 Y10.1405 F60
G1 Z-0.6 F30
G1 X-14.2277 Y5.8704 F60
G1 Z-0.25 F30
G1 X-14.2716 Y5.3723 F60
G1 Z-0.6 F30
G1 X-14.4963 Y2.8192 F60
G1 X-13.5913 Y1.8335
G1 X-13.236 Y2.1582
G1 Z-0.25 F30
G1 X-12.867 Y2.4956 F60
G1 Z-0.6 F30
G1 X-12.496 Y2.8347 F60
G1 X-12.0726 Y7.6444
G1 Z-0.25 F30
G1 X-12.0287 Y8.1425 F60
G1 Z-0.6 F30
G1 X-11.8515 Y10.156 F60
G1 X-12.7564 Y11.1417
G1 X-13.0667 Y10.8581
G1 Z-0.25 F30
G1 X-13.4358 Y10.5208 F60
G1 Z-0.6 F30
G1 X-13.8519 Y10.1405 F60
G1 Z-0.65 F30
G1 X-14.2277 Y5.8704 F60
G1 Z-0.25 F30
G1 X-14.2716 Y5.3723 F60
G1 Z-0.65 F30
G1 X-14.4963 Y2.8192 F60
G1 X-13.5913 Y1.8335
G1 X-13.236 Y2.1582
G1 Z-0.25 F30
G1 X-12.867 Y2.4956 F60
G1 Z-0.65 F30
G1 X-12.496 Y2.8347 F60
G1 X-12.0726 Y7.6444
G1 Z-0.25 F30
G1 X-12.0287 Y8.1425 F60
G1 Z-0.65 F30
G1 X-11.8515 Y10.156 F60
G1 X-12.7564 Y11.1417
G1 X-13.0667 Y10.8581
G1 Z-0.25 F30
G1 X-13.4358 Y10.5208 F60
G1 Z-0.65 F30
G1 X-13.8519 Y10.1405 F60
G1 Z-0.7 F30
G1 X-14.2277 Y5.8704 F60
G1 Z-0.25 F30
G1 X-14.2716 Y5.3723 F60
G1 Z-0.7 F30
G1 X-14.4963 Y2.8192 F60
G1 X-13.5913 Y1.8335
G1 X-13.236 Y2.1582
G1 Z-0.25 F30
G1 X-12.867 Y2.4956 F60
G1 Z-0.7 F30
G1 X-12.496 Y2.8347 F60
G1 X-12.0726 Y7.6444
G1 Z-0.25 F30
G1 X-12.0287 Y8.1425 F60
G1 Z-0.7 F30
G1 X-11.8515 Y10.156 F60
G1 X-12.7564 Y11.1417
G1 X-13.0667 Y10.8581
G1 Z-0.25 F30
G1 X-13.4358 Y10.5208 F60
G1 Z-0.7 F30
G1 X-13.8519 Y10.1405 F60
G1 Z-0.75 F30
G1 X-14.2277 Y5.8704 F60
G1 Z-0.25 F30
G1 X-14.2716 Y5.3723 F60
G1 Z-0.75 F30
G1 X-14.4963 Y2.8192 F60
G1 X-13.5913 Y1.8335
G1 X-13.236 Y2.1582
G1 Z-0.25 F30
G1 X-12.867 Y2.4956 F60
G1 Z-0.75 F30
G1 X-12.496 Y2.8347 F60
G1 X-12.0726 Y7.6444
G1 Z-0.25 F30
G1 X-12.0287 Y8.1425 F60
G1 Z-0.75 F30
G1 X-11.8515 Y10.156 F60
G1 X-12.7564 Y11.1417
G1 X-13.0667 Y10.8581
G1 Z-0.25 F30
G1 X-13.4358 Y10.5208 F60
G1 Z-0.75 F30
G1 X-13.8519 Y10.1405 F60
G0 Z0.5
G0 X-18.1771 Y1.7821
G1 Z-0.05 F30
G1 X-15.1886 Y6.3264 F60
G1 X-14.8778 Y9.8566
G1 X-15.1534 Y9.8566
G1 X-15.5609 Y9.2369
G1 X-15.8357 Y8.8192
G1 X-18.0091 Y5.5143
G1 X-18.1607 Y3.792
G1 X-18.2045 Y3.2939
G1 X-18.3375 Y1.7821
G1 X-18.1771 Y1.7821
G1 Z-0.1 F30
G1 X-15.1886 Y6.3264 F60
G1 X-14.8778 Y9.8566
G1 X-15.1534 Y9.8566
G1 X-15.5609 Y9.2369
G1 X-15.8357 Y8.8192
G1 X-18.0091 Y5.5143
G1 X-18.1607 Y3.792
G1 X-18.2045 Y3.2939
G1 X-18.3375 Y1.7821
G1 X-18.1771 Y1.7821
G1 Z-0.15 F30
G1 X-15.1886 Y6.3264 F60
G1 X-14.8778 Y9.8566
G1 X-15.1534 Y9.8566
G1 X-15.5609 Y9.2369
G1 X-15.8357 Y8.8192
G1 X-18.0091 Y5.5143
G1 X-18.1607 Y3.792
G1 X-18.2045 Y3.2939
G1 X-18.3375 Y1.7821
G1 X-18.1771 Y1.7821
G1 Z-0.2 F30
G1 X-15.1886 Y6.3264 F60
G1 X-14.8778 Y9.8566
G1 X-15.1534 Y9.8566
G1 X-15.5609 Y9.2369
G1 X-15.8357 Y8.8192
G1 X-18.0091 Y5.5143
G1 X-18.1607 Y3.792
G1 X-18.2045 Y3.2939
G1 X-18.3375 Y1.7821
G1 X-18.1771 Y1.7821
G1 Z-0.25 F30
G1 X-15.1886 Y6.3264 F60
G1 X-14.8778 Y9.8566
G1 X-15.1534 Y9.8566
G1 X-15.5609 Y9.2369
G1 X-15.8357 Y8.8192
G1 X-18.0091 Y5.5143
G1 X-18.1607 Y3.792
G1 X-18.2045 Y3.2939
G1 X-18.3375 Y1.7821
G1 X-18.1771 Y1.7821
G1 Z-0.3 F30
G1 X-15.1886 Y6.3264 F60
G1 X-14.8778 Y9.8566
G1 X-15.1534 Y9.8566
G1 X-15.5609 Y9.2369
G1 Z-0.25 F30
G1 X-15.8357 Y8.8192 F60
G1 Z-0.3 F30
G1 X-18.0091 Y5.5143 F60
G1 X-18.1607 Y3.792
G1 Z-0.25 F30
G1 X-18.2045 Y3.2939 F60
G1 Z-0.3 F30
G1 X-18.3375 Y1.7821 F60
G1 X-18.1771 Y1.7821
G1 Z-0.35 F30
G1 X-15.1886 Y6.3264 F60
G1 X-14.8778 Y9.8566
G1 X-15.1534 Y9.8566
G1 X-15.5609 Y9.2369
G1 Z-0.25 F30
G1 X-15.8357 Y8.8192 F60
G1 Z-0.35 F30
G1 X-18.0091 Y5.5143 F60
G1 X-18.1607 Y3.792
G1 Z-0.25 F30
G1 X-18.2045 Y3.2939 F60
G1 Z-0.35 F30
G1 X-18.3375 Y1.7821 F60
G1 X-18.1771 Y1.7821
G1 Z-0.4 F30
G1 X-15.1886 Y6.3264 F60
G1 X-14.8778 Y9.8566
G1 X-15.1534 Y9.8566
G1 X-15.5609 Y9.2369
G1 Z-0.25 F30
G1 X-15.8357 Y8.8192 F60
G1 Z-0.4 F30
G1 X-18.0091 Y5.5143 F60
G1 X-18.1607 Y3.792
G1 Z-0.25 F30
G1 X-18.2045 Y3.2939 F60
G1 Z-0.4 F30
G1 X-18.3375 Y1.7821 F60
G1 X-18.1771 Y1.7821
G1 Z-0.45 F30
G1 X-15.1886 Y6.3264 F60
G1 X-14.8778 Y9.8566
G1 X-15.1534 Y9.8566
G1 X-15.5609 Y9.2369
G1 Z-0.25 F30
G1 X-15.8357 Y8.8192 F60
G1 Z-0.45 F30
G1 X-18.0091 Y5.5143 F60
G1 X-18.1607 Y3.792
G1 Z-0.25 F30
G1 X-18.2045 Y3.2939 F60
G1 Z-0.45 F30
G1 X-18.3375 Y1.7821 F60
G1 X-18.1771 Y1.7821
G1 Z-0.5 F30
G1 X-15.1886 Y6.3264 F60
G1 X-14.8778 Y9.8566
G1 X-15.1534 Y9.8566
G1 X-15.5609 Y9.2369
G1 Z-0.25 F30
G1 X-15.8357 Y8.8192 F60
G1 Z-0.5 F30
G1 X-18.0091 Y5.5143 F60
G1 X-18.1607 Y3.792
G1 Z-0.25 F30
G1 X-18.2045 Y3.2939 F60
G1 Z-0.5 F30
G1 X-18.3375 Y1.7821 F60
G1 X-18.1771 Y1.7821
G1 Z-0.55 F30
G1 X-15.1886 Y6.3264 F60
G1 X-14.8778 Y9.8566
G1 X-15.1534 Y9.8566
G1 X-15.5609 Y9.2369
G1 Z-0.25 F30
G1 X-15.8357 Y8.8192 F60
G1 Z-0.55 F30
G1 X-18.0091 Y5.5143 F60
G1 X-18.1607 Y3.792
G1 Z-0.25 F30
G1 X-18.2045 Y3.2939 F60
G1 Z-0.55 F30
G1 X-18.3375 Y1.7821 F60
G1 X-18.1771 Y1.7821
G1 Z-0.6 F30
G1 X-15.1886 Y6.3264 F60
G1 X-14.8778 Y9.8566
G1 X-15.1534 Y9.8566
G1 X-15.5609 Y9.2369
G1 Z-0.25 F30
G1 X-15.8357 Y8.8192 F60
G1 Z-0.6 F30
G1 X-18.0091 Y5.5143 F60
G1 X-18.1607 Y3.792
G1 Z-0.25 F30
G1 X-18.2045 Y3.2939 F60
G1 Z-0.6 F30
G1 X-18.3375 Y1.7821 F60
G1 X-18.1771 Y1.7821
G1 Z-0.65 F30
G1 X-15.1886 Y6.3264 F60
G1 X-14.8778 Y9.8566
G1 X-15.1534 Y9.8566
G1 X-15.5609 Y9.2369
G1 Z-0.25 F30
G1 X-15.8357 Y8.8192 F60
G1 Z-0.65 F30
G1 X-18.0091 Y5.5143 F60
G1 X-18.1607 Y3.792
G1 Z-0.25 F30
G1 X-18.2045 Y3.2939 F60
G1 Z-0.65 F30
G1 X-18.3375 Y1.7821 F60
G1 X-18.1771 Y1.7821
G1 Z-0.7 F30
G1 X-15.1886 Y6.3264 F60
G1 X-14.8778 Y9.8566
G1 X-15.1534 Y9.8566
G1 X-15.5609 Y9.2369
G1 Z-0.25 F30
G1 X-15.8357 Y8.8192 F60
G1 Z-0.7 F30
G1 X-18.0091 Y5.5143 F60
G1 X-18.1607 Y3.792
G1 Z-0.25 F30
G1 X-18.2045 Y3.2939 F60
G1 Z-0.7 F30
G1 X-18.3375 Y1.7821 F60
G1 X-18.1771 Y1.7821
G1 Z-0.75 F30
G1 X-15.1886 Y6.3264 F60
G1 X-14.8778 Y9.8566
G1 X-15.1534 Y9.8566
G1 X-15.5609 Y9.2369
G1 Z-0.25 F30
G1 X-15.8357 Y8.8192 F60
G1 Z-0.75 F30
G1 X-18.0091 Y5.5143 F60
G1 X-18.1607 Y3.792
G1 Z-0.25 F30
G1 X-18.2045 Y3.2939 F60
G1 Z-0.75 F30
G1 X-18.3375 Y1.7821 F60
G1 X-18.1771 Y1.7821
G0 Z0.5
G0 X-7.2276 Y21.9084
G1 Z-0.05 F30
G1 X-10.2161 Y17.3641 F60
G1 X-10.5268 Y13.834
G1 X-10.2513 Y13.834
G1 X-9.8437 Y14.4537
G1 X-9.569 Y14.8714
G1 X-7.3955 Y18.1763
G1 X-7.2488 Y19.8438
G1 X-7.2049 Y20.3419
G1 X-7.067 Y21.9084
G1 X-7.2276 Y21.9084
G1 Z-0.1 F30
G1 X-10.2161 Y17.3641 F60
G1 X-10.5268 Y13.834
G1 X-10.2513 Y13.834
G1 X-9.8437 Y14.4537
G1 X-9.569 Y14.8714
G1 X-7.3955 Y18.1763
G1 X-7.2488 Y19.8438
G1 X-7.2049 Y20.3419
G1 X-7.067 Y21.9084
G1 X-7.2276 Y21.9084
G1 Z-0.15 F30
G1 X-10.2161 Y17.3641 F60
G1 X-10.5268 Y13.834
G1 X-10.2513 Y13.834
G1 X-9.8437 Y14.4537
G1 X-9.569 Y14.8714
G1 X-7.3955 Y18.1763
G1 X-7.2488 Y19.8438
G1 X-7.2049 Y20.3419
G1 X-7.067 Y21.9084
G1 X-7.2276 Y21.9084
G1 Z-0.2 F30
G1 X-10.2161 Y17.3641 F60
G1 X-10.5268 Y13.834
G1 X-10.2513 Y13.834
G1 X-9.8437 Y14.4537
G1 X-9.569 Y14.8714
G1 X-7.3955 Y18.1763
G1 X-7.2488 Y19.8438
G1 X-7.2049 Y20.3419
G1 X-7.067 Y21.9084
G1 X-7.2276 Y21.9084
G1 Z-0.25 F30
G1 X-10.2161 Y17.3641 F60
G1 X-10.5268 Y13.834
G1 X-10.2513 Y13.834
G1 X-9.8437 Y14.4537
G1 X-9.569 Y14.8714
G1 X-7.3955 Y18.1763
G1 X-7.2488 Y19.8438
G1 X-7.2049 Y20.3419
G1 X-7.067 Y21.9084
G1 X-7.2276 Y21.9084
G1 Z-0.3 F30
G1 X-10.2161 Y17.3641 F60
G1 X-10.5268 Y13.834
G1 X-10.2513 Y13.834
G1 X-9.8437 Y14.4537
G1 Z-0.25 F30
G1 X-9.569 Y14.8714 F60
G1 Z-0.3 F30
G1 X-7.3955 Y18.1763 F60
G1 X-7.2488 Y19.8438
G1 Z-0.25 F30
G1 X-7.2049 Y20.3419 F60
G1 Z-0.3 F30
G1 X-7.067 Y21.9084 F60
G1 X-7.2276 Y21.9084
G1 Z-0.35 F30
G1 X-10.2161 Y17.3641 F60
G1 X-10.5268 Y13.834
G1 X-10.2513 Y13.834
G1 X-9.8437 Y14.4537
G1 Z-0.25 F30
G1 X-9.569 Y14.8714 F60
G1 Z-0.35 F30
G1 X-7.3955 Y18.1763 F60
G1 X-7.2488 Y19.8438
G1 Z-0.25 F30
G1 X-7.2049 Y20.3419 F60
G1 Z-0.35 F30
G1 X-7.067 Y21.9084 F60
G1 X-7.2276 Y21.9084
G1 Z-0.4 F30
G1 X-10.2161 Y17.3641 F60
G1 X-10.5268 Y13.834
G1 X-10.2513 Y13.834
G1 X-9.8437 Y14.4537
G1 Z-0.25 F30
G1 X-9.569 Y14.8714 F60
G1 Z-0.4 F30
G1 X-7.3955 Y18.1763 F60
G1 X-7.2488 Y19.8438
G1 Z-0.25 F30
G1 X-7.2049 Y20.3419 F60
G1 Z-0.4 F30
G1 X-7.067 Y21.9084 F60
G1 X-7.2276 Y21.9084
G1 Z-0.45 F30
G1 X-10.2161 Y17.3641 F60
G1 X-10.5268 Y13.834
G1 X-10.2513 Y13.834
G1 X-9.8437 Y14.4537
G1 Z-0.25 F30
G1 X-9.569 Y14.8714 F60
G1 Z-0.45 F30
G1 X-7.3955 Y18.1763 F60
G1 X-7.2488 Y19.8438
G1 Z-0.25 F30
G1 X-7.2049 Y20.3419 F60
G1 Z-0.45 F30
G1 X-7.067 Y21.9084 F60
G1 X-7.2276 Y21.9084
G1 Z-0.5 F30
G1 X-10.2161 Y17.3641 F60
G1 X-10.5268 Y13.834
G1 X-10.2513 Y13.834
G1 X-9.8437 Y14.4537
G1 Z-0.25 F30
G1 X-9.569 Y14.8714 F60
G1 Z-0.5 F30
G1 X-7.3955 Y18.1763 F60
G1 X-7.2488 Y19.8438
G1 Z-0.25 F30
G1 X-7.2049 Y20.3419 F60
G1 Z-0.5 F30
G1 X-7.067 Y21.9084 F60
G1 X-7.2276 Y21.9084
G1 Z-0.55 F30
G1 X-10.2161 Y17.3641 F60
G1 X-10.5268 Y13.834
G1 X-10.2513 Y13.834
G1 X-9.8437 Y14.4537
G1 Z-0.25 F30
G1 X-9.569 Y14.8714 F60
G1 Z-0.55 F30
G1 X-7.3955 Y18.1763 F60
G1 X-7.2488 Y19.8438
G1 Z-0.25 F30
G1 X-7.2049 Y20.3419 F60
G1 Z-0.55 F30
G1 X-7.067 Y21.9084 F60
G1 X-7.2276 Y21.9084
G1 Z-0.6 F30
G1 X-10.2161 Y17.3641 F60
G1 X-10.5268 Y13.834
G1 X-10.2513 Y13.834
G1 X-9.8437 Y14.4537
G1 Z-0.25 F30
G1 X-9.569 Y14.8714 F60
G1 Z-0.6 F30
G1 X-7.3955 Y18.1763 F60
G1 X-7.2488 Y19.8438
G1 Z-0.25 F30
G1 X-7.2049 Y20.3419 F60
G1 Z-0.6 F30
G1 X-7.067 Y21.9084 F60
G1 X-7.2276 Y21.9084
G1 Z-0.65 F30
G1 X-10.2161 Y17.3641 F60
G1 X-10.5268 Y13.834
G1 X-10.2513 Y13.834
G1 X-9.8437 Y14.4537
G1 Z-0.25 F30
G1 X-9.569 Y14.8714 F60
G1 Z-0.65 F30
G1 X-7.3955 Y18.1763 F60
G1 X-7.2488 Y19.8438
G1 Z-0.25 F30
G1 X-7.2049 Y20.3419 F60
G1 Z-0.65 F30
G1 X-7.067 Y21.9084 F60
G1 X-7.2276 Y21.9084
G1 Z-0.7 F30
G1 X-10.2161 Y17.3641 F60
G1 X-10.5268 Y13.834
G1 X-10.2513 Y13.834
G1 X-9.8437 Y14.4537
G1 Z-0.25 F30
G1 X-9.569 Y14.8714 F60
G1 Z-0.7 F30
G1 X-7.3955 Y18.1763 F60
G1 X-7.2488 Y19.8438
G1 Z-0.25 F30
G1 X-7.2049 Y20.3419 F60
G1 Z-0.7 F30
G1 X-7.067 Y21.9084 F60
G1 X-7.2276 Y21.9084
G1 Z-0.75 F30
G1 X-10.2161 Y17.3641 F60
G1 X-10.5268 Y13.834
G1 X-10.2513 Y13.834
G1 X-9.8437 Y14.4537
G1 Z-0.25 F30
G1 X-9.569 Y14.8714 F60
G1 Z-0.75 F30
G1 X-7.3955 Y18.1763 F60
G1 X-7.2488 Y19.8438
G1 Z-0.25 F30
G1 X-7.2049 Y20.3419 F60
G1 Z-0.75 F30
G1 X-7.067 Y21.9084 F60
G1 X-7.2276 Y21.9084
G0 Z0.5
G0 X-14.2154 Y17.3832
G1 Z-0.05 F30
G1 X-14.8786 Y18.7602 F60
G1 X-15.0955 Y19.2107
G1 X-16.3947 Y21.9084
G1 X-16.5661 Y21.9084
G1 X-16.7218 Y20.1402
G1 X-16.7656 Y19.6422
G1 X-16.8963 Y18.1572
G1 X-14.8142 Y13.834
G1 X-14.5278 Y13.834
G1 X-14.2154 Y17.3832
G1 Z-0.1 F30
G1 X-14.8786 Y18.7602 F60
G1 X-15.0955 Y19.2107
G1 X-16.3947 Y21.9084
G1 X-16.5661 Y21.9084
G1 X-16.7218 Y20.1402
G1 X-16.7656 Y19.6422
G1 X-16.8963 Y18.1572
G1 X-14.8142 Y13.834
G1 X-14.5278 Y13.834
G1 X-14.2154 Y17.3832
G1 Z-0.15 F30
G1 X-14.8786 Y18.7602 F60
G1 X-15.0955 Y19.2107
G1 X-16.3947 Y21.9084
G1 X-16.5661 Y21.9084
G1 X-16.7218 Y20.1402
G1 X-16.7656 Y19.6422
G1 X-16.8963 Y18.1572
G1 X-14.8142 Y13.834
G1 X-14.5278 Y13.834
G1 X-14.2154 Y17.3832
G1 Z-0.2 F30
G1 X-14.8786 Y18.7602 F60
G1 X-15.0955 Y19.2107
G1 X-16.3947 Y21.9084
G1 X-16.5661 Y21.9084
G1 X-16.7218 Y20.1402
G1 X-16.7656 Y19.6422
G1 X-16.8963 Y18.1572
G1 X-14.8142 Y13.834
G1 X-14.5278 Y13.834
G1 X-14.2154 Y17.3832
G1 Z-0.25 F30
G1 X-14.8786 Y18.7602 F60
G1 X-15.0955 Y19.2107
G1 X-16.3947 Y21.9084
G1 X-16.5661 Y21.9084
G1 X-16.7218 Y20.1402
G1 X-16.7656 Y19.6422
G1 X-16.8963 Y18.1572
G1 X-14.8142 Y13.834
G1 X-14.5278 Y13.834
G1 X-14.2154 Y17.3832
G1 Z-0.3 F30
G1 X-14.8786 Y18.7602 F60
G1 Z-0.25 F30
G1 X-15.0955 Y19.2107 F60
G1 Z-0.3 F30
G1 X-16.3947 Y21.9084 F60
G1 X-16.5661 Y21.9084
G1 X-16.7218 Y20.1402
G1 Z-0.25 F30
G1 X-16.7656 Y19.6422 F60
G1 Z-0.3 F30
G1 X-16.8963 Y18.1572 F60
G1 X-14.8142 Y13.834
G1 X-14.5278 Y13.834
G1 X-14.2154 Y17.3832
G1 Z-0.35 F30
G1 X-14.8786 Y18.7602 F60
G1 Z-0.25 F30
G1 X-15.0955 Y19.2107 F60
G1 Z-0.35 F30
G1 X-16.3947 Y21.9084 F60
G1 X-16.5661 Y21.9084
G1 X-16.7218 Y20.1402
G1 Z-0.25 F30
G1 X-16.7656 Y19.6422 F60
G1 Z-0.35 F30
G1 X-16.8963 Y18.1572 F60
G1 X-14.8142 Y13.834
G1 X-14.5278 Y13.834
G1 X-14.2154 Y17.3832
G1 Z-0.4 F30
G1 X-14.8786 Y18.7602 F60
G1 Z-0.25 F30
G1 X-15.0955 Y19.2107 F60
G1 Z-0.4 F30
G1 X-16.3947 Y21.9084 F60
G1 X-16.5661 Y21.9084
G1 X-16.7218 Y20.1402
G1 Z-0.25 F30
G1 X-16.7656 Y19.6422 F60
G1 Z-0.4 F30
G1 X-16.8963 Y18.1572 F60
G1 X-14.8142 Y13.834
G1 X-14.5278 Y13.834
G1 X-14.2154 Y17.3832
G1 Z-0.45 F30
G1 X-14.8786 Y18.7602 F60
G1 Z-0.25 F30
G1 X-15.0955 Y19.2107 F60
G1 Z-0.45 F30
G1 X-16.3947 Y21.9084 F60
G1 X-16.5661 Y21.9084
G1 X-16.7218 Y20.1402
G1 Z-0.25 F30
G1 X-16.7656 Y19.6422 F60
G1 Z-0.45 F30
G1 X-16.8963 Y18.1572 F60
G1 X-14.8142 Y13.834
G1 X-14.5278 Y13.834
G1 X-14.2154 Y17.3832
G1 Z-0.5 F30
G1 X-14.8786 Y18.7602 F60
G1 Z-0.25 F30
G1 X-15.0955 Y19.2107 F60
G1 Z-0.5 F30
G1 X-16.3947 Y21.9084 F60
G1 X-16.5661 Y21.9084
G1 X-16.7218 Y20.1402
G1 Z-0.25 F30
G1 X-16.7656 Y19.6422 F60
G1 Z-0.5 F30
G1 X-16.8963 Y18.1572 F60
G1 X-14.8142 Y13.834
G1 X-14.5278 Y13.834
G1 X-14.2154 Y17.3832
G1 Z-0.55 F30
G1 X-14.8786 Y18.7602 F60
G1 Z-0.25 F30
G1 X-15.0955 Y19.2107 F60
G1 Z-0.55 F30
G1 X-16.3947 Y21.9084 F60
G1 X-16.5661 Y21.9084
G1 X-16.7218 Y20.1402
G1 Z-0.25 F30
G1 X-16.7656 Y19.6422 F60
G1 Z-0.55 F30
G1 X-16.8963 Y18.1572 F60
G1 X-14.8142 Y13.834
G1 X-14.5278 Y13.834
G1 X-14.2154 Y17.3832
G1 Z-0.6 F30
G1 X-14.8786 Y18.7602 F60
G1 Z-0.25 F30
G1 X-15.0955 Y19.2107 F60
G1 Z-0.6 F30
G1 X-16.3947 Y21.9084 F60
G1 X-16.5661 Y21.9084
G1 X-16.7218 Y20.1402
G1 Z-0.25 F30
G1 X-16.7656 Y19.6422 F60
G1 Z-0.6 F30
G1 X-16.8963 Y18.1572 F60
G1 X-14.8142 Y13.834
G1 X-14.5278 Y13.834
G1 X-14.2154 Y17.3832
G1 Z-0.65 F30
G1 X-14.8786 Y18.7602 F60
G1 Z-0.25 F30
G1 X-15.0955 Y19.2107 F60
G1 Z-0.65 F30
G1 X-16.3947 Y21.9084 F60
G1 X-16.5661 Y21.9084
G1 X-16.7218 Y20.1402
G1 Z-0.25 F30
G1 X-16.7656 Y19.6422 F60
G1 Z-0.65 F30
G1 X-16.8963 Y18.1572 F60
G1 X-14.8142 Y13.834
G1 X-14.5278 Y13.834
G1 X-14.2154 Y17.3832
G1 Z-0.7 F30
G1 X-14.8786 Y18.7602 F60
G1 Z-0.25 F30
G1 X-15.0955 Y19.2107 F60
G1 Z-0.7 F30
G1 X-16.3947 Y21.9084 F60
G1 X-16.5661 Y21.9084
G1 X-16.7218 Y20.1402
G1 Z-0.25 F30
G1 X-16.7656 Y19.6422 F60
G1 Z-0.7 F30
G1 X-16.8963 Y18.1572 F60
G1 X-14.8142 Y13.834
G1 X-14.5278 Y13.834
G1 X-14.2154 Y17.3832
G1 Z-0.75 F30
G1 X-14.8786 Y18.7602 F60
G1 Z-0.25 F30
G1 X-15.0955 Y19.2107 F60
G1 Z-0.75 F30
G1 X-16.3947 Y21.9084 F60
G1 X-16.5661 Y21.9084
G1 X-16.7218 Y20.1402
G1 Z-0.25 F30
G1 X-16.7656 Y19.6422 F60
G1 Z-0.75 F30
G1 X-16.8963 Y18.1572 F60
G1 X-14.8142 Y13.834
G1 X-14.5278 Y13.834
G1 X-14.2154 Y17.3832
G0 Z0.5
G0 X-11.1892 Y6.3074
G1 Z-0.05 F30
G1 X-10.9768 Y5.8663 F60
G1 X-10.7599 Y5.4158
G1 X-9.0099 Y1.7821
G1 X-8.8385 Y1.7821
G1 X-8.7231 Y3.0943
G1 X-8.6792 Y3.5924
G1 X-8.5084 Y5.5333
G1 X-9.4553 Y7.4995
G1 X-9.6723 Y7.95
G1 X-10.5904 Y9.8566
G1 X-10.8769 Y9.8566
G1 X-11.1892 Y6.3074
G1 Z-0.1 F30
G1 X-10.9768 Y5.8663 F60
G1 X-10.7599 Y5.4158
G1 X-9.0099 Y1.7821
G1 X-8.8385 Y1.7821
G1 X-8.7231 Y3.0943
G1 X-8.6792 Y3.5924
G1 X-8.5084 Y5.5333
G1 X-9.4553 Y7.4995
G1 X-9.6723 Y7.95
G1 X-10.5904 Y9.8566
G1 X-10.8769 Y9.8566
G1 X-11.1892 Y6.3074
G1 Z-0.15 F30
G1 X-10.9768 Y5.8663 F60
G1 X-10.7599 Y5.4158
G1 X-9.0099 Y1.7821
G1 X-8.8385 Y1.7821
G1 X-8.7231 Y3.0943
G1 X-8.6792 Y3.5924
G1 X-8.5084 Y5.5333
G1 X-9.4553 Y7.4995
G1 X-9.6723 Y7.95
G1 X-10.5904 Y9.8566
G1 X-10.8769 Y9.8566
G1 X-11.1892 Y6.3074
G1 Z-0.2 F30
G1 X-10.9768 Y5.8663 F60
G1 X-10.7599 Y5.4158
G1 X-9.0099 Y1.7821
G1 X-8.8385 Y1.7821
G1 X-8.7231 Y3.0943
G1 X-8.6792 Y3.5924
G1 X-8.5084 Y5.5333
G1 X-9.4553 Y7.4995
G1 X-9.6723 Y7.95
G1 X-10.5904 Y9.8566
G1 X-10.8769 Y9.8566
G1 X-11.1892 Y6.3074
G1 Z-0.25 F30
G1 X-10.9768 Y5.8663 F60
G1 X-10.7599 Y5.4158
G1 X-9.0099 Y1.7821
G1 X-8.8385 Y1.7821
G1 X-8.7231 Y3.0943
G1 X-8.6792 Y3.5924
G1 X-8.5084 Y5.5333
G1 X-9.4553 Y7.4995
G1 X-9.6723 Y7.95
G1 X-10.5904 Y9.8566
G1 X-10.8769 Y9.8566
G1 X-11.1892 Y6.3074
G1 Z-0.3 F30
G1 X-10.9768 Y5.8663 F60
G1 Z-0.25 F30
G1 X-10.7599 Y5.4158 F60
G1 Z-0.3 F30
G1 X-9.0099 Y1.7821 F60
G1 X-8.8385 Y1.7821
G1 X-8.7231 Y3.0943
G1 Z-0.25 F30
G1 X-8.6792 Y3.5924 F60
G1 Z-0.3 F30
G1 X-8.5084 Y5.5333 F60
G1 X-9.4553 Y7.4995
G1 Z-0.25 F30
G1 X-9.6723 Y7.95 F60
G1 Z-0.3 F30
G1 X-10.5904 Y9.8566 F60
G1 X-10.8769 Y9.8566
G1 X-11.1892 Y6.3074
G1 Z-0.35 F30
G1 X-10.9768 Y5.8663 F60
G1 Z-0.25 F30
G1 X-10.7599 Y5.4158 F60
G1 Z-0.35 F30
G1 X-9.0099 Y1.7821 F60
G1 X-8.8385 Y1.7821
G1 X-8.7231 Y3.0943
G1 Z-0.25 F30
G1 X-8.6792 Y3.5924 F60
G1 Z-0.35 F30
G1 X-8.5084 Y5.5333 F60
G1 X-9.4553 Y7.4995
G1 Z-0.25 F30
G1 X-9.6723 Y7.95 F60
G1 Z-0.35 F30
G1 X-10.5904 Y9.8566 F60
G1 X-10.8769 Y9.8566
G1 X-11.1892 Y6.3074
G1 Z-0.4 F30
G1 X-10.9768 Y5.8663 F60
G1 Z-0.25 F30
G1 X-10.7599 Y5.4158 F60
G1 Z-0.4 F30
G1 X-9.0099 Y1.7821 F60
G1 X-8.8385 Y1.7821
G1 X-8.7231 Y3.0943
G1 Z-0.25 F30
G1 X-8.6792 Y3.5924 F60
G1 Z-0.4 F30
G1 X-8.5084 Y5.5333 F60
G1 X-9.4553 Y7.4995
G1 Z-0.25 F30
G1 X-9.6723 Y7.95 F60
G1 Z-0.4 F30
G1 X-10.5904 Y9.8566 F60
G1 X-10.8769 Y9.8566
G1 X-11.1892 Y6.3074
G1 Z-0.45 F30
G1 X-10.9768 Y5.8663 F60
G1 Z-0.25 F30
G1 X-10.7599 Y5.4158 F60
G1 Z-0.45 F30
G1 X-9.0099 Y1.7821 F60
G1 X-8.8385 Y1.7821
G1 X-8.7231 Y3.0943
G1 Z-0.25 F30
G1 X-8.6792 Y3.5924 F60
G1 Z-0.45 F30
G1 X-8.5084 Y5.5333 F60
G1 X-9.4553 Y7.4995
G1 Z-0.25 F30
G1 X-9.6723 Y7.95 F60
G1 Z-0.45 F30
G1 X-10.5904 Y9.8566 F60
G1 X-10.8769 Y9.8566
G1 X-11.1892 Y6.3074
G1 Z-0.5 F30
G1 X-10.9768 Y5.8663 F60
G1 Z-0.25 F30
G1 X-10.7599 Y5.4158 F60
G1 Z-0.5 F30
G1 X-9.0099 Y1.7821 F60
G1 X-8.8385 Y1.7821
G1 X-8.7231 Y3.0943
G1 Z-0.25 F30
G1 X-8.6792 Y3.5924 F60
G1 Z-0.5 F30
G1 X-8.5084 Y5.5333 F60
G1 X-9.4553 Y7.4995
G1 Z-0.25 F30
G1 X-9.6723 Y7.95 F60
G1 Z-0.5 F30
G1 X-10.5904 Y9.8566 F60
G1 X-10.8769 Y9.8566
G1 X-11.1892 Y6.3074
G1 Z-0.55 F30
G1 X-10.9768 Y5.8663 F60
G1 Z-0.25 F30
G1 X-10.7599 Y5.4158 F60
G1 Z-0.55 F30
G1 X-9.0099 Y1.7821 F60
G1 X-8.8385 Y1.7821
G1 X-8.7231 Y3.0943
G1 Z-0.25 F30
G1 X-8.6792 Y3.5924 F60
G1 Z-0.55 F30
G1 X-8.5084 Y5.5333 F60
G1 X-9.4553 Y7.4995
G1 Z-0.25 F30
G1 X-9.6723 Y7.95 F60
G1 Z-0.55 F30
G1 X-10.5904 Y9.8566 F60
G1 X-10.8769 Y9.8566
G1 X-11.1892 Y6.3074
G1 Z-0.6 F30
G1 X-10.9768 Y5.8663 F60
G1 Z-0.25 F30
G1 X-10.7599 Y5.4158 F60
G1 Z-0.6 F30
G1 X-9.0099 Y1.7821 F60
G1 X-8.8385 Y1.7821
G1 X-8.7231 Y3.0943
G1 Z-0.25 F30
G1 X-8.6792 Y3.5924 F60
G1 Z-0.6 F30
G1 X-8.5084 Y5.5333 F60
G1 X-9.4553 Y7.4995
G1 Z-0.25 F30
G1 X-9.6723 Y7.95 F60
G1 Z-0.6 F30
G1 X-10.5904 Y9.8566 F60
G1 X-10.8769 Y9.8566
G1 X-11.1892 Y6.3074
G1 Z-0.65 F30
G1 X-10.9768 Y5.8663 F60
G1 Z-0.25 F30
G1 X-10.7599 Y5.4158 F60
G1 Z-0.65 F30
G1 X-9.0099 Y1.7821 F60
G1 X-8.8385 Y1.7821
G1 X-8.7231 Y3.0943
G1 Z-0.25 F30
G1 X-8.6792 Y3.5924 F60
G1 Z-0.65 F30
G1 X-8.5084 Y5.5333 F60
G1 X-9.4553 Y7.4995
G1 Z-0.25 F30
G1 X-9.6723 Y7.95 F60
G1 Z-0.65 F30
G1 X-10.5904 Y9.8566 F60
G1 X-10.8769 Y9.8566
G1 X-11.1892 Y6.3074
G1 Z-0.7 F30
G1 X-10.9768 Y5.8663 F60
G1 Z-0.25 F30
G1 X-10.7599 Y5.4158 F60
G1 Z-0.7 F30
G1 X-9.0099 Y1.7821 F60
G1 X-8.8385 Y1.7821
G1 X-8.7231 Y3.0943
G1 Z-0.25 F30
G1 X-8.6792 Y3.5924 F60
G1 Z-0.7 F30
G1 X-8.5084 Y5.5333 F60
G1 X-9.4553 Y7.4995
G1 Z-0.25 F30
G1 X-9.6723 Y7.95 F60
G1 Z-0.7 F30
G1 X-10.5904 Y9.8566 F60
G1 X-10.8769 Y9.8566
G1 X-11.1892 Y6.3074
G1 Z-0.75 F30
G1 X-10.9768 Y5.8663 F60
G1 Z-0.25 F30
G1 X-10.7599 Y5.4158 F60
G1 Z-0.75 F30
G1 X-9.0099 Y1.7821 F60
G1 X-8.8385 Y1.7821
G1 X-8.7231 Y3.0943
G1 Z-0.25 F30
G1 X-8.6792 Y3.5924 F60
G1 Z-0.75 F30
G1 X-8.5084 Y5.5333 F60
G1 X-9.4553 Y7.4995
G1 Z-0.25 F30
G1 X-9.6723 Y7.95 F60
G1 Z-0.75 F30
G1 X-10.5904 Y9.8566 F60
G1 X-10.8769 Y9.8566
G1 X-11.1892 Y6.3074
G0 Z0.5
G0 X-17.8405 Y10.852
G1 Z-0.05 F30
G1 X-14.5046 Y10.852 F60
G1 X-13.4095 Y11.853
G1 X-13.7203 Y12.1916
G1 X-14.0585 Y12.5599
G1 X-14.3141 Y12.8384
G1 X-17.6501 Y12.8384
G1 X-18.7451 Y11.8375
G1 X-17.8405 Y10.852
G1 Z-0.1 F30
G1 X-14.5046 Y10.852 F60
G1 X-13.4095 Y11.853
G1 X-13.7203 Y12.1916
G1 X-14.0585 Y12.5599
G1 X-14.3141 Y12.8384
G1 X-17.6501 Y12.8384
G1 X-18.7451 Y11.8375
G1 X-17.8405 Y10.852
G1 Z-0.15 F30
G1 X-14.5046 Y10.852 F60
G1 X-13.4095 Y11.853
G1 X-13.7203 Y12.1916
G1 X-14.0585 Y12.5599
G1 X-14.3141 Y12.8384
G1 X-17.6501 Y12.8384
G1 X-18.7451 Y11.8375
G1 X-17.8405 Y10.852
G1 Z-0.2 F30
G1 X-14.5046 Y10.852 F60
G1 X-13.4095 Y11.853
G1 X-13.7203 Y12.1916
G1 X-14.0585 Y12.5599
G1 X-14.3141 Y12.8384
G1 X-17.6501 Y12.8384
G1 X-18.7451 Y11.8375
G1 X-17.8405 Y10.852
G1 Z-0.25 F30
G1 X-14.5046 Y10.852 F60
G1 X-13.4095 Y11.853
G1 X-13.7203 Y12.1916
G1 X-14.0585 Y12.5599
G1 X-14.3141 Y12.8384
G1 X-17.6501 Y12.8384
G1 X-18.7451 Y11.8375
G1 X-17.8405 Y10.852
G1 Z-0.3 F30
G1 X-14.5046 Y10.852 F60
G1 X-13.4095 Y11.853
G1 X-13.7203 Y12.1916
G1 Z-0.25 F30
G1 X-14.0585 Y12.5599 F60
G1 Z-0.3 F30
G1 X-14.3141 Y12.8384 F60
G1 X-17.6501 Y12.8384
G1 X-18.7451 Y11.8375
G1 X-17.8405 Y10.852
G1 Z-0.35 F30
G1 X-14.5046 Y10.852 F60
G1 X-13.4095 Y11.853
G1 X-13.7203 Y12.1916
G1 Z-0.25 F30
G1 X-14.0585 Y12.5599 F60
G1 Z-0.35 F30
G1 X-14.3141 Y12.8384 F60
G1 X-17.6501 Y12.8384
G1 X-18.7451 Y11.8375
G1 X-17.8405 Y10.852
G1 Z-0.4 F30
G1 X-14.5046 Y10.852 F60
G1 X-13.4095 Y11.853
G1 X-13.7203 Y12.1916
G1 Z-0.25 F30
G1 X-14.0585 Y12.5599 F60
G1 Z-0.4 F30
G1 X-14.3141 Y12.8384 F60
G1 X-17.6501 Y12.8384
G1 X-18.7451 Y11.8375
G1 X-17.8405 Y10.852
G1 Z-0.45 F30
G1 X-14.5046 Y10.852 F60
G1 X-13.4095 Y11.853
G1 X-13.7203 Y12.1916
G1 Z-0.25 F30
G1 X-14.0585 Y12.5599 F60
G1 Z-0.45 F30
G1 X-14.3141 Y12.8384 F60
G1 X-17.6501 Y12.8384
G1 X-18.7451 Y11.8375
G1 X-17.8405 Y10.852
G1 Z-0.5 F30
G1 X-14.5046 Y10.852 F60
G1 X-13.4095 Y11.853
G1 X-13.7203 Y12.1916
G1 Z-0.25 F30
G1 X-14.0585 Y12.5599 F60
G1 Z-0.5 F30
G1 X-14.3141 Y12.8384 F60
G1 X-17.6501 Y12.8384
G1 X-18.7451 Y11.8375
G1 X-17.8405 Y10.852
G1 Z-0.55 F30
G1 X-14.5046 Y10.852 F60
G1 X-13.4095 Y11.853
G1 X-13.7203 Y12.1916
G1 Z-0.25 F30
G1 X-14.0585 Y12.5599 F60
G1 Z-0.55 F30
G1 X-14.3141 Y12.8384 F60
G1 X-17.6501 Y12.8384
G1 X-18.7451 Y11.8375
G1 X-17.8405 Y10.852
G1 Z-0.6 F30
G1 X-14.5046 Y10.852 F60
G1 X-13.4095 Y11.853
G1 X-13.7203 Y12.1916
G1 Z-0.25 F30
G1 X-14.0585 Y12.5599 F60
G1 Z-0.6 F30
G1 X-14.3141 Y12.8384 F60
G1 X-17.6501 Y12.8384
G1 X-18.7451 Y11.8375
G1 X-17.8405 Y10.852
G1 Z-0.65 F30
G1 X-14.5046 Y10.852 F60
G1 X-13.4095 Y11.853
G1 X-13.7203 Y12.1916
G1 Z-0.25 F30
G1 X-14.0585 Y12.5599 F60
G1 Z-0.65 F30
G1 X-14.3141 Y12.8384 F60
G1 X-17.6501 Y12.8384
G1 X-18.7451 Y11.8375
G1 X-17.8405 Y10.852
G1 Z-0.7 F30
G1 X-14.5046 Y10.852 F60
G1 X-13.4095 Y11.853
G1 X-13.7203 Y12.1916
G1 Z-0.25 F30
G1 X-14.0585 Y12.5599 F60
G1 Z-0.7 F30
G1 X-14.3141 Y12.8384 F60
G1 X-17.6501 Y12.8384
G1 X-18.7451 Y11.8375
G1 X-17.8405 Y10.852
G1 Z-0.75 F30
G1 X-14.5046 Y10.852 F60
G1 X-13.4095 Y11.853
G1 X-13.7203 Y12.1916
G1 Z-0.25 F30
G1 X-14.0585 Y12.5599 F60
G1 Z-0.75 F30
G1 X-14.3141 Y12.8384 F60
G1 X-17.6501 Y12.8384
G1 X-18.7451 Y11.8375
G1 X-17.8405 Y10.852
G0 Z0.5
G0 X-11.0905 Y10.852
G1 Z-0.05 F30
G1 X-7.7546 Y10.852 F60
G1 X-6.6594 Y11.853
G1 X-7.5642 Y12.8384
G1 X-10.9001 Y12.8384
G1 X-11.9951 Y11.8375
G1 X-11.7426 Y11.5624
G1 X-11.4045 Y11.194
G1 X-11.0905 Y10.852
G1 Z-0.1 F30
G1 X-7.7546 Y10.852 F60
G1 X-6.6594 Y11.853
G1 X-7.5642 Y12.8384
G1 X-10.9001 Y12.8384
G1 X-11.9951 Y11.8375
G1 X-11.7426 Y11.5624
G1 X-11.4045 Y11.194
G1 X-11.0905 Y10.852
G1 Z-0.15 F30
G1 X-7.7546 Y10.852 F60
G1 X-6.6594 Y11.853
G1 X-7.5642 Y12.8384
G1 X-10.9001 Y12.8384
G1 X-11.9951 Y11.8375
G1 X-11.7426 Y11.5624
G1 X-11.4045 Y11.194
G1 X-11.0905 Y10.852
G1 Z-0.2 F30
G1 X-7.7546 Y10.852 F60
G1 X-6.6594 Y11.853
G1 X-7.5642 Y12.8384
G1 X-10.9001 Y12.8384
G1 X-11.9951 Y11.8375
G1 X-11.7426 Y11.5624
G1 X-11.4045 Y11.194
G1 X-11.0905 Y10.852
G1 Z-0.25 F30
G1 X-7.7546 Y10.852 F60
G1 X-6.6594 Y11.853
G1 X-7.5642 Y12.8384
G1 X-10.9001 Y12.8384
G1 X-11.9951 Y11.8375
G1 X-11.7426 Y11.5624
G1 X-11.4045 Y11.194
G1 X-11.0905 Y10.852
G1 Z-0.3 F30
G1 X-7.7546 Y10.852 F60
G1 X-6.6594 Y11.853
G1 X-7.5642 Y12.8384
G1 X-10.9001 Y12.8384
G1 X-11.9951 Y11.8375
G1 X-11.7426 Y11.5624
G1 Z-0.25 F30
G1 X-11.4045 Y11.194 F60
G1 Z-0.3 F30
G1 X-11.0905 Y10.852 F60
G1 Z-0.35 F30
G1 X-7.7546 Y10.852 F60
G1 X-6.6594 Y11.853
G1 X-7.5642 Y12.8384
G1 X-10.9001 Y12.8384
G1 X-11.9951 Y11.8375
G1 X-11.7426 Y11.5624
G1 Z-0.25 F30
G1 X-11.4045 Y11.194 F60
G1 Z-0.35 F30
G1 X-11.0905 Y10.852 F60
G1 Z-0.4 F30
G1 X-7.7546 Y10.852 F60
G1 X-6.6594 Y11.853
G1 X-7.5642 Y12.8384
G1 X-10.9001 Y12.8384
G1 X-11.9951 Y11.8375
G1 X-11.7426 Y11.5624
G1 Z-0.25 F30
G1 X-11.4045 Y11.194 F60
G1 Z-0.4 F30
G1 X-11.0905 Y10.852 F60
G1 Z-0.45 F30
G1 X-7.7546 Y10.852 F60
G1 X-6.6594 Y11.853
G1 X-7.5642 Y12.8384
G1 X-10.9001 Y12.8384
G1 X-11.9951 Y11.8375
G1 X-11.7426 Y11.5624
G1 Z-0.25 F30
G1 X-11.4045 Y11.194 F60
G1 Z-0.45 F30
G1 X-11.0905 Y10.852 F60
G1 Z-0.5 F30
G1 X-7.7546 Y10.852 F60
G1 X-6.6594 Y11.853
G1 X-7.5642 Y12.8384
G1 X-10.9001 Y12.8384
G1 X-11.9951 Y11.8375
G1 X-11.7426 Y11.5624
G1 Z-0.25 F30
G1 X-11.4045 Y11.194 F60
G1 Z-0.5 F30
G1 X-11.0905 Y10.852 F60
G1 Z-0.55 F30
G1 X-7.7546 Y10.852 F60
G1 X-6.6594 Y11.853
G1 X-7.5642 Y12.8384
G1 X-10.9001 Y12.8384
G1 X-11.9951 Y11.8375
G1 X-11.7426 Y11.5624
G1 Z-0.25 F30
G1 X-11.4045 Y11.194 F60
G1 Z-0.55 F30
G1 X-11.0905 Y10.852 F60
G1 Z-0.6 F30
G1 X-7.7546 Y10.852 F60
G1 X-6.6594 Y11.853
G1 X-7.5642 Y12.8384
G1 X-10.9001 Y12.8384
G1 X-11.9951 Y11.8375
G1 X-11.7426 Y11.5624
G1 Z-0.25 F30
G1 X-11.4045 Y11.194 F60
G1 Z-0.6 F30
G1 X-11.0905 Y10.852 F60
G1 Z-0.65 F30
G1 X-7.7546 Y10.852 F60
G1 X-6.6594 Y11.853
G1 X-7.5642 Y12.8384
G1 X-10.9001 Y12.8384
G1 X-11.9951 Y11.8375
G1 X-11.7426 Y11.5624
G1 Z-0.25 F30
G1 X-11.4045 Y11.194 F60
G1 Z-0.65 F30
G1 X-11.0905 Y10.852 F60
G1 Z-0.7 F30
G1 X-7.7546 Y10.852 F60
G1 X-6.6594 Y11.853
G1 X-7.5642 Y12.8384
G1 X-10.9001 Y12.8384
G1 X-11.9951 Y11.8375
G1 X-11.7426 Y11.5624
G1 Z-0.25 F30
G1 X-11.4045 Y11.194 F60
G1 Z-0.7 F30
G1 X-11.0905 Y10.852 F60
G1 Z-0.75 F30
G1 X-7.7546 Y10.852 F60
G1 X-6.6594 Y11.853
G1 X-7.5642 Y12.8384
G1 X-10.9001 Y12.8384
G1 X-11.9951 Y11.8375
G1 X-11.7426 Y11.5624
G1 Z-0.25 F30
G1 X-11.4045 Y11.194 F60
G1 Z-0.75 F30
G1 X-11.0905 Y10.852 F60
G0 Z0.5
G0 X-10.1023 Y19.4024
G1 Z-0.05 F30
G1 X-8.4543 Y21.9084 F60
G1 X-10.526 Y21.9084
G1 X-10.1759 Y21.5269
G1 X-9.9754 Y21.3086
G2 X-9.9425 Y21.2241 I-0.0921 J-0.0846
G2 X-9.943 Y21.2131 I-0.125 J0
G1 X-10.1023 Y19.4024
G1 Z-0.1 F30
G1 X-8.4543 Y21.9084 F60
G1 X-10.526 Y21.9084
G1 X-10.1759 Y21.5269
G1 X-9.9754 Y21.3086
G2 X-9.9425 Y21.2241 I-0.0921 J-0.0846
G2 X-9.943 Y21.2131 I-0.125 J0
G1 X-10.1023 Y19.4024
G1 Z-0.15 F30
G1 X-8.4543 Y21.9084 F60
G1 X-10.526 Y21.9084
G1 X-10.1759 Y21.5269
G1 X-9.9754 Y21.3086
G2 X-9.9425 Y21.2241 I-0.0921 J-0.0846
G2 X-9.943 Y21.2131 I-0.125 J0
G1 X-10.1023 Y19.4024
G1 Z-0.2 F30
G1 X-8.4543 Y21.9084 F60
G1 X-10.526 Y21.9084
G1 X-10.1759 Y21.5269
G1 X-9.9754 Y21.3086
G2 X-9.9425 Y21.2241 I-0.0921 J-0.0846
G2 X-9.943 Y21.2131 I-0.125 J0
G1 X-10.1023 Y19.4024
G1 Z-0.25 F30
G1 X-8.4543 Y21.9084 F60
G1 X-10.526 Y21.9084
G1 X-10.1759 Y21.5269
G1 X-9.9754 Y21.3086
G2 X-9.9425 Y21.2241 I-0.0921 J-0.0846
G2 X-9.943 Y21.2131 I-0.125 J0
G1 X-10.1023 Y19.4024
G1 Z-0.3 F30
G1 X-8.4543 Y21.9084 F60
G1 X-10.526 Y21.9084
G1 X-10.1759 Y21.5269
G1 X-9.9754 Y21.3086
G2 X-9.9425 Y21.2241 I-0.0921 J-0.0846
G2 X-9.943 Y21.2131 I-0.125 J0
G1 X-10.1023 Y19.4024
G1 Z-0.35 F30
G1 X-8.4543 Y21.9084 F60
G1 X-10.526 Y21.9084
G1 X-10.1759 Y21.5269
G1 X-9.9754 Y21.3086
G2 X-9.9425 Y21.2241 I-0.0921 J-0.0846
G2 X-9.943 Y21.2131 I-0.125 J0
G1 X-10.1023 Y19.4024
G1 Z-0.4 F30
G1 X-8.4543 Y21.9084 F60
G1 X-10.526 Y21.9084
G1 X-10.1759 Y21.5269
G1 X-9.9754 Y21.3086
G2 X-9.9425 Y21.2241 I-0.0921 J-0.0846
G2 X-9.943 Y21.2131 I-0.125 J0
G1 X-10.1023 Y19.4024
G1 Z-0.45 F30
G1 X-8.4543 Y21.9084 F60
G1 X-10.526 Y21.9084
G1 X-10.1759 Y21.5269
G1 X-9.9754 Y21.3086
G2 X-9.9425 Y21.2241 I-0.0921 J-0.0846
G2 X-9.943 Y21.2131 I-0.125 J0
G1 X-10.1023 Y19.4024
G1 Z-0.5 F30
G1 X-8.4543 Y21.9084 F60
G1 X-10.526 Y21.9084
G1 X-10.1759 Y21.5269
G1 X-9.9754 Y21.3086
G2 X-9.9425 Y21.2241 I-0.0921 J-0.0846
G2 X-9.943 Y21.2131 I-0.125 J0
G1 X-10.1023 Y19.4024
G1 Z-0.55 F30
G1 X-8.4543 Y21.9084 F60
G1 X-10.526 Y21.9084
G1 X-10.1759 Y21.5269
G1 X-9.9754 Y21.3086
G2 X-9.9425 Y21.2241 I-0.0921 J-0.0846
G2 X-9.943 Y21.2131 I-0.125 J0
G1 X-10.1023 Y19.4024
G1 Z-0.6 F30
G1 X-8.4543 Y21.9084 F60
G1 X-10.526 Y21.9084
G1 X-10.1759 Y21.5269
G1 X-9.9754 Y21.3086
G2 X-9.9425 Y21.2241 I-0.0921 J-0.0846
G2 X-9.943 Y21.2131 I-0.125 J0
G1 X-10.1023 Y19.4024
G1 Z-0.65 F30
G1 X-8.4543 Y21.9084 F60
G1 X-10.526 Y21.9084
G1 X-10.1759 Y21.5269
G1 X-9.9754 Y21.3086
G2 X-9.9425 Y21.2241 I-0.0921 J-0.0846
G2 X-9.943 Y21.2131 I-0.125 J0
G1 X-10.1023 Y19.4024
G1 Z-0.7 F30
G1 X-8.4543 Y21.9084 F60
G1 X-10.526 Y21.9084
G1 X-10.1759 Y21.5269
G1 X-9.9754 Y21.3086
G2 X-9.9425 Y21.2241 I-0.0921 J-0.0846
G2 X-9.943 Y21.2131 I-0.125 J0
G1 X-10.1023 Y19.4024
G1 Z-0.75 F30
G1 X-8.4543 Y21.9084 F60
G1 X-10.526 Y21.9084
G1 X-10.1759 Y21.5269
G1 X-9.9754 Y21.3086
G2 X-9.9425 Y21.2241 I-0.0921 J-0.0846
G2 X-9.943 Y21.2131 I-0.125 J0
G1 X-10.1023 Y19.4024
G0 Z0.5
G0 X-15.4336 Y4.2881
G1 Z-0.05 F30
G1 X-17.0816 Y1.7821 F60
G1 X-15.0098 Y1.7821
G1 X-15.5605 Y2.382
G2 X-15.5935 Y2.4665 I0.0921 J0.0845
G2 X-15.593 Y2.4775 I0.125 J0
G1 X-15.4336 Y4.2881
G1 Z-0.1 F30
G1 X-17.0816 Y1.7821 F60
G1 X-15.0098 Y1.7821
G1 X-15.5605 Y2.382
G2 X-15.5935 Y2.4665 I0.0921 J0.0845
G2 X-15.593 Y2.4775 I0.125 J0
G1 X-15.4336 Y4.2881
G1 Z-0.15 F30
G1 X-17.0816 Y1.7821 F60
G1 X-15.0098 Y1.7821
G1 X-15.5605 Y2.382
G2 X-15.5935 Y2.4665 I0.0921 J0.0845
G2 X-15.593 Y2.4775 I0.125 J0
G1 X-15.4336 Y4.2881
G1 Z-0.2 F30
G1 X-17.0816 Y1.7821 F60
G1 X-15.0098 Y1.7821
G1 X-15.5605 Y2.382
G2 X-15.5935 Y2.4665 I0.0921 J0.0845
G2 X-15.593 Y2.4775 I0.125 J0
G1 X-15.4336 Y4.2881
G1 Z-0.25 F30
G1 X-17.0816 Y1.7821 F60
G1 X-15.0098 Y1.7821
G1 X-15.5605 Y2.382
G2 X-15.5935 Y2.4665 I0.0921 J0.0845
G2 X-15.593 Y2.4775 I0.125 J0
G1 X-15.4336 Y4.2881
G1 Z-0.3 F30
G1 X-17.0816 Y1.7821 F60
G1 X-15.0098 Y1.7821
G1 X-15.5605 Y2.382
G2 X-15.5935 Y2.4665 I0.0921 J0.0845
G2 X-15.593 Y2.4775 I0.125 J0
G1 X-15.4336 Y4.2881
G1 Z-0.35 F30
G1 X-17.0816 Y1.7821 F60
G1 X-15.0098 Y1.7821
G1 X-15.5605 Y2.382
G2 X-15.5935 Y2.4665 I0.0921 J0.0845
G2 X-15.593 Y2.4775 I0.125 J0
G1 X-15.4336 Y4.2881
G1 Z-0.4 F30
G1 X-17.0816 Y1.7821 F60
G1 X-15.0098 Y1.7821
G1 X-15.5605 Y2.382
G2 X-15.5935 Y2.4665 I0.0921 J0.0845
G2 X-15.593 Y2.4775 I0.125 J0
G1 X-15.4336 Y4.2881
G1 Z-0.45 F30
G1 X-17.0816 Y1.7821 F60
G1 X-15.0098 Y1.7821
G1 X-15.5605 Y2.382
G2 X-15.5935 Y2.4665 I0.0921 J0.0845
G2 X-15.593 Y2.4775 I0.125 J0
G1 X-15.4336 Y4.2881
G1 Z-0.5 F30
G1 X-17.0816 Y1.7821 F60
G1 X-15.0098 Y1.7821
G1 X-15.5605 Y2.382
G2 X-15.5935 Y2.4665 I0.0921 J0.0845
G2 X-15.593 Y2.4775 I0.125 J0
G1 X-15.4336 Y4.2881
G1 Z-0.55 F30
G1 X-17.0816 Y1.7821 F60
G1 X-15.0098 Y1.7821
G1 X-15.5605 Y2.382
G2 X-15.5935 Y2.4665 I0.0921 J0.0845
G2 X-15.593 Y2.4775 I0.125 J0
G1 X-15.4336 Y4.2881
G1 Z-0.6 F30
G1 X-17.0816 Y1.7821 F60
G1 X-15.0098 Y1.7821
G1 X-15.5605 Y2.382
G2 X-15.5935 Y2.4665 I0.0921 J0.0845
G2 X-15.593 Y2.4775 I0.125 J0
G1 X-15.4336 Y4.2881
G1 Z-0.65 F30
G1 X-17.0816 Y1.7821 F60
G1 X-15.0098 Y1.7821
G1 X-15.5605 Y2.382
G2 X-15.5935 Y2.4665 I0.0921 J0.0845
G2 X-15.593 Y2.4775 I0.125 J0
G1 X-15.4336 Y4.2881
G1 Z-0.7 F30
G1 X-17.0816 Y1.7821 F60
G1 X-15.0098 Y1.7821
G1 X-15.5605 Y2.382
G2 X-15.5935 Y2.4665 I0.0921 J0.0845
G2 X-15.593 Y2.4775 I0.125 J0
G1 X-15.4336 Y4.2881
G1 Z-0.75 F30
G1 X-17.0816 Y1.7821 F60
G1 X-15.0098 Y1.7821
G1 X-15.5605 Y2.382
G2 X-15.5935 Y2.4665 I0.0921 J0.0845
G2 X-15.593 Y2.4775 I0.125 J0
G1 X-15.4336 Y4.2881
G0 Z0.5
G0 X-15.3209 Y21.9084
G1 Z-0.05 F30
G1 X-14.1049 Y19.3834 F60
G1 X-13.9419 Y21.235
G2 X-13.9017 Y21.3163 I0.1245 J-0.011
G1 X-13.254 Y21.9084
G1 X-15.3209 Y21.9084
G1 Z-0.1 F30
G1 X-14.1049 Y19.3834 F60
G1 X-13.9419 Y21.235
G2 X-13.9017 Y21.3163 I0.1245 J-0.011
G1 X-13.254 Y21.9084
G1 X-15.3209 Y21.9084
G1 Z-0.15 F30
G1 X-14.1049 Y19.3834 F60
G1 X-13.9419 Y21.235
G2 X-13.9017 Y21.3163 I0.1245 J-0.011
G1 X-13.254 Y21.9084
G1 X-15.3209 Y21.9084
G1 Z-0.2 F30
G1 X-14.1049 Y19.3834 F60
G1 X-13.9419 Y21.235
G2 X-13.9017 Y21.3163 I0.1245 J-0.011
G1 X-13.254 Y21.9084
G1 X-15.3209 Y21.9084
G1 Z-0.25 F30
G1 X-14.1049 Y19.3834 F60
G1 X-13.9419 Y21.235
G2 X-13.9017 Y21.3163 I0.1245 J-0.011
G1 X-13.254 Y21.9084
G1 X-15.3209 Y21.9084
G1 Z-0.3 F30
G1 X-14.1049 Y19.3834 F60
G1 X-13.9419 Y21.235
G2 X-13.9017 Y21.3163 I0.1245 J-0.011
G1 X-13.254 Y21.9084
G1 X-15.3209 Y21.9084
G1 Z-0.35 F30
G1 X-14.1049 Y19.3834 F60
G1 X-13.9419 Y21.235
G2 X-13.9017 Y21.3163 I0.1245 J-0.011
G1 X-13.254 Y21.9084
G1 X-15.3209 Y21.9084
G1 Z-0.4 F30
G1 X-14.1049 Y19.3834 F60
G1 X-13.9419 Y21.235
G2 X-13.9017 Y21.3163 I0.1245 J-0.011
G1 X-13.254 Y21.9084
G1 X-15.3209 Y21.9084
G1 Z-0.45 F30
G1 X-14.1049 Y19.3834 F60
G1 X-13.9419 Y21.235
G2 X-13.9017 Y21.3163 I0.1245 J-0.011
G1 X-13.254 Y21.9084
G1 X-15.3209 Y21.9084
G1 Z-0.5 F30
G1 X-14.1049 Y19.3834 F60
G1 X-13.9419 Y21.235
G2 X-13.9017 Y21.3163 I0.1245 J-0.011
G1 X-13.254 Y21.9084
G1 X-15.3209 Y21.9084
G1 Z-0.55 F30
G1 X-14.1049 Y19.3834 F60
G1 X-13.9419 Y21.235
G2 X-13.9017 Y21.3163 I0.1245 J-0.011
G1 X-13.254 Y21.9084
G1 X-15.3209 Y21.9084
G1 Z-0.6 F30
G1 X-14.1049 Y19.3834 F60
G1 X-13.9419 Y21.235
G2 X-13.9017 Y21.3163 I0.1245 J-0.011
G1 X-13.254 Y21.9084
G1 X-15.3209 Y21.9084
G1 Z-0.65 F30
G1 X-14.1049 Y19.3834 F60
G1 X-13.9419 Y21.235
G2 X-13.9017 Y21.3163 I0.1245 J-0.011
G1 X-13.254 Y21.9084
G1 X-15.3209 Y21.9084
G1 Z-0.7 F30
G1 X-14.1049 Y19.3834 F60
G1 X-13.9419 Y21.235
G2 X-13.9017 Y21.3163 I0.1245 J-0.011
G1 X-13.254 Y21.9084
G1 X-15.3209 Y21.9084
G1 Z-0.75 F30
G1 X-14.1049 Y19.3834 F60
G1 X-13.9419 Y21.235
G2 X-13.9017 Y21.3163 I0.1245 J-0.011
G1 X-13.254 Y21.9084
G1 X-15.3209 Y21.9084
G0 Z0.5
G0 X-10.215 Y1.7822
G1 Z-0.05 F30
G1 X-10.671 Y2.7292 F60
G1 X-10.888 Y3.1797
G1 X-11.431 Y4.3072
G1 X-11.5669 Y2.7645
G1 X-11.594 Y2.4557
G2 X-11.6341 Y2.3743 I-0.1245 J0.0109
G1 X-12.2819 Y1.7822
G1 X-10.215 Y1.7822
G1 Z-0.1 F30
G1 X-10.671 Y2.7292 F60
G1 X-10.888 Y3.1797
G1 X-11.431 Y4.3072
G1 X-11.5669 Y2.7645
G1 X-11.594 Y2.4557
G2 X-11.6341 Y2.3743 I-0.1245 J0.0109
G1 X-12.2819 Y1.7822
G1 X-10.215 Y1.7822
G1 Z-0.15 F30
G1 X-10.671 Y2.7292 F60
G1 X-10.888 Y3.1797
G1 X-11.431 Y4.3072
G1 X-11.5669 Y2.7645
G1 X-11.594 Y2.4557
G2 X-11.6341 Y2.3743 I-0.1245 J0.0109
G1 X-12.2819 Y1.7822
G1 X-10.215 Y1.7822
G1 Z-0.2 F30
G1 X-10.671 Y2.7292 F60
G1 X-10.888 Y3.1797
G1 X-11.431 Y4.3072
G1 X-11.5669 Y2.7645
G1 X-11.594 Y2.4557
G2 X-11.6341 Y2.3743 I-0.1245 J0.0109
G1 X-12.2819 Y1.7822
G1 X-10.215 Y1.7822
G1 Z-0.25 F30
G1 X-10.671 Y2.7292 F60
G1 X-10.888 Y3.1797
G1 X-11.431 Y4.3072
G1 X-11.5669 Y2.7645
G1 X-11.594 Y2.4557
G2 X-11.6341 Y2.3743 I-0.1245 J0.0109
G1 X-12.2819 Y1.7822
G1 X-10.215 Y1.7822
G1 Z-0.3 F30
G1 X-10.671 Y2.7292 F60
G1 Z-0.25 F30
G1 X-10.888 Y3.1797 F60
G1 Z-0.3 F30
G1 X-11.431 Y4.3072 F60
G1 X-11.5669 Y2.7645
G1 X-11.594 Y2.4557
G2 X-11.6341 Y2.3743 I-0.1245 J0.0109
G1 X-12.2819 Y1.7822
G1 X-10.215 Y1.7822
G1 Z-0.35 F30
G1 X-10.671 Y2.7292 F60
G1 Z-0.25 F30
G1 X-10.888 Y3.1797 F60
G1 Z-0.35 F30
G1 X-11.431 Y4.3072 F60
G1 X-11.5669 Y2.7645
G1 X-11.594 Y2.4557
G2 X-11.6341 Y2.3743 I-0.1245 J0.0109
G1 X-12.2819 Y1.7822
G1 X-10.215 Y1.7822
G1 Z-0.4 F30
G1 X-10.671 Y2.7292 F60
G1 Z-0.25 F30
G1 X-10.888 Y3.1797 F60
G1 Z-0.4 F30
G1 X-11.431 Y4.3072 F60
G1 X-11.5669 Y2.7645
G1 X-11.594 Y2.4557
G2 X-11.6341 Y2.3743 I-0.1245 J0.0109
G1 X-12.2819 Y1.7822
G1 X-10.215 Y1.7822
G1 Z-0.45 F30
G1 X-10.671 Y2.7292 F60
G1 Z-0.25 F30
G1 X-10.888 Y3.1797 F60
G1 Z-0.45 F30
G1 X-11.431 Y4.3072 F60
G1 X-11.5669 Y2.7645
G1 X-11.594 Y2.4557
G2 X-11.6341 Y2.3743 I-0.1245 J0.0109
G1 X-12.2819 Y1.7822
G1 X-10.215 Y1.7822
G1 Z-0.5 F30
G1 X-10.671 Y2.7292 F60
G1 Z-0.25 F30
G1 X-10.888 Y3.1797 F60
G1 Z-0.5 F30
G1 X-11.431 Y4.3072 F60
G1 X-11.5669 Y2.7645
G1 X-11.594 Y2.4557
G2 X-11.6341 Y2.3743 I-0.1245 J0.0109
G1 X-12.2819 Y1.7822
G1 X-10.215 Y1.7822
G1 Z-0.55 F30
G1 X-10.671 Y2.7292 F60
G1 Z-0.25 F30
G1 X-10.888 Y3.1797 F60
G1 Z-0.55 F30
G1 X-11.431 Y4.3072 F60
G1 X-11.5669 Y2.7645
G1 X-11.594 Y2.4557
G2 X-11.6341 Y2.3743 I-0.1245 J0.0109
G1 X-12.2819 Y1.7822
G1 X-10.215 Y1.7822
G1 Z-0.6 F30
G1 X-10.671 Y2.7292 F60
G1 Z-0.25 F30
G1 X-10.888 Y3.1797 F60
G1 Z-0.6 F30
G1 X-11.431 Y4.3072 F60
G1 X-11.5669 Y2.7645
G1 X-11.594 Y2.4557
G2 X-11.6341 Y2.3743 I-0.1245 J0.0109
G1 X-12.2819 Y1.7822
G1 X-10.215 Y1.7822
G1 Z-0.65 F30
G1 X-10.671 Y2.7292 F60
G1 Z-0.25 F30
G1 X-10.888 Y3.1797 F60
G1 Z-0.65 F30
G1 X-11.431 Y4.3072 F60
G1 X-11.5669 Y2.7645
G1 X-11.594 Y2.4557
G2 X-11.6341 Y2.3743 I-0.1245 J0.0109
G1 X-12.2819 Y1.7822
G1 X-10.215 Y1.7822
G1 Z-0.7 F30
G1 X-10.671 Y2.7292 F60
G1 Z-0.25 F30
G1 X-10.888 Y3.1797 F60
G1 Z-0.7 F30
G1 X-11.431 Y4.3072 F60
G1 X-11.5669 Y2.7645
G1 X-11.594 Y2.4557
G2 X-11.6341 Y2.3743 I-0.1245 J0.0109
G1 X-12.2819 Y1.7822
G1 X-10.215 Y1.7822
G1 Z-0.75 F30
G1 X-10.671 Y2.7292 F60
G1 Z-0.25 F30
G1 X-10.888 Y3.1797 F60
G1 Z-0.75 F30
G1 X-11.431 Y4.3072 F60
G1 X-11.5669 Y2.7645
G1 X-11.594 Y2.4557
G2 X-11.6341 Y2.3743 I-0.1245 J0.0109
G1 X-12.2819 Y1.7822
G1 X-10.215 Y1.7822
G0 Z0.5
G0 X-17.8953 Y7.5526
G1 Z-0.05 F30
G1 X-16.3802 Y9.8566 F60
G1 X-17.6925 Y9.8566
G1 X-17.8953 Y7.5526
G1 Z-0.1 F30
G1 X-16.3802 Y9.8566 F60
G1 X-17.6925 Y9.8566
G1 X-17.8953 Y7.5526
G1 Z-0.15 F30
G1 X-16.3802 Y9.8566 F60
G1 X-17.6925 Y9.8566
G1 X-17.8953 Y7.5526
G1 Z-0.2 F30
G1 X-16.3802 Y9.8566 F60
G1 X-17.6925 Y9.8566
G1 X-17.8953 Y7.5526
G1 Z-0.25 F30
G1 X-16.3802 Y9.8566 F60
G1 X-17.6925 Y9.8566
G1 X-17.8953 Y7.5526
G1 Z-0.3 F30
G1 X-16.3802 Y9.8566 F60
G1 X-17.6925 Y9.8566
G1 X-17.8953 Y7.5526
G1 Z-0.35 F30
G1 X-16.3802 Y9.8566 F60
G1 X-17.6925 Y9.8566
G1 X-17.8953 Y7.5526
G1 Z-0.4 F30
G1 X-16.3802 Y9.8566 F60
G1 X-17.6925 Y9.8566
G1 X-17.8953 Y7.5526
G1 Z-0.45 F30
G1 X-16.3802 Y9.8566 F60
G1 X-17.6925 Y9.8566
G1 X-17.8953 Y7.5526
G1 Z-0.5 F30
G1 X-16.3802 Y9.8566 F60
G1 X-17.6925 Y9.8566
G1 X-17.8953 Y7.5526
G1 Z-0.55 F30
G1 X-16.3802 Y9.8566 F60
G1 X-17.6925 Y9.8566
G1 X-17.8953 Y7.5526
G1 Z-0.6 F30
G1 X-16.3802 Y9.8566 F60
G1 X-17.6925 Y9.8566
G1 X-17.8953 Y7.5526
G1 Z-0.65 F30
G1 X-16.3802 Y9.8566 F60
G1 X-17.6925 Y9.8566
G1 X-17.8953 Y7.5526
G1 Z-0.7 F30
G1 X-16.3802 Y9.8566 F60
G1 X-17.6925 Y9.8566
G1 X-17.8953 Y7.5526
G1 Z-0.75 F30
G1 X-16.3802 Y9.8566 F60
G1 X-17.6925 Y9.8566
G1 X-17.8953 Y7.5526
G0 Z0.5
G0 X-7.6406 Y16.1379
G1 Z-0.05 F30
G1 X-8.2888 Y15.1522 F60
G1 X-8.5635 Y14.7344
G1 X-9.1557 Y13.834
G1 X-7.8434 Y13.834
G1 X-7.6406 Y16.1379
G1 Z-0.1 F30
G1 X-8.2888 Y15.1522 F60
G1 X-8.5635 Y14.7344
G1 X-9.1557 Y13.834
G1 X-7.8434 Y13.834
G1 X-7.6406 Y16.1379
G1 Z-0.15 F30
G1 X-8.2888 Y15.1522 F60
G1 X-8.5635 Y14.7344
G1 X-9.1557 Y13.834
G1 X-7.8434 Y13.834
G1 X-7.6406 Y16.1379
G1 Z-0.2 F30
G1 X-8.2888 Y15.1522 F60
G1 X-8.5635 Y14.7344
G1 X-9.1557 Y13.834
G1 X-7.8434 Y13.834
G1 X-7.6406 Y16.1379
G1 Z-0.25 F30
G1 X-8.2888 Y15.1522 F60
G1 X-8.5635 Y14.7344
G1 X-9.1557 Y13.834
G1 X-7.8434 Y13.834
G1 X-7.6406 Y16.1379
G1 Z-0.3 F30
G1 X-8.2888 Y15.1522 F60
G1 Z-0.25 F30
G1 X-8.5635 Y14.7344 F60
G1 Z-0.3 F30
G1 X-9.1557 Y13.834 F60
G1 X-7.8434 Y13.834
G1 X-7.6406 Y16.1379
G1 Z-0.35 F30
G1 X-8.2888 Y15.1522 F60
G1 Z-0.25 F30
G1 X-8.5635 Y14.7344 F60
G1 Z-0.35 F30
G1 X-9.1557 Y13.834 F60
G1 X-7.8434 Y13.834
G1 X-7.6406 Y16.1379
G1 Z-0.4 F30
G1 X-8.2888 Y15.1522 F60
G1 Z-0.25 F30
G1 X-8.5635 Y14.7344 F60
G1 Z-0.4 F30
G1 X-9.1557 Y13.834 F60
G1 X-7.8434 Y13.834
G1 X-7.6406 Y16.1379
G1 Z-0.45 F30
G1 X-8.2888 Y15.1522 F60
G1 Z-0.25 F30
G1 X-8.5635 Y14.7344 F60
G1 Z-0.45 F30
G1 X-9.1557 Y13.834 F60
G1 X-7.8434 Y13.834
G1 X-7.6406 Y16.1379
G1 Z-0.5 F30
G1 X-8.2888 Y15.1522 F60
G1 Z-0.25 F30
G1 X-8.5635 Y14.7344 F60
G1 Z-0.5 F30
G1 X-9.1557 Y13.834 F60
G1 X-7.8434 Y13.834
G1 X-7.6406 Y16.1379
G1 Z-0.55 F30
G1 X-8.2888 Y15.1522 F60
G1 Z-0.25 F30
G1 X-8.5635 Y14.7344 F60
G1 Z-0.55 F30
G1 X-9.1557 Y13.834 F60
G1 X-7.8434 Y13.834
G1 X-7.6406 Y16.1379
G1 Z-0.6 F30
G1 X-8.2888 Y15.1522 F60
G1 Z-0.25 F30
G1 X-8.5635 Y14.7344 F60
G1 Z-0.6 F30
G1 X-9.1557 Y13.834 F60
G1 X-7.8434 Y13.834
G1 X-7.6406 Y16.1379
G1 Z-0.65 F30
G1 X-8.2888 Y15.1522 F60
G1 Z-0.25 F30
G1 X-8.5635 Y14.7344 F60
G1 Z-0.65 F30
G1 X-9.1557 Y13.834 F60
G1 X-7.8434 Y13.834
G1 X-7.6406 Y16.1379
G1 Z-0.7 F30
G1 X-8.2888 Y15.1522 F60
G1 Z-0.25 F30
G1 X-8.5635 Y14.7344 F60
G1 Z-0.7 F30
G1 X-9.1557 Y13.834 F60
G1 X-7.8434 Y13.834
G1 X-7.6406 Y16.1379
G1 Z-0.75 F30
G1 X-8.2888 Y15.1522 F60
G1 Z-0.25 F30
G1 X-8.5635 Y14.7344 F60
G1 Z-0.75 F30
G1 X-9.1557 Y13.834 F60
G1 X-7.8434 Y13.834
G1 X-7.6406 Y16.1379
G0 Z0.5
G0 X-9.5167 Y9.8566
G1 Z-0.05 F30
G1 X-9.114 Y9.0203 F60
G1 X-8.897 Y8.5698
G1 X-8.398 Y7.5335
G1 X-8.1935 Y9.8566
G1 X-9.5167 Y9.8566
G1 Z-0.1 F30
G1 X-9.114 Y9.0203 F60
G1 X-8.897 Y8.5698
G1 X-8.398 Y7.5335
G1 X-8.1935 Y9.8566
G1 X-9.5167 Y9.8566
G1 Z-0.15 F30
G1 X-9.114 Y9.0203 F60
G1 X-8.897 Y8.5698
G1 X-8.398 Y7.5335
G1 X-8.1935 Y9.8566
G1 X-9.5167 Y9.8566
G1 Z-0.2 F30
G1 X-9.114 Y9.0203 F60
G1 X-8.897 Y8.5698
G1 X-8.398 Y7.5335
G1 X-8.1935 Y9.8566
G1 X-9.5167 Y9.8566
G1 Z-0.25 F30
G1 X-9.114 Y9.0203 F60
G1 X-8.897 Y8.5698
G1 X-8.398 Y7.5335
G1 X-8.1935 Y9.8566
G1 X-9.5167 Y9.8566
G1 Z-0.3 F30
G1 X-9.114 Y9.0203 F60
G1 Z-0.25 F30
G1 X-8.897 Y8.5698 F60
G1 Z-0.3 F30
G1 X-8.398 Y7.5335 F60
G1 X-8.1935 Y9.8566
G1 X-9.5167 Y9.8566
G1 Z-0.35 F30
G1 X-9.114 Y9.0203 F60
G1 Z-0.25 F30
G1 X-8.897 Y8.5698 F60
G1 Z-0.35 F30
G1 X-8.398 Y7.5335 F60
G1 X-8.1935 Y9.8566
G1 X-9.5167 Y9.8566
G1 Z-0.4 F30
G1 X-9.114 Y9.0203 F60
G1 Z-0.25 F30
G1 X-8.897 Y8.5698 F60
G1 Z-0.4 F30
G1 X-8.398 Y7.5335 F60
G1 X-8.1935 Y9.8566
G1 X-9.5167 Y9.8566
G1 Z-0.45 F30
G1 X-9.114 Y9.0203 F60
G1 Z-0.25 F30
G1 X-8.897 Y8.5698 F60
G1 Z-0.45 F30
G1 X-8.398 Y7.5335 F60
G1 X-8.1935 Y9.8566
G1 X-9.5167 Y9.8566
G1 Z-0.5 F30
G1 X-9.114 Y9.0203 F60
G1 Z-0.25 F30
G1 X-8.897 Y8.5698 F60
G1 Z-0.5 F30
G1 X-8.398 Y7.5335 F60
G1 X-8.1935 Y9.8566
G1 X-9.5167 Y9.8566
G1 Z-0.55 F30
G1 X-9.114 Y9.0203 F60
G1 Z-0.25 F30
G1 X-8.897 Y8.5698 F60
G1 Z-0.55 F30
G1 X-8.398 Y7.5335 F60
G1 X-8.1935 Y9.8566
G1 X-9.5167 Y9.8566
G1 Z-0.6 F30
G1 X-9.114 Y9.0203 F60
G1 Z-0.25 F30
G1 X-8.897 Y8.5698 F60
G1 Z-0.6 F30
G1 X-8.398 Y7.5335 F60
G1 X-8.1935 Y9.8566
G1 X-9.5167 Y9.8566
G1 Z-0.65 F30
G1 X-9.114 Y9.0203 F60
G1 Z-0.25 F30
G1 X-8.897 Y8.5698 F60
G1 Z-0.65 F30
G1 X-8.398 Y7.5335 F60
G1 X-8.1935 Y9.8566
G1 X-9.5167 Y9.8566
G1 Z-0.7 F30
G1 X-9.114 Y9.0203 F60
G1 Z-0.25 F30
G1 X-8.897 Y8.5698 F60
G1 Z-0.7 F30
G1 X-8.398 Y7.5335 F60
G1 X-8.1935 Y9.8566
G1 X-9.5167 Y9.8566
G1 Z-0.75 F30
G1 X-9.114 Y9.0203 F60
G1 Z-0.25 F30
G1 X-8.897 Y8.5698 F60
G1 Z-0.75 F30
G1 X-8.398 Y7.5335 F60
G1 X-8.1935 Y9.8566
G1 X-9.5167 Y9.8566
G0 Z0.5
G0 X-16.0192 Y13.834
G1 Z-0.05 F30
G1 X-17.1379 Y16.1569 F60
G1 X-17.3423 Y13.834
G1 X-16.0192 Y13.834
G1 Z-0.1 F30
G1 X-17.1379 Y16.1569 F60
G1 X-17.3423 Y13.834
G1 X-16.0192 Y13.834
G1 Z-0.15 F30
G1 X-17.1379 Y16.1569 F60
G1 X-17.3423 Y13.834
G1 X-16.0192 Y13.834
G1 Z-0.2 F30
G1 X-17.1379 Y16.1569 F60
G1 X-17.3423 Y13.834
G1 X-16.0192 Y13.834
G1 Z-0.25 F30
G1 X-17.1379 Y16.1569 F60
G1 X-17.3423 Y13.834
G1 X-16.0192 Y13.834
G1 Z-0.3 F30
G1 X-17.1379 Y16.1569 F60
G1 X-17.3423 Y13.834
G1 X-16.0192 Y13.834
G1 Z-0.35 F30
G1 X-17.1379 Y16.1569 F60
G1 X-17.3423 Y13.834
G1 X-16.0192 Y13.834
G1 Z-0.4 F30
G1 X-17.1379 Y16.1569 F60
G1 X-17.3423 Y13.834
G1 X-16.0192 Y13.834
G1 Z-0.45 F30
G1 X-17.1379 Y16.1569 F60
G1 X-17.3423 Y13.834
G1 X-16.0192 Y13.834
G1 Z-0.5 F30
G1 X-17.1379 Y16.1569 F60
G1 X-17.3423 Y13.834
G1 X-16.0192 Y13.834
G1 Z-0.55 F30
G1 X-17.1379 Y16.1569 F60
G1 X-17.3423 Y13.834
G1 X-16.0192 Y13.834
G1 Z-0.6 F30
G1 X-17.1379 Y16.1569 F60
G1 X-17.3423 Y13.834
G1 X-16.0192 Y13.834
G1 Z-0.65 F30
G1 X-17.1379 Y16.1569 F60
G1 X-17.3423 Y13.834
G1 X-16.0192 Y13.834
G1 Z-0.7 F30
G1 X-17.1379 Y16.1569 F60
G1 X-17.3423 Y13.834
G1 X-16.0192 Y13.834
G1 Z-0.75 F30
G1 X-17.1379 Y16.1569 F60
G1 X-17.3423 Y13.834
G1 X-16.0192 Y13.834

(profile 3)
G0 Z0.5
G0 X-5.0771 Y25.8859
G1 Z-0.05 F30
G1 X-18.0091 Y25.8858 F60
G3 X-18.0934 Y25.8531 I0 J-0.125
G1 X-18.3323 Y25.6347
G1 X-18.979 Y25.0436
G1 X-19.5557 Y24.5165
G1 X-20.4413 Y23.7071
G3 X-20.4815 Y23.6257 I0.0843 J-0.0923
G1 X-20.5084 Y23.3171
G1 X-21.3996 Y13.1928
G3 X-21.4 Y13.1818 I0.1245 J-0.011
G3 X-21.3671 Y13.0973 I0.125 J0
G1 X-20.2249 Y11.8531
G1 X-21.5947 Y10.601
G3 X-21.6349 Y10.5197 I0.0843 J-0.0923
G1 X-22.5532 Y0.0866
G3 X-22.5537 Y0.0757 I0.1245 J-0.011
G3 X-22.5208 Y-0.0089 I0.125 J0
G1 X-22.3204 Y-0.2273
G1 X-21.2937 Y-1.3455
G1 X-20.5506 Y-2.1549
G3 X-20.4585 Y-2.1954 I0.0921 J0.0845
G1 X-20.1479 Y-2.1954
G1 X-7.5266 Y-2.1954
G3 X-7.4423 Y-2.1627 I0 J0.125
G1 X-6.5567 Y-1.3532
G1 X-5.0944 Y-0.0167
G3 X-5.0542 Y0.0647 I-0.0843 J0.0923
G1 X-5.0272 Y0.3734
G1 X-4.1361 Y10.4976
G3 X-4.1356 Y10.5086 I-0.1245 J0.011
G3 X-4.1685 Y10.5931 I-0.125 J0
G1 X-5.3107 Y11.8374
G1 X-3.9409 Y13.0894
G3 X-3.9007 Y13.1707 I-0.0843 J0.0923
G1 X-2.9825 Y23.6039
G3 X-2.982 Y23.6148 I-0.1245 J0.011
G3 X-3.0149 Y23.6994 I-0.125 J0
G1 X-3.2153 Y23.9177
G1 X-3.758 Y24.5088
G1 X-4.242 Y25.0359
G1 X-4.985 Y25.8454
G3 X-5.0771 Y25.8859 I-0.0921 J-0.0845
G1 Z-0.1 F30
G1 X-18.0091 Y25.8858 F60
G3 X-18.0934 Y25.8531 I0 J-0.125
G1 X-18.3323 Y25.6347
G1 X-18.979 Y25.0436
G1 X-19.5557 Y24.5165
G1 X-20.4413 Y23.7071
G3 X-20.4815 Y23.6257 I0.0843 J-0.0923
G1 X-20.5084 Y23.3171
G1 X-21.3996 Y13.1928
G3 X-21.4 Y13.1818 I0.1245 J-0.011
G3 X-21.3671 Y13.0973 I0.125 J0
G1 X-20.2249 Y11.8531
G1 X-21.5947 Y10.601
G3 X-21.6349 Y10.5197 I0.0843 J-0.0923
G1 X-22.5532 Y0.0866
G3 X-22.5537 Y0.0757 I0.1245 J-0.011
G3 X-22.5208 Y-0.0089 I0.125 J0
G1 X-22.3204 Y-0.2273
G1 X-21.2937 Y-1.3455
G1 X-20.5506 Y-2.1549
G3 X-20.4585 Y-2.1954 I0.0921 J0.0845
G1 X-20.1479 Y-2.1954
G1 X-7.5266 Y-2.1954
G3 X-7.4423 Y-2.1627 I0 J0.125
G1 X-6.5567 Y-1.3532
G1 X-5.0944 Y-0.0167
G3 X-5.0542 Y0.0647 I-0.0843 J0.0923
G1 X-5.0272 Y0.3734
G1 X-4.1361 Y10.4976
G3 X-4.1356 Y10.5086 I-0.1245 J0.011
G3 X-4.1685 Y10.5931 I-0.125 J0
G1 X-5.3107 Y11.8374
G1 X-3.9409 Y13.0894
G3 X-3.9007 Y13.1707 I-0.0843 J0.0923
G1 X-2.9825 Y23.6039
G3 X-2.982 Y23.6148 I-0.1245 J0.011
G3 X-3.0149 Y23.6994 I-0.125 J0
G1 X-3.2153 Y23.9177
G1 X-3.758 Y24.5088
G1 X-4.242 Y25.0359
G1 X-4.985 Y25.8454
G3 X-5.0771 Y25.8859 I-0.0921 J-0.0845
G1 Z-0.15 F30
G1 X-18.0091 Y25.8858 F60
G3 X-18.0934 Y25.8531 I0 J-0.125
G1 X-18.3323 Y25.6347
G1 X-18.979 Y25.0436
G1 X-19.5557 Y24.5165
G1 X-20.4413 Y23.7071
G3 X-20.4815 Y23.6257 I0.0843 J-0.0923
G1 X-20.5084 Y23.3171
G1 X-21.3996 Y13.1928
G3 X-21.4 Y13.1818 I0.1245 J-0.011
G3 X-21.3671 Y13.0973 I0.125 J0
G1 X-20.2249 Y11.8531
G1 X-21.5947 Y10.601
G3 X-21.6349 Y10.5197 I0.0843 J-0.0923
G1 X-22.5532 Y0.0866
G3 X-22.5537 Y0.0757 I0.1245 J-0.011
G3 X-22.5208 Y-0.0089 I0.125 J0
G1 X-22.3204 Y-0.2273
G1 X-21.2937 Y-1.3455
G1 X-20.5506 Y-2.1549
G3 X-20.4585 Y-2.1954 I0.0921 J0.0845
G1 X-20.1479 Y-2.1954
G1 X-7.5266 Y-2.1954
G3 X-7.4423 Y-2.1627 I0 J0.125
G1 X-6.5567 Y-1.3532
G1 X-5.0944 Y-0.0167
G3 X-5.0542 Y0.0647 I-0.0843 J0.0923
G1 X-5.0272 Y0.3734
G1 X-4.1361 Y10.4976
G3 X-4.1356 Y10.5086 I-0.1245 J0.011
G3 X-4.1685 Y10.5931 I-0.125 J0
G1 X-5.3107 Y11.8374
G1 X-3.9409 Y13.0894
G3 X-3.9007 Y13.1707 I-0.0843 J0.0923
G1 X-2.9825 Y23.6039
G3 X-2.982 Y23.6148 I-0.1245 J0.011
G3 X-3.0149 Y23.6994 I-0.125 J0
G1 X-3.2153 Y23.9177
G1 X-3.758 Y24.5088
G1 X-4.242 Y25.0359
G1 X-4.985 Y25.8454
G3 X-5.0771 Y25.8859 I-0.0921 J-0.0845
G1 Z-0.2 F30
G1 X-18.0091 Y25.8858 F60
G3 X-18.0934 Y25.8531 I0 J-0.125
G1 X-18.3323 Y25.6347
G1 X-18.979 Y25.0436
G1 X-19.5557 Y24.5165
G1 X-20.4413 Y23.7071
G3 X-20.4815 Y23.6257 I0.0843 J-0.0923
G1 X-20.5084 Y23.3171
G1 X-21.3996 Y13.1928
G3 X-21.4 Y13.1818 I0.1245 J-0.011
G3 X-21.3671 Y13.0973 I0.125 J0
G1 X-20.2249 Y11.8531
G1 X-21.5947 Y10.601
G3 X-21.6349 Y10.5197 I0.0843 J-0.0923
G1 X-22.5532 Y0.0866
G3 X-22.5537 Y0.0757 I0.1245 J-0.011
G3 X-22.5208 Y-0.0089 I0.125 J0
G1 X-22.3204 Y-0.2273
G1 X-21.2937 Y-1.3455
G1 X-20.5506 Y-2.1549
G3 X-20.4585 Y-2.1954 I0.0921 J0.0845
G1 X-20.1479 Y-2.1954
G1 X-7.5266 Y-2.1954
G3 X-7.4423 Y-2.1627 I0 J0.125
G1 X-6.5567 Y-1.3532
G1 X-5.0944 Y-0.0167
G3 X-5.0542 Y0.0647 I-0.0843 J0.0923
G1 X-5.0272 Y0.3734
G1 X-4.1361 Y10.4976
G3 X-4.1356 Y10.5086 I-0.1245 J0.011
G3 X-4.1685 Y10.5931 I-0.125 J0
G1 X-5.3107 Y11.8374
G1 X-3.9409 Y13.0894
G3 X-3.9007 Y13.1707 I-0.0843 J0.0923
G1 X-2.9825 Y23.6039
G3 X-2.982 Y23.6148 I-0.1245 J0.011
G3 X-3.0149 Y23.6994 I-0.125 J0
G1 X-3.2153 Y23.9177
G1 X-3.758 Y24.5088
G1 X-4.242 Y25.0359
G1 X-4.985 Y25.8454
G3 X-5.0771 Y25.8859 I-0.0921 J-0.0845
G1 Z-0.25 F30
G1 X-18.0091 Y25.8858 F60
G3 X-18.0934 Y25.8531 I0 J-0.125
G1 X-18.3323 Y25.6347
G1 X-18.979 Y25.0436
G1 X-19.5557 Y24.5165
G1 X-20.4413 Y23.7071
G3 X-20.4815 Y23.6257 I0.0843 J-0.0923
G1 X-20.5084 Y23.3171
G1 X-21.3996 Y13.1928
G3 X-21.4 Y13.1818 I0.1245 J-0.011
G3 X-21.3671 Y13.0973 I0.125 J0
G1 X-20.2249 Y11.8531
G1 X-21.5947 Y10.601
G3 X-21.6349 Y10.5197 I0.0843 J-0.0923
G1 X-22.5532 Y0.0866
G3 X-22.5537 Y0.0757 I0.1245 J-0.011
G3 X-22.5208 Y-0.0089 I0.125 J0
G1 X-22.3204 Y-0.2273
G1 X-21.2937 Y-1.3455
G1 X-20.5506 Y-2.1549
G3 X-20.4585 Y-2.1954 I0.0921 J0.0845
G1 X-20.1479 Y-2.1954
G1 X-7.5266 Y-2.1954
G3 X-7.4423 Y-2.1627 I0 J0.125
G1 X-6.5567 Y-1.3532
G1 X-5.0944 Y-0.0167
G3 X-5.0542 Y0.0647 I-0.0843 J0.0923
G1 X-5.0272 Y0.3734
G1 X-4.1361 Y10.4976
G3 X-4.1356 Y10.5086 I-0.1245 J0.011
G3 X-4.1685 Y10.5931 I-0.125 J0
G1 X-5.3107 Y11.8374
G1 X-3.9409 Y13.0894
G3 X-3.9007 Y13.1707 I-0.0843 J0.0923
G1 X-2.9825 Y23.6039
G3 X-2.982 Y23.6148 I-0.1245 J0.011
G3 X-3.0149 Y23.6994 I-0.125 J0
G1 X-3.2153 Y23.9177
G1 X-3.758 Y24.5088
G1 X-4.242 Y25.0359
G1 X-4.985 Y25.8454
G3 X-5.0771 Y25.8859 I-0.0921 J-0.0845
G1 Z-0.3 F30
G1 X-18.0091 Y25.8858 F60
G3 X-18.0934 Y25.8531 I0 J-0.125
G1 X-18.3323 Y25.6347
G1 X-18.979 Y25.0436
G1 X-19.5557 Y24.5165
G1 X-20.4413 Y23.7071
G3 X-20.4815 Y23.6257 I0.0843 J-0.0923
G1 X-20.5084 Y23.3171
G1 X-21.3996 Y13.1928
G3 X-21.4 Y13.1818 I0.1245 J-0.011
G3 X-21.3671 Y13.0973 I0.125 J0
G1 X-20.2249 Y11.8531
G1 X-21.5947 Y10.601
G3 X-21.6349 Y10.5197 I0.0843 J-0.0923
G1 X-22.5532 Y0.0866
G3 X-22.5537 Y0.0757 I0.1245 J-0.011
G3 X-22.5208 Y-0.0089 I0.125 J0
G1 X-22.3204 Y-0.2273
G1 X-21.2937 Y-1.3455
G1 X-20.5506 Y-2.1549
G3 X-20.4585 Y-2.1954 I0.0921 J0.0845
G1 X-20.1479 Y-2.1954
G1 X-7.5266 Y-2.1954
G3 X-7.4423 Y-2.1627 I0 J0.125
G1 X-6.5567 Y-1.3532
G1 X-5.0944 Y-0.0167
G3 X-5.0542 Y0.0647 I-0.0843 J0.0923
G1 X-5.0272 Y0.3734
G1 X-4.1361 Y10.4976
G3 X-4.1356 Y10.5086 I-0.1245 J0.011
G3 X-4.1685 Y10.5931 I-0.125 J0
G1 X-5.3107 Y11.8374
G1 X-3.9409 Y13.0894
G3 X-3.9007 Y13.1707 I-0.0843 J0.0923
G1 X-2.9825 Y23.6039
G3 X-2.982 Y23.6148 I-0.1245 J0.011
G3 X-3.0149 Y23.6994 I-0.125 J0
G1 X-3.2153 Y23.9177
G1 X-3.758 Y24.5088
G1 X-4.242 Y25.0359
G1 X-4.985 Y25.8454
G3 X-5.0771 Y25.8859 I-0.0921 J-0.0845
G1 Z-0.35 F30
G1 X-18.0091 Y25.8858 F60
G3 X-18.0934 Y25.8531 I0 J-0.125
G1 X-18.3323 Y25.6347
G1 X-18.979 Y25.0436
G1 X-19.5557 Y24.5165
G1 X-20.4413 Y23.7071
G3 X-20.4815 Y23.6257 I0.0843 J-0.0923
G1 X-20.5084 Y23.3171
G1 X-21.3996 Y13.1928
G3 X-21.4 Y13.1818 I0.1245 J-0.011
G3 X-21.3671 Y13.0973 I0.125 J0
G1 X-20.2249 Y11.8531
G1 X-21.5947 Y10.601
G3 X-21.6349 Y10.5197 I0.0843 J-0.0923
G1 X-22.5532 Y0.0866
G3 X-22.5537 Y0.0757 I0.1245 J-0.011
G3 X-22.5208 Y-0.0089 I0.125 J0
G1 X-22.3204 Y-0.2273
G1 X-21.2937 Y-1.3455
G1 X-20.5506 Y-2.1549
G3 X-20.4585 Y-2.1954 I0.0921 J0.0845
G1 X-20.1479 Y-2.1954
G1 X-7.5266 Y-2.1954
G3 X-7.4423 Y-2.1627 I0 J0.125
G1 X-6.5567 Y-1.3532
G1 X-5.0944 Y-0.0167
G3 X-5.0542 Y0.0647 I-0.0843 J0.0923
G1 X-5.0272 Y0.3734
G1 X-4.1361 Y10.4976
G3 X-4.1356 Y10.5086 I-0.1245 J0.011
G3 X-4.1685 Y10.5931 I-0.125 J0
G1 X-5.3107 Y11.8374
G1 X-3.9409 Y13.0894
G3 X-3.9007 Y13.1707 I-0.0843 J0.0923
G1 X-2.9825 Y23.6039
G3 X-2.982 Y23.6148 I-0.1245 J0.011
G3 X-3.0149 Y23.6994 I-0.125 J0
G1 X-3.2153 Y23.9177
G1 X-3.758 Y24.5088
G1 X-4.242 Y25.0359
G1 X-4.985 Y25.8454
G3 X-5.0771 Y25.8859 I-0.0921 J-0.0845
G1 Z-0.4 F30
G1 X-18.0091 Y25.8858 F60
G3 X-18.0934 Y25.8531 I0 J-0.125
G1 X-18.3323 Y25.6347
G1 X-18.979 Y25.0436
G1 X-19.5557 Y24.5165
G1 X-20.4413 Y23.7071
G3 X-20.4815 Y23.6257 I0.0843 J-0.0923
G1 X-20.5084 Y23.3171
G1 X-21.3996 Y13.1928
